<?xml version="1.0" encoding="UTF-8"?>
<map version="1.10" tiledversion="1.12.2" orientation="orthogonal" renderorder="right-down" width="50" height="50" tilewidth="32" tileheight="32" infinite="0" nextlayerid="10" nextobjectid="1">
 <tileset firstgid="1" source="../Tilesets/sandy_indoor.tsx"/>
 <tileset firstgid="3465" source="lab.tsx"/>
 <tileset firstgid="3857" source="passages.tsx"/>
 <tileset firstgid="4001" source="systemtags.tsx"/>
 <layer id="1" name="floor1" width="50" height="50">
  <data encoding="csv">
1937,1937,1937,1937,1937,1937,1937,1937,1937,1937,1937,1937,1937,1937,1937,1937,1937,1937,1937,1937,1937,1937,1937,1937,1937,1937,1937,1937,1937,1937,1937,1937,1937,1937,1937,1937,1937,1937,1937,1937,1937,1937,1937,1937,1937,1937,1937,1937,1937,1937,
1937,1937,1937,1937,1937,1937,1937,1937,1937,1937,1937,1937,1937,1937,1937,1937,1937,1937,1937,1937,1937,1937,1937,1937,1937,1937,1937,1937,1937,1937,1937,1937,1937,1937,1937,1937,1937,1937,1937,1937,1937,1937,1937,1937,1937,1937,1937,1937,1937,1937,
1937,1937,1937,1937,1937,1937,1937,1937,1937,1937,1937,1937,1937,1937,1937,3307,3307,3307,3307,3307,3307,3307,3307,3307,3307,3307,3307,3307,1937,1937,1937,1937,1937,1937,1937,1937,1937,1937,1937,1937,1937,1937,1937,1937,1937,1937,1937,1937,1937,1937,
1937,1937,1937,1937,1937,1937,1937,1937,1937,1937,1937,1937,1937,1937,1937,3315,3315,3315,3315,3315,3315,3315,3315,3315,3315,3315,3315,3315,1937,1937,1937,1937,1937,1937,1937,1937,1937,1937,1937,1937,1937,1937,1937,1937,1937,1937,1937,1937,1937,1937,
1937,1937,1937,1937,1937,1937,1937,1937,1937,1937,1937,1937,1937,1937,1937,3743,3736,3736,3736,3736,3736,3736,3736,3736,3736,3736,3736,3736,1937,1937,1937,1937,1937,1937,1937,1937,1937,1937,1937,1937,1937,1937,1937,1937,1937,1937,1937,1937,1937,1937,
1937,1937,1937,1937,1937,1937,1937,1937,1937,1937,1937,1937,1937,1937,1937,3743,3735,3735,3735,3735,3735,3735,3735,3735,3735,3735,3735,3735,1937,1937,1937,1937,1937,1937,1937,1937,1937,1937,1937,1937,1937,1937,1937,1937,1937,1937,1937,1937,1937,1937,
1937,1937,1937,1937,1937,1937,1937,1937,1937,1937,1937,1937,1937,1937,1937,3743,3735,3735,3735,3735,3735,3735,3735,3735,3735,3735,3735,3735,1937,1937,1937,1937,1937,1937,1937,1937,1937,1937,1937,1937,1937,1937,1937,1937,1937,1937,1937,1937,1937,1937,
1937,1937,1937,1937,1937,1937,1937,1937,1937,1937,1937,1937,1937,1937,1937,3743,3735,3735,3735,3735,3735,3735,3735,3735,3735,3735,3735,3735,1937,1937,1937,1937,1937,1937,1937,1937,1937,1937,1937,1937,1937,1937,1937,1937,1937,1937,1937,1937,1937,1937,
1937,1937,1937,1937,1937,1937,1937,1937,1937,1937,1937,1937,1937,1937,1937,3743,3735,3735,3735,3735,3735,3735,3735,3735,3735,3735,3735,3735,1937,1937,1937,1937,1937,1937,1937,1937,1937,1937,1937,1937,1937,1937,1937,1937,1937,1937,1937,1937,1937,1937,
1937,1937,1937,1937,1937,1937,1937,1937,1937,1937,1937,1937,1937,1937,1937,3743,3735,3735,3735,3735,3735,3735,3735,3735,3735,3735,3735,3735,1937,1937,1937,1937,1937,1937,1937,1937,1937,1937,1937,1937,1937,1937,1937,1937,1937,1937,1937,1937,1937,1937,
1937,1937,1937,1937,1937,1937,1937,1937,1937,1937,1937,1937,1937,1937,1937,3743,3735,3735,3735,3735,3735,3735,3735,3735,3735,3735,3735,3735,1937,1937,1937,1937,1937,1937,1937,1937,1937,1937,1937,1937,1937,1937,1937,1937,1937,1937,1937,1937,1937,1937,
1937,1937,1937,1937,1937,1937,1937,1937,1937,1937,1937,1937,1937,1937,1937,3743,3735,3735,3735,3735,3735,3735,3735,3735,3735,3735,3735,3735,1937,1937,1937,1937,1937,1937,1937,1937,1937,1937,1937,1937,1937,1937,1937,1937,1937,1937,1937,1937,1937,1937,
1937,1937,1937,1937,1937,1937,1937,1937,1937,1937,1937,1937,1937,1937,1937,3743,3735,3735,3735,3735,3735,3735,3735,3735,3735,3735,3735,3735,1937,1937,1937,1937,1937,1937,1937,1937,1937,1937,1937,1937,1937,1937,1937,1937,1937,1937,1937,1937,1937,1937,
1937,1937,1937,1937,1937,1937,1937,1937,1937,1937,1937,1937,1937,1937,1937,3743,3735,3735,3735,3735,3735,3735,3735,3735,3735,3735,3735,3735,1937,1937,1937,1937,1937,1937,1937,1937,1937,1937,1937,1937,1937,1937,1937,1937,1937,1937,1937,1937,1937,1937,
1937,1937,1937,1937,1937,1937,1937,1937,1937,1937,1937,1937,1937,1937,1937,1937,1937,1937,1937,3743,3735,3735,3735,3735,1937,1937,1937,1937,1937,1937,1937,1937,1937,1937,1937,1937,1937,1937,1937,1937,1937,1937,1937,1937,1937,1937,1937,1937,1937,1937,
1937,1937,1937,1937,1937,1937,1937,1937,1937,1937,1937,1937,1937,1937,1937,1937,1937,1937,1937,3743,3735,3735,3735,3735,1937,1937,1937,1937,1937,1937,1937,1937,1937,1937,1937,1937,1937,1937,1937,1937,1937,1937,1937,1937,1937,1937,1937,1937,1937,1937,
1937,1937,1937,1937,1937,1937,1937,1937,1937,1937,1937,1937,1937,1937,1937,1937,1937,1937,1937,3743,3735,3735,3735,3735,1937,1937,1937,1937,1937,1937,1937,1937,1937,1937,1937,1937,1937,1937,1937,1937,1937,1937,1937,1937,1937,1937,1937,1937,1937,1937,
1937,1937,1937,1937,1937,1937,1937,1937,1937,1937,1937,1937,1937,1937,1937,1937,1937,1937,1937,3743,3735,3735,3735,3735,1937,1937,1937,1937,1937,1937,1937,1937,1937,1937,1937,1937,1937,1937,1937,1937,1937,1937,1937,1937,1937,1937,1937,1937,1937,1937,
1937,1937,1937,1937,1937,1937,1937,1937,1937,1937,1937,1937,1937,1937,1937,1937,1937,1937,1937,3743,3735,3735,3735,3735,1937,1937,1937,1937,1937,1937,1937,1937,1937,1937,1937,1937,1937,1937,1937,1937,1937,1937,1937,1937,1937,1937,1937,1937,1937,1937,
1937,1937,1937,1937,1937,1937,1937,1937,1937,1937,1937,1937,1937,1937,1937,1937,1937,1937,3307,3743,3735,3735,3735,3735,3307,1937,1937,1937,1937,1937,1937,1937,1937,1937,1937,1937,1937,1937,1937,1937,1937,1937,1937,1937,1937,1937,1937,1937,1937,1937,
1937,1937,1937,1937,1937,1937,1937,1937,1937,1937,1937,1937,1937,1937,1937,1937,1937,1937,3315,3743,3735,3735,3735,3735,3315,1937,1937,1937,1937,1937,1937,1937,1937,1937,1937,1937,1937,1937,1937,1937,1937,1937,1937,1937,1937,1937,1937,1937,1937,1937,
1937,1937,1937,1937,1937,1937,1937,1937,1937,1937,1937,1937,1937,1937,1937,1937,1937,1937,3736,3736,3735,3735,3735,3735,3736,1937,1937,1937,1937,1937,1937,1937,1937,1937,1937,1937,1937,1937,1937,1937,1937,1937,1937,1937,1937,1937,1937,1937,1937,1937,
1937,1937,1937,1937,1937,1937,1937,1937,1937,1937,1937,1937,1937,1937,1937,1937,1937,1937,3735,3735,3735,3735,3735,3735,3735,1937,1937,1937,1937,1937,1937,1937,1937,1937,1937,1937,1937,1937,1937,1937,1937,1937,1937,1937,1937,1937,1937,1937,1937,1937,
1937,1937,1937,1937,1937,1937,1937,1937,1937,1937,1937,1937,1937,1937,1937,1937,1937,1937,1937,3743,3735,3735,3735,3735,1937,1937,1937,1937,1937,1937,1937,1937,1937,1937,1937,1937,1937,1937,1937,1937,1937,1937,1937,1937,1937,1937,1937,1937,1937,1937,
1937,1937,1937,1937,1937,1937,1937,1937,1937,1937,1937,1937,1937,1937,1937,1937,1937,1937,1937,3743,3735,3735,3735,3735,1937,1937,1937,1937,1937,1937,1937,1937,1937,1937,1937,1937,1937,1937,1937,1937,1937,1937,1937,1937,1937,1937,1937,1937,1937,1937,
1937,1937,1937,1937,1937,1937,1937,1937,1937,1937,1937,1937,1937,1937,1937,1937,1937,1937,1937,3743,3735,3735,3735,3735,1937,1937,1937,1937,1937,1937,1937,1937,1937,1937,1937,1937,1937,1937,1937,1937,1937,1937,1937,1937,1937,1937,1937,1937,1937,1937,
1937,1937,1937,1937,1937,1937,1937,1937,1937,1937,1937,1937,1937,1937,1937,1937,1937,1937,3307,3743,3735,3735,3735,3735,3307,1937,1937,1937,1937,1937,1937,1937,1937,1937,1937,1937,1937,1937,1937,1937,1937,1937,1937,1937,1937,1937,1937,1937,1937,1937,
1937,1937,1937,1937,1937,1937,1937,1937,1937,1937,1937,1937,1937,1937,1937,1937,1937,1937,3315,3743,3735,3735,3735,3735,3315,1937,1937,1937,1937,1937,1937,1937,1937,1937,1937,1937,1937,1937,1937,1937,1937,1937,1937,1937,1937,1937,1937,1937,1937,1937,
1937,1937,1937,1937,1937,1937,1937,1937,1937,1937,1937,1937,1937,1937,1937,1937,1937,1937,3736,3736,3735,3735,3735,3735,3736,1937,1937,1937,1937,1937,1937,1937,1937,1937,1937,1937,1937,1937,1937,1937,1937,1937,1937,1937,1937,1937,1937,1937,1937,1937,
1937,1937,1937,1937,1937,1937,1937,1937,1937,1937,1937,1937,1937,1937,1937,1937,1937,1937,3735,3735,3735,3735,3735,3735,3735,1937,1937,1937,1937,1937,1937,1937,1937,1937,1937,1937,1937,1937,1937,1937,1937,1937,1937,1937,1937,1937,1937,1937,1937,1937,
1937,1937,1937,1937,1937,1937,1937,1937,1937,1937,1937,1937,1937,1937,1937,1937,1937,1937,1937,3743,3735,3735,3735,3735,1937,1937,1937,1937,1937,1937,1937,1937,1937,1937,1937,1937,1937,1937,1937,1937,1937,1937,1937,1937,1937,1937,1937,1937,1937,1937,
1937,1937,1937,1937,1937,1937,1937,1937,1937,1937,1937,1937,1937,1937,1937,1937,1937,1937,1937,3743,3735,3735,3735,3735,1937,1937,1937,1937,1937,1937,1937,1937,1937,1937,1937,1937,1937,1937,1937,1937,1937,1937,1937,1937,1937,1937,1937,1937,1937,1937,
1937,1937,1937,1937,1937,1937,1937,1937,1937,1937,1937,1937,1937,1937,1937,1937,1937,1937,1937,3743,3735,3735,3735,3735,1937,1937,1937,1937,1937,1937,1937,1937,1937,1937,1937,1937,1937,1937,1937,1937,1937,1937,1937,1937,1937,1937,1937,1937,1937,1937,
1937,1937,1937,1937,1937,1937,1937,1937,1937,1937,1937,1937,1937,1937,1937,1937,1937,1937,1937,3743,3735,3735,3735,3735,1937,1937,1937,1937,1937,3306,3307,3308,1937,1937,1937,3306,3307,3308,1937,1937,1937,1937,1937,1937,1937,1937,1937,1937,1937,1937,
1937,1937,1937,1937,1937,1937,1937,1937,1937,1937,1937,1937,1937,1937,1937,1937,1937,1937,1937,3743,3735,3735,3735,3735,3307,3307,3307,3307,3307,3315,3315,3315,3307,3307,3307,3315,3315,3315,3307,3307,3307,3307,1937,1937,1937,1937,1937,1937,1937,1937,
1937,1937,1937,1937,1937,1937,1937,1937,1937,1937,1937,1937,1937,1937,1937,1937,1937,1937,1937,3743,3735,3735,3735,3735,3315,3315,3315,3315,3315,3736,3736,3736,3315,3315,3315,3736,3736,3736,3315,3315,3315,3315,1937,1937,1937,1937,1937,1937,1937,1937,
1937,1937,1937,1937,1937,1937,1937,1937,1937,1937,1937,1937,1937,1937,1937,1937,1937,1937,1937,3743,3735,3735,3735,3735,3736,3736,3736,3736,3736,3735,3735,3735,3736,3736,3736,3735,3735,3735,3736,3736,3736,3736,1937,1937,1937,1937,1937,1937,1937,1937,
1937,1937,1937,1937,1937,1937,1937,1937,1937,1937,1937,1937,1937,1937,1937,1937,1937,1937,1937,3743,3735,3735,3735,3735,3735,3735,3735,3735,3735,3735,3735,3735,3735,3735,3735,3735,3735,3735,3735,3735,3735,3735,1937,1937,1937,1937,1937,1937,1937,1937,
1937,1937,1937,1937,1937,1937,1937,1937,1937,1937,1937,1937,1937,1937,1937,1937,1937,1937,1937,3743,3735,3735,3735,3735,3735,3735,3735,3735,3735,3735,3735,3735,3735,3735,3735,3735,3735,3735,3735,3735,3735,3735,1937,1937,1937,1937,1937,1937,1937,1937,
1937,1937,1937,1937,1937,1937,1937,1937,1937,1937,1937,1937,1937,1937,1937,1937,1937,1937,1937,1937,1937,1937,1937,1937,1937,1937,1937,1937,1937,3735,3735,3735,1937,1937,1937,3735,3735,3735,1937,1937,1937,1937,1937,1937,1937,1937,1937,1937,1937,1937,
1937,1937,1937,1937,1937,1937,1937,1937,1937,1937,1937,1937,1937,1937,1937,1937,1937,1937,1937,1937,1937,1937,1937,1937,1937,1937,1937,1937,1937,1937,1937,1937,1937,1937,1937,1937,1937,1937,1937,1937,1937,1937,1937,1937,1937,1937,1937,1937,1937,1937,
1937,1937,1937,1937,1937,1937,1937,1937,1937,1937,1937,1937,1937,1937,1937,1937,1937,1937,1937,1937,1937,1937,1937,1937,1937,1937,1937,1937,1937,1937,1937,1937,1937,1937,1937,1937,1937,1937,1937,1937,1937,1937,1937,1937,1937,1937,1937,1937,1937,1937,
1937,1937,1937,1937,1937,1937,1937,1937,1937,1937,1937,1937,1937,1937,1937,1937,1937,1937,1937,1937,1937,1937,1937,1937,1937,1937,1937,1937,1937,1937,1937,1937,1937,1937,1937,1937,1937,1937,1937,1937,1937,1937,1937,1937,1937,1937,1937,1937,1937,1937,
1937,1937,1937,1937,1937,1937,1937,1937,1937,1937,1937,1937,1937,1937,1937,1937,1937,1937,1937,1937,1937,1937,1937,1937,1937,1937,1937,1937,1937,1937,1937,1937,1937,1937,1937,1937,1937,1937,1937,1937,1937,1937,1937,1937,1937,1937,1937,1937,1937,1937,
1937,1937,1937,1937,1937,1937,1937,1937,1937,1937,1937,1937,1937,1937,1937,1937,1937,1937,1937,1937,1937,1937,1937,1937,1937,1937,1937,1937,1937,1937,1937,1937,1937,1937,1937,1937,1937,1937,1937,1937,1937,1937,1937,1937,1937,1937,1937,1937,1937,1937,
1937,1937,1937,1937,1937,1937,1937,1937,1937,1937,1937,1937,1937,1937,1937,1937,1937,1937,1937,1937,1937,1937,1937,1937,1937,1937,1937,1937,1937,1937,1937,1937,1937,1937,1937,1937,1937,1937,1937,1937,1937,1937,1937,1937,1937,1937,1937,1937,1937,1937,
1937,1937,1937,1937,1937,1937,1937,1937,1937,1937,1937,1937,1937,1937,1937,1937,1937,1937,1937,1937,1937,1937,1937,1937,1937,1937,1937,1937,1937,1937,1937,1937,1937,1937,1937,1937,1937,1937,1937,1937,1937,1937,1937,1937,1937,1937,1937,1937,1937,1937,
1937,1937,1937,1937,1937,1937,1937,1937,1937,1937,1937,1937,1937,1937,1937,1937,1937,1937,1937,1937,1937,1937,1937,1937,1937,1937,1937,1937,1937,1937,1937,1937,1937,1937,1937,1937,1937,1937,1937,1937,1937,1937,1937,1937,1937,1937,1937,1937,1937,1937,
1937,1937,1937,1937,1937,1937,1937,1937,1937,1937,1937,1937,1937,1937,1937,1937,1937,1937,1937,1937,1937,1937,1937,1937,1937,1937,1937,1937,1937,1937,1937,1937,1937,1937,1937,1937,1937,1937,1937,1937,1937,1937,1937,1937,1937,1937,1937,1937,1937,1937,
1937,1937,1937,1937,1937,1937,1937,1937,1937,1937,1937,1937,1937,1937,1937,1937,1937,1937,1937,1937,1937,1937,1937,1937,1937,1937,1937,1937,1937,1937,1937,1937,1937,1937,1937,1937,1937,1937,1937,1937,1937,1937,1937,1937,1937,1937,1937,1937,1937,1937
</data>
 </layer>
 <layer id="2" name="decoration1" width="50" height="50">
  <data encoding="csv">
0,0,0,0,0,0,0,0,0,0,0,0,0,0,0,0,0,0,0,0,0,0,0,0,0,0,0,0,0,0,0,0,0,0,0,0,0,0,0,0,0,0,0,0,0,0,0,0,0,0,
0,0,0,0,0,0,0,0,0,0,0,0,0,0,0,0,0,0,0,0,0,0,0,0,0,0,0,0,0,0,0,0,0,0,0,0,0,0,0,0,0,0,0,0,0,0,0,0,0,0,
0,0,0,0,0,0,0,0,0,0,0,0,0,0,0,0,0,3276,3277,3278,3241,3242,3243,3260,3261,3262,0,0,0,0,0,0,0,0,0,0,0,0,0,0,0,0,0,0,0,0,0,0,0,0,
0,0,0,0,0,0,0,0,0,0,0,0,0,0,0,3725,3726,3284,3285,3286,3249,3250,3251,3268,3269,3270,3725,3726,0,0,0,0,0,0,0,0,0,0,0,0,0,0,0,0,0,0,0,0,0,0,
0,0,0,0,0,0,0,0,0,0,0,0,0,0,0,3733,3734,0,0,0,0,0,0,0,0,0,3733,3734,0,0,0,0,0,0,0,0,0,0,0,0,0,0,0,0,0,0,0,0,0,0,
0,0,0,0,0,0,0,0,0,0,0,0,0,0,0,0,3664,0,0,0,0,0,0,0,0,0,0,0,0,0,0,0,0,0,0,0,0,0,0,0,0,0,0,0,0,0,0,0,0,0,
0,0,0,0,0,0,0,0,0,0,0,0,0,0,0,0,3672,0,3689,3690,0,0,0,0,3662,3663,3662,3663,0,0,0,0,0,0,0,0,0,0,0,0,0,0,0,0,0,0,0,0,0,0,
0,0,0,0,0,0,0,0,0,0,0,0,0,0,0,0,3680,0,3697,3698,0,0,0,0,3670,3671,3670,3671,0,0,0,0,0,0,0,0,0,0,0,0,0,0,0,0,0,0,0,0,0,0,
0,0,0,0,0,0,0,0,0,0,0,0,0,0,0,0,0,0,3705,3706,0,0,0,0,3678,3679,3678,3679,0,0,0,0,0,0,0,0,0,0,0,0,0,0,0,0,0,0,0,0,0,0,
0,0,0,0,0,0,0,0,0,0,0,0,0,0,0,0,3664,0,0,0,0,0,0,0,0,0,0,0,0,0,0,0,0,0,0,0,0,0,0,0,0,0,0,0,0,0,0,0,0,0,
0,0,0,0,0,0,0,0,0,0,0,0,0,0,0,0,3672,0,0,0,0,0,0,0,3644,3645,3646,0,0,0,0,0,0,0,0,0,0,0,0,0,0,0,0,0,0,0,0,0,0,0,
0,0,0,0,0,0,0,0,0,0,0,0,0,0,0,0,3680,0,0,0,0,0,0,0,3652,3653,3654,0,0,0,0,0,0,0,0,0,0,0,0,0,0,0,0,0,0,0,0,0,0,0,
0,0,0,0,0,0,0,0,0,0,0,0,0,0,0,0,0,0,0,0,0,0,0,0,0,0,0,0,0,0,0,0,0,0,0,0,0,0,0,0,0,0,0,0,0,0,0,0,0,0,
0,0,0,0,0,0,0,0,0,0,0,0,0,0,0,0,0,0,0,0,0,0,0,0,0,0,0,0,0,0,0,0,0,0,0,0,0,0,0,0,0,0,0,0,0,0,0,0,0,0,
0,0,0,0,0,0,0,0,0,0,0,0,0,0,0,0,0,0,0,0,0,0,0,0,0,0,0,0,0,0,0,0,0,0,0,0,0,0,0,0,0,0,0,0,0,0,0,0,0,0,
0,0,0,0,0,0,0,0,0,0,0,0,0,0,0,0,0,0,0,0,0,0,0,0,0,0,0,0,0,0,0,0,0,0,0,0,0,0,0,0,0,0,0,0,0,0,0,0,0,0,
0,0,0,0,0,0,0,0,0,0,0,0,0,0,0,0,0,0,0,0,0,0,0,0,0,0,0,0,0,0,0,0,0,0,0,0,0,0,0,0,0,0,0,0,0,0,0,0,0,0,
0,0,0,0,0,0,0,0,0,0,0,0,0,0,0,0,0,0,0,0,0,0,0,0,0,0,0,0,0,0,0,0,0,0,0,0,0,0,0,0,0,0,0,0,0,0,0,0,0,0,
0,0,0,0,0,0,0,0,0,0,0,0,0,0,0,0,0,0,0,0,0,0,0,0,0,0,0,0,0,0,0,0,0,0,0,0,0,0,0,0,0,0,0,0,0,0,0,0,0,0,
0,0,0,0,0,0,0,0,0,0,0,0,0,0,0,0,0,0,0,0,0,0,0,0,0,0,0,0,0,0,0,0,0,0,0,0,0,0,0,0,0,0,0,0,0,0,0,0,0,0,
0,0,0,0,0,0,0,0,0,0,0,0,0,0,0,0,0,0,0,0,0,0,0,0,0,0,0,0,0,0,0,0,0,0,0,0,0,0,0,0,0,0,0,0,0,0,0,0,0,0,
0,0,0,0,0,0,0,0,0,0,0,0,0,0,0,0,0,0,0,0,0,0,0,0,0,0,0,0,0,0,0,0,0,0,0,0,0,0,0,0,0,0,0,0,0,0,0,0,0,0,
0,0,0,0,0,0,0,0,0,0,0,0,0,0,0,0,0,0,0,0,0,0,0,0,0,0,0,0,0,0,0,0,0,0,0,0,0,0,0,0,0,0,0,0,0,0,0,0,0,0,
0,0,0,0,0,0,0,0,0,0,0,0,0,0,0,0,0,0,0,0,0,0,0,0,0,0,0,0,0,0,0,0,0,0,0,0,0,0,0,0,0,0,0,0,0,0,0,0,0,0,
0,0,0,0,0,0,0,0,0,0,0,0,0,0,0,0,0,0,0,0,0,0,0,0,0,0,0,0,0,0,0,0,0,0,0,0,0,0,0,0,0,0,0,0,0,0,0,0,0,0,
0,0,0,0,0,0,0,0,0,0,0,0,0,0,0,0,0,0,0,0,0,0,0,0,0,0,0,0,0,0,0,0,0,0,0,0,0,0,0,0,0,0,0,0,0,0,0,0,0,0,
0,0,0,0,0,0,0,0,0,0,0,0,0,0,0,0,0,0,0,0,0,0,0,0,0,0,0,0,0,0,0,0,0,0,0,0,0,0,0,0,0,0,0,0,0,0,0,0,0,0,
0,0,0,0,0,0,0,0,0,0,0,0,0,0,0,0,0,0,0,0,0,0,0,0,0,0,0,0,0,0,0,0,0,0,0,0,0,0,0,0,0,0,0,0,0,0,0,0,0,0,
0,0,0,0,0,0,0,0,0,0,0,0,0,0,0,0,0,0,0,0,0,0,0,0,0,0,0,0,0,0,0,0,0,0,0,0,0,0,0,0,0,0,0,0,0,0,0,0,0,0,
0,0,0,0,0,0,0,0,0,0,0,0,0,0,0,0,0,0,0,0,0,0,0,0,0,0,0,0,0,0,0,0,0,0,0,0,0,0,0,0,0,0,0,0,0,0,0,0,0,0,
0,0,0,0,0,0,0,0,0,0,0,0,0,0,0,0,0,0,0,0,0,0,0,0,0,0,0,0,0,0,0,0,0,0,0,0,0,0,0,0,0,0,0,0,0,0,0,0,0,0,
0,0,0,0,0,0,0,0,0,0,0,0,0,0,0,0,0,0,0,0,0,0,0,0,0,0,0,0,0,0,0,0,0,0,0,0,0,0,0,0,0,0,0,0,0,0,0,0,0,0,
0,0,0,0,0,0,0,0,0,0,0,0,0,0,0,0,0,0,0,0,0,0,0,0,0,0,0,0,0,0,0,0,0,0,0,0,0,0,0,0,0,0,0,0,0,0,0,0,0,0,
0,0,0,0,0,0,0,0,0,0,0,0,0,0,0,0,0,0,0,0,0,0,0,0,0,0,0,0,0,0,0,0,0,0,0,0,0,0,0,0,0,0,0,0,0,0,0,0,0,0,
0,0,0,0,0,0,0,0,0,0,0,0,0,0,0,0,0,0,0,0,0,0,0,0,0,0,0,0,0,3322,0,3324,0,0,0,3322,0,3324,0,0,0,0,0,0,0,0,0,0,0,0,
0,0,0,0,0,0,0,0,0,0,0,0,0,0,0,0,0,0,0,0,0,0,0,0,0,0,0,0,0,3330,0,3332,0,0,0,3330,0,3332,0,0,0,0,0,0,0,0,0,0,0,0,
0,0,0,0,0,0,0,0,0,0,0,0,0,0,0,0,0,0,0,0,0,0,0,0,0,0,0,0,0,0,0,0,0,0,0,0,0,0,0,0,0,2527,2528,0,0,0,0,0,0,0,
0,0,0,0,0,0,0,0,0,0,0,0,0,0,0,0,0,0,0,0,0,0,0,0,0,0,0,0,0,0,0,0,0,0,0,0,0,0,0,0,0,2535,2536,0,0,0,0,0,0,0,
0,0,0,0,0,0,0,0,0,0,0,0,0,0,0,0,0,0,0,0,0,0,0,0,0,0,0,0,0,0,0,0,0,0,0,0,0,0,0,0,0,2543,2544,0,0,0,0,0,0,0,
0,0,0,0,0,0,0,0,0,0,0,0,0,0,0,0,0,0,0,0,0,0,0,0,0,0,0,0,0,0,0,0,0,0,0,0,0,0,0,0,0,0,0,0,0,0,0,0,0,0,
0,0,0,0,0,0,0,0,0,0,0,0,0,0,0,0,0,0,0,0,0,0,0,0,0,0,0,0,0,0,0,0,0,0,0,0,0,0,0,0,0,0,0,0,0,0,0,0,0,0,
0,0,0,0,0,0,0,0,0,0,0,0,0,0,0,0,0,0,0,0,0,0,0,0,0,0,0,0,0,0,0,0,0,0,0,0,0,0,0,0,0,0,0,0,0,0,0,0,0,0,
0,0,0,0,0,0,0,0,0,0,0,0,0,0,0,0,0,0,0,0,0,0,0,0,0,0,0,0,0,0,0,0,0,0,0,0,0,0,0,0,0,0,0,0,0,0,0,0,0,0,
0,0,0,0,0,0,0,0,0,0,0,0,0,0,0,0,0,0,0,0,0,0,0,0,0,0,0,0,0,0,0,0,0,0,0,0,0,0,0,0,0,0,0,0,0,0,0,0,0,0,
0,0,0,0,0,0,0,0,0,0,0,0,0,0,0,0,0,0,0,0,0,0,0,0,0,0,0,0,0,0,0,0,0,0,0,0,0,0,0,0,0,0,0,0,0,0,0,0,0,0,
0,0,0,0,0,0,0,0,0,0,0,0,0,0,0,0,0,0,0,0,0,0,0,0,0,0,0,0,0,0,0,0,0,0,0,0,0,0,0,0,0,0,0,0,0,0,0,0,0,0,
0,0,0,0,0,0,0,0,0,0,0,0,0,0,0,0,0,0,0,0,0,0,0,0,0,0,0,0,0,0,0,0,0,0,0,0,0,0,0,0,0,0,0,0,0,0,0,0,0,0,
0,0,0,0,0,0,0,0,0,0,0,0,0,0,0,0,0,0,0,0,0,0,0,0,0,0,0,0,0,0,0,0,0,0,0,0,0,0,0,0,0,0,0,0,0,0,0,0,0,0,
0,0,0,0,0,0,0,0,0,0,0,0,0,0,0,0,0,0,0,0,0,0,0,0,0,0,0,0,0,0,0,0,0,0,0,0,0,0,0,0,0,0,0,0,0,0,0,0,0,0,
0,0,0,0,0,0,0,0,0,0,0,0,0,0,0,0,0,0,0,0,0,0,0,0,0,0,0,0,0,0,0,0,0,0,0,0,0,0,0,0,0,0,0,0,0,0,0,0,0,0
</data>
 </layer>
 <group id="3" name="Layer1"/>
 <layer id="6" name="decoration2" width="50" height="50">
  <data encoding="csv">
0,0,0,0,0,0,0,0,0,0,0,0,0,0,0,0,0,0,0,0,0,0,0,0,0,0,0,0,0,0,0,0,0,0,0,0,0,0,0,0,0,0,0,0,0,0,0,0,0,0,
0,0,0,0,0,0,0,0,0,0,0,0,0,0,0,0,0,0,0,0,0,0,0,0,0,0,0,0,0,0,0,0,0,0,0,0,0,0,0,0,0,0,0,0,0,0,0,0,0,0,
0,0,0,0,0,0,0,0,0,0,0,0,0,0,0,0,0,0,0,0,0,0,0,0,0,0,0,0,0,0,0,0,0,0,0,0,0,0,0,0,0,0,0,0,0,0,0,0,0,0,
0,0,0,0,0,0,0,0,0,0,0,0,0,0,0,0,0,0,0,0,0,0,0,0,0,0,0,0,0,0,0,0,0,0,0,0,0,0,0,0,0,0,0,0,0,0,0,0,0,0,
0,0,0,0,0,0,0,0,0,0,0,0,0,0,0,0,0,0,0,0,0,0,0,0,0,0,0,0,0,0,0,0,0,0,0,0,0,0,0,0,0,0,0,0,0,0,0,0,0,0,
0,0,0,0,0,0,0,0,0,0,0,0,0,0,0,0,0,0,0,0,0,0,0,0,0,0,0,0,0,0,0,0,0,0,0,0,0,0,0,0,0,0,0,0,0,0,0,0,0,0,
0,0,0,0,0,0,0,0,0,0,0,0,0,0,0,0,0,0,0,0,0,0,0,0,0,0,0,0,0,0,0,0,0,0,0,0,0,0,0,0,0,0,0,0,0,0,0,0,0,0,
0,0,0,0,0,0,0,0,0,0,0,0,0,0,0,0,0,0,0,3731,0,0,0,0,0,0,0,0,0,0,0,0,0,0,0,0,0,0,0,0,0,0,0,0,0,0,0,0,0,0,
0,0,0,0,0,0,0,0,0,0,0,0,0,0,0,0,0,0,0,0,0,0,0,0,0,0,0,0,0,0,0,0,0,0,0,0,0,0,0,0,0,0,0,0,0,0,0,0,0,0,
0,0,0,0,0,0,0,0,0,0,0,0,0,0,0,0,0,0,0,0,0,0,0,0,0,0,0,0,0,0,0,0,0,0,0,0,0,0,0,0,0,0,0,0,0,0,0,0,0,0,
0,0,0,0,0,0,0,0,0,0,0,0,0,0,0,0,0,0,0,0,0,0,0,0,3724,3729,3716,0,0,0,0,0,0,0,0,0,0,0,0,0,0,0,0,0,0,0,0,0,0,0,
0,0,0,0,0,0,0,0,0,0,0,0,0,0,0,0,0,0,0,0,0,0,0,0,0,0,0,0,0,0,0,0,0,0,0,0,0,0,0,0,0,0,0,0,0,0,0,0,0,0,
0,0,0,0,0,0,0,0,0,0,0,0,0,0,0,0,0,0,0,0,0,0,0,0,0,0,0,0,0,0,0,0,0,0,0,0,0,0,0,0,0,0,0,0,0,0,0,0,0,0,
0,0,0,0,0,0,0,0,0,0,0,0,0,0,0,0,0,0,0,0,0,0,0,0,0,0,0,0,0,0,0,0,0,0,0,0,0,0,0,0,0,0,0,0,0,0,0,0,0,0,
0,0,0,0,0,0,0,0,0,0,0,0,0,0,0,0,0,0,0,0,0,0,0,0,0,0,0,0,0,0,0,0,0,0,0,0,0,0,0,0,0,0,0,0,0,0,0,0,0,0,
0,0,0,0,0,0,0,0,0,0,0,0,0,0,0,0,0,0,0,0,0,0,0,0,0,0,0,0,0,0,0,0,0,0,0,0,0,0,0,0,0,0,0,0,0,0,0,0,0,0,
0,0,0,0,0,0,0,0,0,0,0,0,0,0,0,0,0,0,0,0,0,0,0,0,0,0,0,0,0,0,0,0,0,0,0,0,0,0,0,0,0,0,0,0,0,0,0,0,0,0,
0,0,0,0,0,0,0,0,0,0,0,0,0,0,0,0,0,0,0,0,0,0,0,0,0,0,0,0,0,0,0,0,0,0,0,0,0,0,0,0,0,0,0,0,0,0,0,0,0,0,
0,0,0,0,0,0,0,0,0,0,0,0,0,0,0,0,0,0,0,0,0,0,0,0,0,0,0,0,0,0,0,0,0,0,0,0,0,0,0,0,0,0,0,0,0,0,0,0,0,0,
0,0,0,0,0,0,0,0,0,0,0,0,0,0,0,0,0,0,0,0,0,0,0,0,0,0,0,0,0,0,0,0,0,0,0,0,0,0,0,0,0,0,0,0,0,0,0,0,0,0,
0,0,0,0,0,0,0,0,0,0,0,0,0,0,0,0,0,0,0,0,0,0,0,0,0,0,0,0,0,0,0,0,0,0,0,0,0,0,0,0,0,0,0,0,0,0,0,0,0,0,
0,0,0,0,0,0,0,0,0,0,0,0,0,0,0,0,0,0,0,0,0,0,0,0,0,0,0,0,0,0,0,0,0,0,0,0,0,0,0,0,0,0,0,0,0,0,0,0,0,0,
0,0,0,0,0,0,0,0,0,0,0,0,0,0,0,0,0,0,0,0,0,0,0,0,0,0,0,0,0,0,0,0,0,0,0,0,0,0,0,0,0,0,0,0,0,0,0,0,0,0,
0,0,0,0,0,0,0,0,0,0,0,0,0,0,0,0,0,0,0,0,0,0,0,0,0,0,0,0,0,0,0,0,0,0,0,0,0,0,0,0,0,0,0,0,0,0,0,0,0,0,
0,0,0,0,0,0,0,0,0,0,0,0,0,0,0,0,0,0,0,0,0,0,0,0,0,0,0,0,0,0,0,0,0,0,0,0,0,0,0,0,0,0,0,0,0,0,0,0,0,0,
0,0,0,0,0,0,0,0,0,0,0,0,0,0,0,0,0,0,0,0,0,0,0,0,0,0,0,0,0,0,0,0,0,0,0,0,0,0,0,0,0,0,0,0,0,0,0,0,0,0,
0,0,0,0,0,0,0,0,0,0,0,0,0,0,0,0,0,0,0,0,0,0,0,0,0,0,0,0,0,0,0,0,0,0,0,0,0,0,0,0,0,0,0,0,0,0,0,0,0,0,
0,0,0,0,0,0,0,0,0,0,0,0,0,0,0,0,0,0,0,0,0,0,0,0,0,0,0,0,0,0,0,0,0,0,0,0,0,0,0,0,0,0,0,0,0,0,0,0,0,0,
0,0,0,0,0,0,0,0,0,0,0,0,0,0,0,0,0,0,0,0,0,0,0,0,0,0,0,0,0,0,0,0,0,0,0,0,0,0,0,0,0,0,0,0,0,0,0,0,0,0,
0,0,0,0,0,0,0,0,0,0,0,0,0,0,0,0,0,0,0,0,0,0,0,0,0,0,0,0,0,0,0,0,0,0,0,0,0,0,0,0,0,0,0,0,0,0,0,0,0,0,
0,0,0,0,0,0,0,0,0,0,0,0,0,0,0,0,0,0,0,0,0,0,0,0,0,0,0,0,0,0,0,0,0,0,0,0,0,0,0,0,0,0,0,0,0,0,0,0,0,0,
0,0,0,0,0,0,0,0,0,0,0,0,0,0,0,0,0,0,0,0,0,0,0,0,0,0,0,0,0,0,0,0,0,0,0,0,0,0,0,0,0,0,0,0,0,0,0,0,0,0,
0,0,0,0,0,0,0,0,0,0,0,0,0,0,0,0,0,0,0,0,0,0,0,0,0,0,0,0,0,0,0,0,0,0,0,0,0,0,0,0,0,0,0,0,0,0,0,0,0,0,
0,0,0,0,0,0,0,0,0,0,0,0,0,0,0,0,0,0,0,0,0,0,0,0,0,0,0,0,0,0,0,0,0,0,0,0,0,0,0,0,0,0,0,0,0,0,0,0,0,0,
0,0,0,0,0,0,0,0,0,0,0,0,0,0,0,0,0,0,0,0,0,0,0,0,0,0,0,0,0,0,0,0,0,0,0,0,0,0,0,0,0,0,0,0,0,0,0,0,0,0,
0,0,0,0,0,0,0,0,0,0,0,0,0,0,0,0,0,0,0,0,0,0,0,0,0,0,0,0,0,0,0,0,0,0,0,0,0,0,0,0,0,0,0,0,0,0,0,0,0,0,
0,0,0,0,0,0,0,0,0,0,0,0,0,0,0,0,0,0,0,0,0,0,0,0,0,0,0,0,0,0,0,0,0,0,0,0,0,0,0,0,0,0,0,0,0,0,0,0,0,0,
0,0,0,0,0,0,0,0,0,0,0,0,0,0,0,0,0,0,0,0,0,0,0,0,0,0,0,0,0,0,0,0,0,0,0,0,0,0,0,0,0,0,0,0,0,0,0,0,0,0,
0,0,0,0,0,0,0,0,0,0,0,0,0,0,0,0,0,0,0,0,0,0,0,0,0,0,0,0,0,0,0,0,0,0,0,0,0,0,0,0,0,0,0,0,0,0,0,0,0,0,
0,0,0,0,0,0,0,0,0,0,0,0,0,0,0,0,0,0,0,0,0,0,0,0,0,0,0,0,0,0,0,0,0,0,0,0,0,0,0,0,0,0,0,0,0,0,0,0,0,0,
0,0,0,0,0,0,0,0,0,0,0,0,0,0,0,0,0,0,0,0,0,0,0,0,0,0,0,0,0,0,0,0,0,0,0,0,0,0,0,0,0,0,0,0,0,0,0,0,0,0,
0,0,0,0,0,0,0,0,0,0,0,0,0,0,0,0,0,0,0,0,0,0,0,0,0,0,0,0,0,0,0,0,0,0,0,0,0,0,0,0,0,0,0,0,0,0,0,0,0,0,
0,0,0,0,0,0,0,0,0,0,0,0,0,0,0,0,0,0,0,0,0,0,0,0,0,0,0,0,0,0,0,0,0,0,0,0,0,0,0,0,0,0,0,0,0,0,0,0,0,0,
0,0,0,0,0,0,0,0,0,0,0,0,0,0,0,0,0,0,0,0,0,0,0,0,0,0,0,0,0,0,0,0,0,0,0,0,0,0,0,0,0,0,0,0,0,0,0,0,0,0,
0,0,0,0,0,0,0,0,0,0,0,0,0,0,0,0,0,0,0,0,0,0,0,0,0,0,0,0,0,0,0,0,0,0,0,0,0,0,0,0,0,0,0,0,0,0,0,0,0,0,
0,0,0,0,0,0,0,0,0,0,0,0,0,0,0,0,0,0,0,0,0,0,0,0,0,0,0,0,0,0,0,0,0,0,0,0,0,0,0,0,0,0,0,0,0,0,0,0,0,0,
0,0,0,0,0,0,0,0,0,0,0,0,0,0,0,0,0,0,0,0,0,0,0,0,0,0,0,0,0,0,0,0,0,0,0,0,0,0,0,0,0,0,0,0,0,0,0,0,0,0,
0,0,0,0,0,0,0,0,0,0,0,0,0,0,0,0,0,0,0,0,0,0,0,0,0,0,0,0,0,0,0,0,0,0,0,0,0,0,0,0,0,0,0,0,0,0,0,0,0,0,
0,0,0,0,0,0,0,0,0,0,0,0,0,0,0,0,0,0,0,0,0,0,0,0,0,0,0,0,0,0,0,0,0,0,0,0,0,0,0,0,0,0,0,0,0,0,0,0,0,0,
0,0,0,0,0,0,0,0,0,0,0,0,0,0,0,0,0,0,0,0,0,0,0,0,0,0,0,0,0,0,0,0,0,0,0,0,0,0,0,0,0,0,0,0,0,0,0,0,0,0
</data>
 </layer>
 <group id="4" name="Layer2"/>
 <layer id="7" name="systemtags" width="50" height="50" visible="0">
  <data encoding="csv">
0,0,0,0,0,0,0,0,0,0,0,0,0,0,0,0,0,0,0,0,0,0,0,0,0,0,0,0,0,0,0,0,0,0,0,0,0,0,0,0,0,0,0,0,0,0,0,0,0,0,
0,0,0,0,0,0,0,0,0,0,0,0,0,0,0,0,0,0,0,0,0,0,0,0,0,0,0,0,0,0,0,0,0,0,0,0,0,0,0,0,0,0,0,0,0,0,0,0,0,0,
0,0,0,0,0,0,0,0,0,0,0,0,0,0,0,0,0,0,0,0,0,0,0,0,0,0,0,0,0,0,0,0,0,0,0,0,0,0,0,0,0,0,0,0,0,0,0,0,0,0,
0,0,0,0,0,0,0,0,0,0,0,0,0,0,0,0,0,0,0,0,0,0,0,0,0,0,0,0,0,0,0,0,0,0,0,0,0,0,0,0,0,0,0,0,0,0,0,0,0,0,
0,0,0,0,0,0,0,0,0,0,0,0,0,0,0,0,0,0,0,0,0,0,0,0,0,0,0,0,0,0,0,0,0,0,0,0,0,0,0,0,0,0,0,0,0,0,0,0,0,0,
0,0,0,0,0,0,0,0,0,0,0,0,0,0,0,0,0,0,0,0,0,0,0,0,0,0,0,0,0,0,0,0,0,0,0,0,0,0,0,0,0,0,0,0,0,0,0,0,0,0,
0,0,0,0,0,0,0,0,0,0,0,0,0,0,0,0,0,0,0,0,0,0,0,0,0,0,0,0,0,0,0,0,0,0,0,0,0,0,0,0,0,0,0,0,0,0,0,0,0,0,
0,0,0,0,0,0,0,0,0,0,0,0,0,0,0,0,0,0,0,0,0,0,0,0,0,0,0,0,0,0,0,0,0,0,0,0,0,0,0,0,0,0,0,0,0,0,0,0,0,0,
0,0,0,0,0,0,0,0,0,0,0,0,0,0,0,0,0,0,0,0,0,0,0,0,0,0,0,0,0,0,0,0,0,0,0,0,0,0,0,0,0,0,0,0,0,0,0,0,0,0,
0,0,0,0,0,0,0,0,0,0,0,0,0,0,0,0,0,0,0,0,0,0,0,0,0,0,0,0,0,0,0,0,0,0,0,0,0,0,0,0,0,0,0,0,0,0,0,0,0,0,
0,0,0,0,0,0,0,0,0,0,0,0,0,0,0,0,0,0,0,0,0,0,0,0,0,0,0,0,0,0,0,0,0,0,0,0,0,0,0,0,0,0,0,0,0,0,0,0,0,0,
0,0,0,0,0,0,0,0,0,0,0,0,0,0,0,0,0,0,0,0,0,0,0,0,0,0,0,0,0,0,0,0,0,0,0,0,0,0,0,0,0,0,0,0,0,0,0,0,0,0,
0,0,0,0,0,0,0,0,0,0,0,0,0,0,0,0,0,0,0,0,0,0,0,0,0,0,0,0,0,0,0,0,0,0,0,0,0,0,0,0,0,0,0,0,0,0,0,0,0,0,
0,0,0,0,0,0,0,0,0,0,0,0,0,0,0,0,0,0,0,0,0,0,0,0,0,0,0,0,0,0,0,0,0,0,0,0,0,0,0,0,0,0,0,0,0,0,0,0,0,0,
0,0,0,0,0,0,0,0,0,0,0,0,0,0,0,0,0,0,0,0,0,0,0,0,0,0,0,0,0,0,0,0,0,0,0,0,0,0,0,0,0,0,0,0,0,0,0,0,0,0,
0,0,0,0,0,0,0,0,0,0,0,0,0,0,0,0,0,0,0,0,0,0,0,0,0,0,0,0,0,0,0,0,0,0,0,0,0,0,0,0,0,0,0,0,0,0,0,0,0,0,
0,0,0,0,0,0,0,0,0,0,0,0,0,0,0,0,0,0,0,0,0,0,0,0,0,0,0,0,0,0,0,0,0,0,0,0,0,0,0,0,0,0,0,0,0,0,0,0,0,0,
0,0,0,0,0,0,0,0,0,0,0,0,0,0,0,0,0,0,0,0,0,0,0,0,0,0,0,0,0,0,0,0,0,0,0,0,0,0,0,0,0,0,0,0,0,0,0,0,0,0,
0,0,0,0,0,0,0,0,0,0,0,0,0,0,0,0,0,0,0,0,0,0,0,0,0,0,0,0,0,0,0,0,0,0,0,0,0,0,0,0,0,0,0,0,0,0,0,0,0,0,
0,0,0,0,0,0,0,0,0,0,0,0,0,0,0,0,0,0,0,0,0,0,0,0,0,0,0,0,0,0,0,0,0,0,0,0,0,0,0,0,0,0,0,0,0,0,0,0,0,0,
0,0,0,0,0,0,0,0,0,0,0,0,0,0,0,0,0,0,0,0,0,0,0,0,0,0,0,0,0,0,0,0,0,0,0,0,0,0,0,0,0,0,0,0,0,0,0,0,0,0,
0,0,0,0,0,0,0,0,0,0,0,0,0,0,0,0,0,0,0,0,0,0,0,0,0,0,0,0,0,0,0,0,0,0,0,0,0,0,0,0,0,0,0,0,0,0,0,0,0,0,
0,0,0,0,0,0,0,0,0,0,0,0,0,0,0,0,0,0,0,0,0,0,0,0,0,0,0,0,0,0,0,0,0,0,0,0,0,0,0,0,0,0,0,0,0,0,0,0,0,0,
0,0,0,0,0,0,0,0,0,0,0,0,0,0,0,0,0,0,0,0,0,0,0,0,0,0,0,0,0,0,0,0,0,0,0,0,0,0,0,0,0,0,0,0,0,0,0,0,0,0,
0,0,0,0,0,0,0,0,0,0,0,0,0,0,0,0,0,0,0,0,0,0,0,0,0,0,0,0,0,0,0,0,0,0,0,0,0,0,0,0,0,0,0,0,0,0,0,0,0,0,
0,0,0,0,0,0,0,0,0,0,0,0,0,0,0,0,0,0,0,0,0,0,0,0,0,0,0,0,0,0,0,0,0,0,0,0,0,0,0,0,0,0,0,0,0,0,0,0,0,0,
0,0,0,0,0,0,0,0,0,0,0,0,0,0,0,0,0,0,0,0,0,0,0,0,0,0,0,0,0,0,0,0,0,0,0,0,0,0,0,0,0,0,0,0,0,0,0,0,0,0,
0,0,0,0,0,0,0,0,0,0,0,0,0,0,0,0,0,0,0,0,0,0,0,0,0,0,0,0,0,0,0,0,0,0,0,0,0,0,0,0,0,0,0,0,0,0,0,0,0,0,
0,0,0,0,0,0,0,0,0,0,0,0,0,0,0,0,0,0,0,0,0,0,0,0,0,0,0,0,0,0,0,0,0,0,0,0,0,0,0,0,0,0,0,0,0,0,0,0,0,0,
0,0,0,0,0,0,0,0,0,0,0,0,0,0,0,0,0,0,0,0,0,0,0,0,0,0,0,0,0,0,0,0,0,0,0,0,0,0,0,0,0,0,0,0,0,0,0,0,0,0,
0,0,0,0,0,0,0,0,0,0,0,0,0,0,0,0,0,0,0,0,0,0,0,0,0,0,0,0,0,0,0,0,0,0,0,0,0,0,0,0,0,0,0,0,0,4097,0,0,0,0,
0,0,0,0,0,0,0,0,0,0,0,0,0,0,0,0,0,0,0,0,0,0,0,0,0,0,0,0,0,0,0,0,0,0,0,0,0,0,0,0,0,0,0,0,0,0,0,0,0,0,
0,0,0,0,0,0,0,0,0,0,0,0,0,0,0,0,0,0,0,0,0,0,0,0,0,0,0,0,0,0,0,0,0,0,0,0,0,0,0,0,0,0,0,0,0,0,0,0,0,0,
0,0,0,0,0,0,0,0,0,0,0,0,0,0,0,0,0,0,0,0,0,0,0,0,0,0,0,0,0,0,0,0,0,0,0,0,0,0,0,0,0,0,0,0,0,0,0,0,0,0,
0,0,0,0,0,0,0,0,0,0,0,0,0,0,0,0,0,0,0,0,0,0,0,0,0,0,0,0,0,0,0,0,0,0,0,0,0,0,0,0,0,0,0,0,0,0,0,0,0,0,
0,0,0,0,0,0,0,0,0,0,0,0,0,0,0,0,0,0,0,0,0,0,0,0,0,0,0,0,0,0,0,0,0,0,0,0,0,0,0,0,0,0,0,0,0,0,0,0,0,0,
0,0,0,0,0,0,0,0,0,0,0,0,0,0,0,0,0,0,0,0,0,0,0,0,0,0,0,0,0,0,0,0,0,0,0,0,0,0,0,0,0,0,0,0,0,0,0,0,0,0,
0,0,0,0,0,0,0,0,0,0,0,0,0,0,0,0,0,0,0,0,0,0,0,0,0,0,0,0,0,0,0,0,0,0,0,0,0,0,0,0,0,0,0,0,0,0,0,0,0,0,
0,0,0,0,0,0,0,0,0,0,0,0,0,0,0,0,0,0,0,0,0,0,0,0,0,0,0,0,0,0,0,0,0,0,0,0,0,0,0,0,0,0,0,0,0,0,0,0,0,0,
0,0,0,0,0,0,0,0,0,0,0,0,0,0,0,0,0,0,0,0,0,0,0,0,0,0,0,0,0,0,0,0,0,0,0,0,0,0,0,0,0,0,0,0,0,0,0,0,0,0,
0,0,0,0,0,0,0,0,0,0,0,0,0,0,0,0,0,0,0,0,0,0,0,0,0,0,0,0,0,0,0,0,0,0,0,0,0,0,0,0,0,0,0,0,0,0,0,0,0,0,
0,0,0,0,0,0,0,0,0,0,0,0,0,0,0,0,0,0,0,0,0,0,0,0,0,0,0,0,0,0,0,0,0,0,0,0,0,0,0,0,0,0,0,0,0,0,0,0,0,0,
0,0,0,0,0,0,0,0,0,0,0,0,0,0,0,0,0,0,0,0,0,0,0,0,0,0,0,0,0,0,0,0,0,0,0,0,0,0,0,0,0,0,0,0,0,0,0,0,0,0,
0,0,0,0,0,0,0,0,0,0,0,0,0,0,0,0,0,0,0,0,0,0,0,0,0,0,0,0,0,0,0,0,0,0,0,0,0,0,0,0,0,0,0,0,0,0,0,0,0,0,
0,0,0,0,0,0,0,0,0,0,0,0,0,0,0,0,0,0,0,0,0,0,0,0,0,0,0,0,0,0,0,0,0,0,0,0,0,0,0,0,0,0,0,0,0,0,0,0,0,0,
0,0,0,0,0,0,0,0,0,0,0,0,0,0,0,0,0,0,0,0,0,0,0,0,0,0,0,0,0,0,0,0,0,0,0,0,0,0,0,0,0,0,0,0,0,0,0,0,0,0,
0,0,0,0,0,0,0,0,0,0,0,0,0,0,0,0,0,0,0,0,0,0,0,0,0,0,0,0,0,0,0,0,0,0,0,0,0,0,0,0,0,0,0,0,0,0,0,0,0,0,
0,0,0,0,0,0,0,0,0,0,0,0,0,0,0,0,0,0,0,0,0,0,0,0,0,0,0,0,0,0,0,0,0,0,0,0,0,0,0,0,0,0,0,0,0,0,0,0,0,0,
0,0,0,0,0,0,0,0,0,0,0,0,0,0,0,0,0,0,0,0,0,0,0,0,0,0,0,0,0,0,0,0,0,0,0,0,0,0,0,0,0,0,0,0,0,0,0,0,0,0,
0,0,0,0,0,0,0,0,0,0,0,0,0,0,0,0,0,0,0,0,0,0,0,0,0,0,0,0,0,0,0,0,0,0,0,0,0,0,0,0,0,0,0,0,0,0,0,0,0,0
</data>
 </layer>
 <layer id="9" name="passages" width="50" height="50" visible="0">
  <data encoding="csv">
0,0,0,0,0,0,0,0,0,0,0,0,0,0,0,0,0,0,0,0,0,0,0,0,0,0,0,0,0,0,0,0,0,0,0,0,0,0,0,0,0,0,0,0,0,0,0,0,0,0,
0,0,0,0,0,0,0,0,0,0,0,0,0,0,0,0,0,0,0,0,0,0,0,0,0,0,0,0,0,0,0,0,0,0,0,0,0,0,0,0,0,0,0,0,0,0,0,0,0,0,
0,0,0,0,0,0,0,0,0,0,0,0,0,0,0,0,0,0,0,0,0,0,0,0,0,0,0,0,0,0,0,0,0,0,0,0,0,0,0,0,0,0,0,0,0,0,0,0,0,0,
0,0,0,0,0,0,0,0,0,0,0,0,0,0,0,0,0,3872,3872,3872,3872,3872,3872,3872,3872,3872,0,0,0,0,0,0,0,0,0,0,0,0,0,0,0,0,0,0,0,0,0,0,0,0,
0,0,0,0,0,0,0,0,0,0,0,0,0,0,0,3872,3872,0,0,0,0,0,0,0,0,0,3872,3872,0,0,0,0,0,0,0,0,0,0,0,0,0,0,0,0,0,0,0,0,0,0,
0,0,0,0,0,0,0,0,0,0,0,0,0,0,3872,0,3872,0,0,0,0,0,0,0,0,0,0,0,3872,0,0,0,0,0,0,0,0,0,0,0,0,0,0,0,0,0,0,0,0,0,
0,0,0,0,0,0,0,0,0,0,0,0,0,0,3872,0,3872,0,0,0,0,0,0,0,0,0,0,0,3872,0,0,0,0,0,0,0,0,0,0,0,0,0,0,0,0,0,0,0,0,0,
0,0,0,0,0,0,0,0,0,0,0,0,0,0,3872,0,3872,0,0,3872,0,0,0,0,3872,3872,3872,3872,0,0,0,0,0,0,0,0,0,0,0,0,0,0,0,0,0,0,0,0,0,0,
0,0,0,0,0,0,0,0,0,0,0,0,0,0,3872,0,0,0,3872,3872,0,0,0,0,0,0,0,0,3872,0,0,0,0,0,0,0,0,0,0,0,0,0,0,0,0,0,0,0,0,0,
0,0,0,0,0,0,0,0,0,0,0,0,0,0,3872,0,3872,0,0,0,0,0,0,0,0,0,0,0,3872,0,0,0,0,0,0,0,0,0,0,0,0,0,0,0,0,0,0,0,0,0,
0,0,0,0,0,0,0,0,0,0,0,0,0,0,3872,0,3872,0,0,0,0,0,0,0,3872,3872,3872,0,3872,0,0,0,0,0,0,0,0,0,0,0,0,0,0,0,0,0,0,0,0,0,
0,0,0,0,0,0,0,0,0,0,0,0,0,0,3872,0,3872,0,0,0,0,0,0,0,3872,3872,3872,0,3872,0,0,0,0,0,0,0,0,0,0,0,0,0,0,0,0,0,0,0,0,0,
0,0,0,0,0,0,0,0,0,0,0,0,0,0,3872,0,0,0,0,0,0,0,0,0,0,0,0,0,3872,0,0,0,0,0,0,0,0,0,0,0,0,0,0,0,0,0,0,0,0,0,
0,0,0,0,0,0,0,0,0,0,0,0,0,0,3872,0,0,0,0,0,0,0,0,0,0,0,0,0,3872,0,0,0,0,0,0,0,0,0,0,0,0,0,0,0,0,0,0,0,0,0,
0,0,0,0,0,0,0,0,0,0,0,0,0,0,0,3872,3872,3872,3872,0,0,0,0,0,3872,3872,3872,3872,0,0,0,0,0,0,0,0,0,0,0,0,0,0,0,0,0,0,0,0,0,0,
0,0,0,0,0,0,0,0,0,0,0,0,0,0,0,0,0,0,3872,0,0,0,0,0,3872,0,0,0,0,0,0,0,0,0,0,0,0,0,0,0,0,0,0,0,0,0,0,0,0,0,
0,0,0,0,0,0,0,0,0,0,0,0,0,0,0,0,0,0,3872,0,0,0,0,0,3872,0,0,0,0,0,0,0,0,0,0,0,0,0,0,0,0,0,0,0,0,0,0,0,0,0,
0,0,0,0,0,0,0,0,0,0,0,0,0,0,0,0,0,0,3872,0,0,0,0,0,3872,0,0,0,0,0,0,0,0,0,0,0,0,0,0,0,0,0,0,0,0,0,0,0,0,0,
0,0,0,0,0,0,0,0,0,0,0,0,0,0,0,0,0,0,3872,0,0,0,0,0,3872,0,0,0,0,0,0,0,0,0,0,0,0,0,0,0,0,0,0,0,0,0,0,0,0,0,
0,0,0,0,0,0,0,0,0,0,0,0,0,0,0,0,0,0,3872,0,0,0,0,0,3872,0,0,0,0,0,0,0,0,0,0,0,0,0,0,0,0,0,0,0,0,0,0,0,0,0,
0,0,0,0,0,0,0,0,0,0,0,0,0,0,0,0,0,0,3872,0,0,0,0,0,3872,0,0,0,0,0,0,0,0,0,0,0,0,0,0,0,0,0,0,0,0,0,0,0,0,0,
0,0,0,0,0,0,0,0,0,0,0,0,0,0,0,0,0,3872,0,0,0,0,0,0,0,3872,0,0,0,0,0,0,0,0,0,0,0,0,0,0,0,0,0,0,0,0,0,0,0,0,
0,0,0,0,0,0,0,0,0,0,0,0,0,0,0,0,0,3872,0,0,0,0,0,0,0,3872,0,0,0,0,0,0,0,0,0,0,0,0,0,0,0,0,0,0,0,0,0,0,0,0,
0,0,0,0,0,0,0,0,0,0,0,0,0,0,0,0,0,0,3872,0,0,0,0,0,3872,0,0,0,0,0,0,0,0,0,0,0,0,0,0,0,0,0,0,0,0,0,0,0,0,0,
0,0,0,0,0,0,0,0,0,0,0,0,0,0,0,0,0,0,3872,0,0,0,0,0,3872,0,0,0,0,0,0,0,0,0,0,0,0,0,0,0,0,0,0,0,0,0,0,0,0,0,
0,0,0,0,0,0,0,0,0,0,0,0,0,0,0,0,0,0,3872,0,0,0,0,0,3872,0,0,0,0,0,0,0,0,0,0,0,0,0,0,0,0,0,0,0,0,0,0,0,0,0,
0,0,0,0,0,0,0,0,0,0,0,0,0,0,0,0,0,0,3872,0,0,0,0,0,3872,0,0,0,0,0,0,0,0,0,0,0,0,0,0,0,0,0,0,0,0,0,0,0,0,0,
0,0,0,0,0,0,0,0,0,0,0,0,0,0,0,0,0,0,3872,0,0,0,0,0,3872,0,0,0,0,0,0,0,0,0,0,0,0,0,0,0,0,0,0,0,0,0,0,0,0,0,
0,0,0,0,0,0,0,0,0,0,0,0,0,0,0,0,0,3872,0,0,0,0,0,0,0,3872,0,0,0,0,0,0,0,0,0,0,0,0,0,0,0,0,0,0,0,0,0,0,0,0,
0,0,0,0,0,0,0,0,0,0,0,0,0,0,0,0,0,3872,0,0,0,0,0,0,0,3872,0,0,0,0,0,0,0,0,0,0,0,0,0,0,0,0,0,0,0,0,0,0,0,0,
0,0,0,0,0,0,0,0,0,0,0,0,0,0,0,0,0,0,3872,0,0,0,0,0,3872,0,0,0,0,0,0,0,0,0,0,0,0,0,0,0,0,0,0,0,0,0,0,0,0,0,
0,0,0,0,0,0,0,0,0,0,0,0,0,0,0,0,0,0,3872,0,0,0,0,0,3872,0,0,0,0,0,0,0,0,0,0,0,0,0,0,0,0,0,0,0,0,0,0,0,0,0,
0,0,0,0,0,0,0,0,0,0,0,0,0,0,0,0,0,0,3872,0,0,0,0,0,3872,0,0,0,0,0,0,0,0,0,0,0,0,0,0,0,0,0,0,0,0,0,0,0,0,0,
0,0,0,0,0,0,0,0,0,0,0,0,0,0,0,0,0,0,3872,0,0,0,0,0,3872,0,0,0,0,0,0,0,0,0,0,0,0,0,0,0,0,0,0,0,0,0,0,0,0,0,
0,0,0,0,0,0,0,0,0,0,0,0,0,0,0,0,0,0,3872,0,0,0,0,0,3872,0,0,0,0,0,3872,0,0,0,0,0,3872,0,0,0,0,0,0,0,0,0,0,0,0,0,
0,0,0,0,0,0,0,0,0,0,0,0,0,0,0,0,0,0,3872,0,0,0,0,0,3872,3872,3872,3872,3872,3872,0,3872,3872,3872,3872,3872,0,3872,3872,3872,3872,3872,0,0,0,0,0,0,0,0,
0,0,0,0,0,0,0,0,0,0,0,0,0,0,0,0,0,0,3872,0,0,0,0,0,0,0,0,0,0,0,0,0,0,0,0,0,0,0,0,0,0,0,3872,0,0,0,0,0,0,0,
0,0,0,0,0,0,0,0,0,0,0,0,0,0,0,0,0,0,3872,0,0,0,0,0,0,0,0,0,0,0,0,0,0,0,0,0,0,0,0,0,0,0,3872,0,0,0,0,0,0,0,
0,0,0,0,0,0,0,0,0,0,0,0,0,0,0,0,0,0,3872,0,0,0,0,0,0,0,0,0,0,0,0,0,0,0,0,0,0,0,0,0,0,0,3872,0,0,0,0,0,0,0,
0,0,0,0,0,0,0,0,0,0,0,0,0,0,0,0,0,0,0,3872,3872,3872,3872,3872,3872,3872,3872,3872,3872,0,0,0,3872,3872,3872,0,0,0,3872,3872,3872,3872,0,0,0,0,0,0,0,0,
0,0,0,0,0,0,0,0,0,0,0,0,0,0,0,0,0,0,0,0,0,0,0,0,0,0,0,0,0,3872,3872,3872,0,0,0,3872,3872,3872,0,0,0,0,0,0,0,0,0,0,0,0,
0,0,0,0,0,0,0,0,0,0,0,0,0,0,0,0,0,0,0,0,0,0,0,0,0,0,0,0,0,0,0,0,0,0,0,0,0,0,0,0,0,0,0,0,0,0,0,0,0,0,
0,0,0,0,0,0,0,0,0,0,0,0,0,0,0,0,0,0,0,0,0,0,0,0,0,0,0,0,0,0,0,0,0,0,0,0,0,0,0,0,0,0,0,0,0,0,0,0,0,0,
0,0,0,0,0,0,0,0,0,0,0,0,0,0,0,0,0,0,0,0,0,0,0,0,0,0,0,0,0,0,0,0,0,0,0,0,0,0,0,0,0,0,0,0,0,0,0,0,0,0,
0,0,0,0,0,0,0,0,0,0,0,0,0,0,0,0,0,0,0,0,0,0,0,0,0,0,0,0,0,0,0,0,0,0,0,0,0,0,0,0,0,0,0,0,0,0,0,0,0,0,
0,0,0,0,0,0,0,0,0,0,0,0,0,0,0,0,0,0,0,0,0,0,0,0,0,0,0,0,0,0,0,0,0,0,0,0,0,0,0,0,0,0,0,0,0,0,0,0,0,0,
0,0,0,0,0,0,0,0,0,0,0,0,0,0,0,0,0,0,0,0,0,0,0,0,0,0,0,0,0,0,0,0,0,0,0,0,0,0,0,0,0,0,0,0,0,0,0,0,0,0,
0,0,0,0,0,0,0,0,0,0,0,0,0,0,0,0,0,0,0,0,0,0,0,0,0,0,0,0,0,0,0,0,0,0,0,0,0,0,0,0,0,0,0,0,0,0,0,0,0,0,
0,0,0,0,0,0,0,0,0,0,0,0,0,0,0,0,0,0,0,0,0,0,0,0,0,0,0,0,0,0,0,0,0,0,0,0,0,0,0,0,0,0,0,0,0,0,0,0,0,0,
0,0,0,0,0,0,0,0,0,0,0,0,0,0,0,0,0,0,0,0,0,0,0,0,0,0,0,0,0,0,0,0,0,0,0,0,0,0,0,0,0,0,0,0,0,0,0,0,0,0
</data>
 </layer>
 <group id="5" name="Infos"/>
</map>
