<?xml version="1.0" encoding="UTF-8"?>
<map version="1.10" tiledversion="1.12.2" orientation="orthogonal" renderorder="right-down" width="50" height="60" tilewidth="32" tileheight="32" infinite="0" nextlayerid="14" nextobjectid="1">
 <tileset firstgid="1" source="../Tilesets/Haunted Woods.tsx"/>
 <tileset firstgid="569" source="../Tilesets/sandy_indoor.tsx"/>
 <tileset firstgid="4033" source="../Tilesets/passages.tsx"/>
 <tileset firstgid="4177" source="../Tilesets/systemtags.tsx"/>
 <tileset firstgid="4305" source="../Tilesets/sandy_outside.tsx"/>
 <layer id="1" name="floor1" width="50" height="60">
  <data encoding="csv">
81,82,81,82,81,82,81,82,81,82,81,82,81,82,81,82,81,82,81,82,81,82,81,82,81,82,81,82,81,82,81,82,81,82,0,0,0,81,82,81,82,81,82,81,82,81,82,81,82,81,
82,81,82,81,82,81,82,81,82,81,82,81,82,81,82,81,82,81,82,81,82,81,82,81,82,81,82,81,82,81,82,81,82,303,0,0,0,303,81,82,81,82,81,82,81,82,81,82,81,82,
81,82,81,82,81,82,81,82,81,82,81,82,81,82,81,82,81,82,81,82,81,82,81,82,81,82,81,82,81,82,81,82,81,82,0,0,0,81,82,81,82,81,82,81,82,81,82,81,82,81,
82,81,82,81,82,81,82,81,82,81,82,81,82,81,82,81,82,81,82,81,82,81,82,81,82,81,82,81,82,81,82,81,82,303,0,0,0,303,81,82,81,82,81,82,81,82,81,82,81,82,
81,82,81,82,81,82,81,82,81,82,81,82,81,82,81,82,81,82,81,82,81,82,81,82,81,82,81,82,81,82,81,82,81,82,0,0,0,81,82,81,82,81,82,81,82,81,82,81,82,81,
82,81,82,81,82,81,82,81,82,81,82,81,82,81,82,81,82,81,82,81,82,81,82,81,82,81,82,81,82,81,82,81,82,303,0,0,0,303,81,82,81,82,81,82,81,82,81,82,81,82,
81,82,81,82,81,82,81,82,81,82,81,82,81,82,81,82,81,82,81,82,81,82,81,82,81,82,81,82,81,82,81,82,81,82,0,0,0,81,82,81,82,81,82,81,82,81,82,81,82,81,
82,81,82,81,82,81,82,81,82,81,82,81,82,81,82,81,82,81,82,81,82,81,82,81,82,81,82,81,82,81,82,81,82,303,0,0,0,303,81,82,81,82,81,82,81,82,81,82,81,82,
81,82,81,82,81,82,81,82,81,82,81,82,81,82,81,82,81,82,81,82,81,82,81,82,81,82,81,82,81,82,81,82,81,82,0,0,0,81,82,81,82,81,82,81,82,81,82,81,82,81,
82,81,82,81,82,81,82,81,82,81,82,81,82,81,82,81,82,81,82,81,82,81,82,81,82,81,82,81,82,81,82,81,82,303,0,0,0,303,81,82,81,82,81,82,81,82,81,82,81,82,
312,81,82,81,82,81,82,81,82,81,82,81,82,81,82,81,82,81,82,81,82,81,82,311,81,82,81,82,81,82,81,82,81,82,312,311,312,81,82,81,82,81,82,81,82,81,82,81,82,81,
81,82,81,82,81,82,81,82,81,82,81,82,81,82,81,82,81,82,81,82,81,82,81,82,81,82,304,81,82,81,82,81,82,303,304,303,304,303,81,82,81,82,81,82,81,82,81,82,81,82,
82,81,82,81,82,81,82,81,82,81,82,81,82,81,82,81,82,81,82,81,82,81,82,81,82,81,82,311,81,82,81,82,81,82,312,311,312,81,82,81,82,81,82,81,82,81,82,81,82,81,
81,82,81,82,81,82,81,82,81,82,81,82,81,82,81,82,423,424,81,82,169,170,81,82,50,303,304,81,82,81,82,81,82,303,304,303,304,303,81,82,81,82,81,82,81,82,81,82,81,82,
82,81,82,81,82,81,82,81,82,81,82,81,82,81,82,81,82,81,82,81,82,81,82,311,312,311,312,311,312,311,81,82,81,82,312,311,312,81,82,81,82,81,82,81,82,81,82,81,82,81,
81,82,81,82,81,82,81,82,81,82,81,82,81,82,81,82,81,82,81,82,81,82,304,303,304,303,304,303,304,81,82,81,82,242,242,242,242,242,81,82,81,82,81,82,81,82,81,82,81,82,
82,81,82,81,82,81,82,81,82,81,82,81,82,81,82,169,170,81,82,81,82,81,82,311,312,311,312,311,312,311,81,82,312,242,242,242,242,242,312,81,82,81,82,81,82,81,82,81,82,81,
81,82,81,82,81,82,81,82,81,82,81,82,81,82,81,82,81,82,81,82,171,172,304,303,304,303,304,303,304,81,82,447,448,242,242,242,242,242,81,82,81,82,81,82,81,82,81,82,81,82,
82,81,82,81,82,81,82,81,82,81,82,81,82,81,82,81,82,81,82,81,82,311,312,311,312,311,312,311,312,311,81,82,312,242,242,242,242,242,312,81,82,81,82,81,82,81,82,81,82,81,
81,82,81,82,81,82,81,82,81,82,81,82,81,82,304,242,242,242,242,242,242,242,242,242,242,242,242,242,242,242,242,242,242,242,242,242,242,242,81,82,81,82,81,82,81,82,81,82,81,82,
82,81,82,81,82,81,82,81,82,81,82,81,82,81,82,242,242,311,312,311,312,311,312,311,312,311,312,311,312,311,312,311,312,242,242,242,242,242,312,81,82,81,82,81,82,81,82,81,82,81,
81,82,81,82,81,82,81,82,81,82,81,82,81,82,304,242,242,303,81,82,81,82,425,426,427,303,304,303,304,81,82,81,82,303,242,242,242,242,81,82,447,448,304,303,304,303,304,303,304,303,
82,81,82,81,82,81,82,81,82,81,82,81,82,81,82,242,242,311,312,81,82,81,82,81,82,311,312,311,81,82,81,82,312,311,242,242,242,242,312,169,170,311,81,82,81,82,81,82,81,82,
81,82,81,82,81,82,81,82,81,82,81,82,81,82,304,242,242,303,81,82,171,172,81,82,304,303,304,303,304,171,172,81,82,303,242,242,242,242,304,81,82,81,82,81,82,81,82,81,82,81,
82,81,82,81,82,81,82,81,82,81,82,81,82,81,82,242,242,311,312,81,82,81,82,81,82,311,312,311,81,82,81,82,312,311,242,242,242,423,424,311,81,82,83,84,81,82,81,82,81,82,
81,82,81,82,81,82,81,82,81,82,304,242,242,242,242,242,242,303,81,82,81,82,81,82,304,303,304,303,304,81,82,81,82,303,242,242,242,303,304,303,304,303,304,303,171,172,304,81,82,303,
82,81,82,81,82,81,82,81,82,81,82,242,312,311,312,311,312,311,425,426,427,81,82,425,426,427,312,311,312,311,81,82,312,311,242,242,242,311,425,426,427,169,170,311,312,311,312,311,81,82,
81,82,81,82,81,82,81,82,81,82,304,242,304,303,169,170,81,82,81,82,81,82,81,82,304,303,304,303,304,81,82,169,170,303,242,242,242,242,242,242,304,303,169,170,425,426,427,303,304,303,
82,81,82,81,82,81,82,81,82,81,82,242,312,81,82,81,82,447,448,81,82,81,82,311,312,311,312,311,312,311,81,82,312,311,242,242,242,242,242,242,312,81,82,81,82,81,82,81,82,81,
81,82,81,82,81,82,81,82,81,82,304,242,304,303,81,82,81,82,81,82,81,82,81,82,304,303,304,303,304,81,82,81,82,303,304,242,242,242,242,242,81,82,242,242,242,242,242,303,81,82,
82,81,82,81,82,81,82,81,82,81,82,242,312,81,82,169,170,311,312,311,312,311,312,311,312,311,312,311,312,311,312,311,81,82,312,242,242,242,242,242,242,242,242,242,242,242,242,81,82,81,
81,82,81,82,81,82,81,82,81,82,304,242,304,303,81,82,81,82,425,426,427,81,82,425,426,427,81,82,425,426,427,81,82,303,304,242,242,242,242,242,242,242,242,242,242,242,242,303,81,82,
82,81,82,81,82,81,82,81,82,81,82,242,312,311,312,311,312,311,312,311,312,311,312,311,312,311,312,311,312,311,312,311,312,311,312,311,312,242,242,242,242,242,242,242,242,242,242,81,82,81,
81,82,81,82,81,82,81,82,81,82,242,242,304,303,304,303,304,303,304,303,304,303,304,303,304,303,304,303,304,303,304,303,304,303,169,170,304,303,304,303,242,242,242,242,242,242,242,303,81,82,
82,81,82,81,82,81,82,169,170,51,242,242,312,311,312,311,312,311,312,311,312,311,312,311,312,311,312,311,312,311,312,311,312,311,312,311,312,81,82,311,242,242,242,242,242,242,242,81,82,81,
81,82,81,82,81,82,81,82,81,82,242,303,304,303,304,303,304,303,304,303,304,303,304,303,304,303,304,303,304,303,304,303,304,303,304,303,304,303,304,303,304,303,304,303,304,242,242,303,81,82,
82,81,82,81,82,81,82,81,82,311,242,311,312,169,170,447,448,81,82,81,82,81,82,81,82,311,171,172,81,82,423,424,312,311,312,311,312,311,312,169,170,81,82,311,312,242,242,81,82,81,
171,172,304,303,304,303,81,82,81,82,242,303,81,82,81,82,81,82,81,82,169,170,81,82,81,82,304,81,82,81,82,303,50,303,304,303,304,303,304,303,81,82,171,172,304,242,242,303,81,82,
82,81,82,425,426,427,312,311,242,242,242,311,312,81,82,81,82,81,82,81,82,81,82,81,82,50,81,82,81,82,81,82,312,311,312,311,312,311,312,169,170,81,82,311,312,242,242,81,82,81,
81,82,81,82,81,82,81,82,242,303,304,303,81,82,81,82,169,170,81,82,81,82,81,82,304,83,84,169,170,81,82,81,82,169,170,303,304,303,304,303,81,82,81,82,304,242,242,303,81,82,
82,423,424,81,82,81,82,311,242,311,81,82,312,311,312,311,312,81,82,81,82,311,312,81,82,311,312,311,312,311,171,172,81,82,312,311,312,311,312,81,82,311,312,311,312,242,242,81,82,81,
81,82,81,82,169,170,304,242,242,303,304,81,82,425,426,427,81,82,171,172,425,426,427,303,81,82,425,426,427,81,82,81,82,169,170,303,304,303,304,303,304,303,242,242,242,242,242,303,81,82,
82,81,82,81,82,81,82,242,242,311,81,82,83,84,312,311,312,81,82,81,82,81,82,169,170,81,82,311,81,82,81,82,81,82,6,6,312,311,312,169,170,311,242,242,242,242,242,81,82,81,
81,82,81,82,81,82,304,242,242,303,304,303,304,303,304,303,304,303,304,303,81,82,81,82,81,82,304,303,304,303,304,81,82,303,6,6,6,6,304,303,304,303,242,242,242,242,242,303,81,82,
82,81,82,447,448,81,82,242,242,311,81,82,81,82,312,311,312,311,312,81,82,83,84,81,82,171,172,311,312,311,312,6,6,6,6,6,6,6,6,311,312,311,242,242,312,311,312,81,82,81,
242,242,242,242,242,242,242,242,242,303,304,81,82,50,304,303,304,303,304,303,169,170,81,82,81,82,304,303,304,303,304,6,6,6,6,6,6,6,6,303,304,242,242,242,81,82,81,82,81,82,
312,311,312,311,312,311,312,311,312,311,81,82,312,311,312,311,312,311,312,81,82,81,82,447,448,81,82,311,312,311,312,6,6,6,6,6,6,6,6,311,312,242,242,242,50,81,82,81,82,81,
304,303,304,303,304,303,304,303,304,303,304,303,304,303,304,303,304,303,81,82,81,82,81,82,304,303,304,303,304,303,304,303,304,303,304,303,304,303,304,303,304,242,242,242,304,303,81,82,81,82,
312,311,312,311,312,311,312,311,312,311,312,311,312,311,312,311,312,311,312,311,312,311,312,311,312,242,242,242,242,242,312,81,82,81,82,81,82,81,82,174,312,242,242,242,242,81,82,81,82,81,
304,303,304,303,304,303,304,303,304,303,304,303,304,303,304,303,171,172,304,303,242,242,242,242,242,242,242,242,242,242,304,173,81,82,81,82,81,82,81,82,304,242,242,242,242,303,81,82,81,82,
312,311,312,311,312,311,312,311,312,311,312,311,312,81,82,81,82,83,84,311,242,242,242,242,242,242,242,242,242,242,242,311,312,311,312,311,312,311,312,311,312,242,242,242,242,81,82,81,82,81,
242,242,242,242,242,242,242,242,242,242,242,303,169,170,83,84,81,82,304,303,242,242,242,242,242,242,242,242,242,242,242,242,242,242,242,242,242,242,242,242,242,242,242,242,242,303,81,82,81,82,
312,311,242,242,242,242,242,242,242,242,242,311,312,311,312,311,312,311,312,311,242,242,312,81,82,81,82,242,242,242,242,242,242,242,242,242,242,242,242,242,242,242,242,242,242,81,82,81,82,81,
304,303,242,242,242,242,242,242,242,242,242,242,242,242,242,242,242,242,242,242,242,242,81,82,81,82,81,82,81,82,81,82,304,303,304,50,242,242,242,242,242,242,242,242,242,303,81,82,81,82,
81,82,425,426,427,242,242,242,242,242,242,242,242,242,242,242,242,242,242,242,242,242,312,81,82,81,82,81,82,81,82,81,82,81,82,311,312,311,312,311,312,311,312,311,312,81,82,81,82,81,
304,303,304,303,304,242,242,242,242,242,242,242,242,242,304,303,304,303,81,82,81,82,81,82,81,82,81,82,81,82,81,82,81,82,81,82,81,82,81,82,81,82,81,82,81,82,81,82,81,82,
312,311,312,311,312,311,312,311,312,311,312,311,312,311,312,311,312,311,312,81,82,81,82,81,82,81,82,81,82,81,82,81,82,81,82,81,82,81,82,81,82,81,82,81,82,81,82,81,82,81,
81,82,81,82,81,82,81,82,81,82,81,82,81,82,81,82,81,82,81,82,81,82,81,82,81,82,81,82,81,82,81,82,81,82,81,82,81,82,81,82,81,82,81,82,81,82,81,82,81,82,
82,81,82,81,82,81,82,81,82,81,82,81,82,81,82,81,82,81,82,81,82,81,82,81,82,81,82,81,82,81,82,81,82,81,82,81,82,81,82,81,82,81,82,81,82,81,82,81,82,81,
81,82,81,82,81,82,81,82,81,82,81,82,81,82,81,82,81,82,81,82,81,82,81,82,81,82,81,82,81,82,81,82,81,82,81,82,81,82,81,82,81,82,81,82,81,82,81,82,81,82
</data>
 </layer>
 <layer id="2" name="rock1" width="50" height="60">
  <data encoding="csv">
0,0,0,0,0,0,0,0,0,0,0,0,0,0,0,0,0,0,0,0,0,0,0,0,0,0,0,0,0,0,0,0,0,0,267,241,265,0,0,0,0,0,0,0,0,0,0,0,0,0,
0,0,0,0,0,0,0,0,0,0,0,0,0,0,0,0,0,0,0,0,0,0,0,0,0,0,0,0,0,0,0,0,0,0,267,241,265,0,0,0,0,0,0,0,0,0,0,0,0,0,
0,0,0,0,0,0,0,0,0,0,0,0,0,0,0,0,0,0,0,0,0,0,0,0,0,0,0,0,0,0,0,0,0,0,267,241,265,0,0,0,0,0,0,0,0,0,0,0,0,0,
0,0,0,0,0,0,0,0,0,0,0,0,0,0,0,0,0,0,0,0,0,0,0,0,0,0,0,0,0,0,0,0,0,0,267,241,265,0,0,0,0,0,0,0,0,0,0,0,0,0,
0,0,0,0,0,0,0,0,0,0,0,0,0,0,0,0,0,0,0,0,0,0,0,0,0,0,0,0,0,0,0,0,0,0,267,241,265,0,0,0,0,0,0,0,0,0,0,0,0,0,
0,0,0,0,0,0,0,0,0,0,0,0,0,0,0,0,0,0,0,0,0,0,0,0,0,0,0,0,0,0,0,0,0,0,267,241,265,0,0,0,0,0,0,0,0,0,0,0,0,0,
0,0,0,0,0,0,0,0,0,0,0,0,0,0,0,0,0,0,0,0,0,0,0,0,0,0,0,0,0,0,0,0,0,0,267,241,265,0,0,0,0,0,0,0,0,0,0,0,0,0,
0,0,0,0,0,0,0,0,0,0,0,0,0,0,0,0,0,0,0,0,0,0,0,0,0,0,0,0,0,0,0,0,0,0,267,241,265,0,0,0,0,0,0,0,0,0,0,0,0,0,
0,0,0,0,0,0,0,0,0,0,0,0,0,0,0,0,0,0,0,0,0,0,0,0,0,0,0,0,0,0,0,0,0,0,267,241,265,0,0,0,0,0,0,0,0,0,0,0,0,0,
0,0,0,0,0,0,0,0,0,0,0,0,0,0,0,0,0,0,0,0,0,0,0,0,0,0,0,0,0,0,0,0,0,0,267,241,265,0,0,0,0,0,0,0,0,0,0,0,0,0,
0,0,0,0,0,0,0,0,0,0,0,0,0,0,0,0,0,0,0,0,0,0,0,0,0,0,0,0,0,0,0,0,0,0,267,241,265,0,0,0,0,0,0,0,0,0,0,0,0,0,
0,0,0,0,0,0,0,0,0,0,0,0,0,0,0,0,0,0,0,0,0,0,0,0,0,0,0,0,0,0,0,0,0,0,267,241,265,0,0,0,0,0,0,0,0,0,0,0,0,0,
0,0,0,0,0,0,0,0,0,0,0,0,0,0,0,0,0,0,0,0,0,0,0,0,0,0,0,0,0,0,0,0,0,0,267,241,265,0,0,0,0,0,0,0,0,0,0,0,0,0,
0,0,0,0,0,0,0,0,0,0,0,0,0,0,0,0,0,0,0,0,0,0,0,0,0,396,397,0,0,0,0,0,0,0,267,241,265,0,0,0,0,0,0,0,0,0,0,0,0,0,
0,0,0,0,0,0,0,0,0,0,0,0,0,0,0,0,0,0,0,0,0,0,0,0,0,0,0,0,0,0,0,0,0,0,267,241,265,0,0,0,0,0,0,0,0,0,0,0,0,0,
0,0,0,0,0,0,0,0,0,0,0,0,0,0,0,0,0,0,0,0,0,0,0,0,0,0,0,0,0,0,0,0,0,260,275,241,273,261,0,0,0,0,0,0,0,0,0,0,0,0,
0,0,0,0,0,0,0,0,0,0,0,0,0,0,0,0,0,0,0,0,0,0,0,0,0,0,0,0,0,0,0,0,0,267,0,249,237,265,0,0,0,0,0,0,0,0,0,0,0,0,
0,0,0,0,0,0,0,0,0,0,0,0,0,0,0,0,0,0,0,0,0,0,0,0,0,0,0,0,0,0,0,0,0,267,0,0,241,265,0,0,0,0,0,0,0,0,0,0,0,0,
0,0,0,0,0,0,0,0,0,0,0,0,0,0,0,0,0,0,0,0,0,420,421,0,0,0,0,0,0,0,0,0,0,267,0,0,241,265,0,0,0,0,0,0,0,0,0,0,0,0,
0,0,0,0,0,0,0,0,0,0,0,0,0,0,0,260,274,274,274,274,274,274,274,274,274,238,239,240,274,274,274,274,274,275,0,0,241,265,0,0,0,0,0,0,0,0,0,0,0,0,
0,0,0,0,0,0,0,0,0,0,0,0,0,0,0,267,0,236,250,250,250,250,250,250,250,238,239,240,250,250,250,250,250,237,0,0,241,265,0,0,0,0,0,0,0,0,0,0,0,0,
0,0,0,0,0,0,0,0,0,0,0,0,0,0,0,267,0,243,0,0,0,0,0,0,0,0,0,0,0,0,0,0,0,241,0,0,241,265,0,0,0,0,0,0,0,0,0,0,0,0,
0,0,0,0,0,0,0,0,0,0,0,0,0,0,0,267,0,243,0,0,0,0,0,0,0,0,0,0,0,0,0,0,0,241,233,234,245,265,0,0,0,0,0,0,0,0,0,0,0,0,
0,0,0,0,0,0,0,0,0,0,0,0,0,0,0,267,0,243,0,0,0,0,0,0,0,0,0,0,0,0,0,0,0,241,241,0,257,269,0,0,0,0,0,0,0,0,0,0,0,0,
0,0,0,0,0,0,0,0,0,0,0,0,0,0,0,267,0,243,0,0,0,0,0,0,0,0,0,0,0,0,0,0,0,241,241,0,265,0,0,0,0,0,0,0,0,0,0,0,0,0,
0,0,0,0,0,0,0,0,0,0,0,260,274,274,274,275,0,243,0,0,0,0,0,0,0,0,0,0,0,0,0,0,0,241,241,0,265,0,0,0,0,0,0,0,0,0,0,0,0,0,
0,0,0,0,0,0,0,0,0,0,0,267,236,250,250,250,250,251,0,0,0,0,0,0,0,0,0,0,0,0,0,0,0,241,241,0,265,0,0,0,0,0,0,0,0,0,0,0,0,0,
0,0,0,0,0,0,0,0,0,0,0,267,243,0,0,0,0,0,0,0,0,0,0,0,0,0,0,0,0,0,0,0,0,241,241,0,273,274,274,261,0,0,0,0,0,0,0,0,0,0,
0,0,0,0,0,0,0,0,0,0,0,267,243,0,0,0,0,0,0,0,0,0,0,0,0,0,0,0,0,0,0,0,0,241,249,237,0,0,0,265,0,0,0,0,0,0,0,0,0,0,
0,0,0,0,0,0,0,0,0,0,0,267,243,0,0,0,0,0,0,0,0,0,0,0,0,0,0,0,0,0,0,0,0,249,237,241,0,0,0,265,0,0,260,274,274,274,261,0,0,0,
0,0,0,0,0,0,0,0,0,0,0,267,243,0,0,0,0,0,0,0,0,0,0,0,0,0,0,0,0,0,0,0,0,0,241,249,250,237,0,273,274,274,275,0,0,0,265,0,0,0,
0,0,0,0,0,0,0,0,0,0,0,267,243,0,0,0,0,0,0,0,0,0,0,0,0,0,0,0,0,0,0,0,0,0,241,0,0,249,250,250,250,250,250,250,250,237,265,0,0,0,
0,0,0,0,0,0,0,0,0,0,0,267,243,0,0,0,0,0,0,0,0,0,0,0,0,420,421,0,0,0,0,0,0,0,249,250,237,0,0,0,0,0,0,0,0,241,265,0,0,0,
0,0,0,0,0,0,0,0,0,0,260,275,243,0,0,0,0,0,0,0,0,0,0,0,0,0,0,0,0,0,0,0,0,0,0,0,249,250,250,237,0,0,0,0,0,241,265,0,0,0,
0,0,0,0,0,0,0,0,0,0,267,0,243,0,0,0,0,0,0,0,0,0,0,0,0,0,0,0,0,0,0,0,0,0,0,0,0,0,0,241,0,0,0,0,0,241,265,0,0,0,
0,0,0,0,0,0,0,0,0,0,267,236,251,0,0,0,0,0,0,0,0,0,0,0,0,0,0,0,0,0,0,0,0,0,0,0,0,0,0,249,250,250,250,250,237,241,265,0,0,0,
0,0,0,0,0,0,0,0,0,0,267,243,0,0,0,0,0,0,0,0,0,0,0,0,0,0,0,0,0,0,0,0,0,0,0,0,0,0,0,0,0,0,0,0,241,241,265,0,0,0,
0,0,0,0,0,0,0,0,0,0,267,243,0,0,0,0,0,0,0,0,0,0,0,0,0,0,0,0,0,0,0,0,0,0,0,0,0,0,0,0,0,0,0,0,241,241,265,0,0,0,
0,0,0,0,0,0,0,0,260,274,275,243,0,0,0,0,0,0,0,0,0,0,0,0,0,0,0,0,0,0,0,0,0,0,0,0,0,0,0,0,0,0,0,0,241,241,265,0,0,0,
0,0,0,0,0,0,0,0,267,236,250,251,0,0,0,0,0,0,0,0,0,0,0,0,0,0,0,0,0,0,0,0,0,0,0,0,0,0,0,0,0,0,0,0,241,241,265,0,0,0,
0,0,0,0,0,0,0,0,267,243,0,0,0,0,0,0,0,0,0,0,0,0,0,0,0,0,0,0,0,0,0,0,0,0,0,0,0,0,0,0,0,233,234,234,245,241,265,0,0,0,
0,0,0,0,0,0,0,260,275,243,0,0,0,0,0,0,0,0,0,0,0,0,0,0,0,0,0,0,0,0,0,0,0,0,0,0,0,0,0,0,0,241,0,0,0,241,265,0,0,0,
0,0,0,0,0,0,0,267,0,243,0,0,0,0,0,0,0,0,0,0,0,0,0,0,0,0,0,0,0,0,0,0,0,0,0,0,0,0,0,0,0,241,233,234,234,245,265,0,0,0,
0,0,0,0,0,0,0,267,0,243,0,398,399,0,0,0,0,0,0,0,0,0,0,0,0,0,0,0,0,0,0,0,0,0,0,0,0,0,0,0,0,241,241,257,258,258,269,0,0,0,
0,0,0,0,0,0,0,267,0,243,0,0,0,0,0,0,0,0,0,0,0,0,0,0,0,0,0,0,0,0,0,0,0,0,0,0,0,0,0,0,233,245,241,265,0,0,0,0,0,0,
274,274,274,274,274,274,274,275,0,243,0,0,0,0,0,0,0,0,0,0,0,0,0,0,0,0,0,0,0,0,0,0,0,0,0,0,0,0,0,0,241,0,241,265,0,0,0,0,0,0,
250,250,250,250,250,250,250,250,250,251,0,0,0,0,0,0,0,0,0,0,0,0,0,0,0,0,0,0,0,0,0,0,0,0,0,0,0,0,0,0,241,0,241,265,0,0,0,0,0,0,
0,0,0,0,0,0,0,0,0,0,0,0,0,0,0,0,0,0,0,0,0,0,0,0,233,234,234,234,234,234,235,0,0,0,0,0,0,0,0,0,241,0,241,265,0,0,0,0,0,0,
0,0,0,0,0,0,0,0,0,0,0,0,0,0,0,0,0,0,0,233,234,234,234,234,245,0,0,0,0,0,243,0,0,0,0,0,0,0,0,0,241,0,241,273,261,0,0,0,0,0,
0,0,0,0,0,0,0,0,0,0,0,0,0,0,0,0,0,0,0,241,0,0,0,0,0,233,234,234,235,0,243,0,0,0,0,0,0,0,0,0,241,0,241,0,265,0,0,0,0,0,
234,234,234,234,234,234,234,234,234,234,234,235,0,0,0,0,0,0,0,241,233,234,234,234,234,234,0,0,243,0,244,234,234,234,234,234,234,234,234,234,245,0,241,0,265,0,0,0,0,0,
234,234,234,234,234,234,234,235,0,0,0,243,0,0,0,0,0,0,0,241,241,257,258,258,258,258,258,259,244,234,234,234,234,234,234,234,234,234,234,234,234,234,245,0,265,0,0,0,0,0,
258,258,259,0,0,0,0,243,0,0,0,244,234,234,234,234,234,234,234,245,241,265,0,0,0,0,0,268,258,258,258,258,258,258,258,258,259,0,0,0,0,0,0,0,265,0,0,0,0,0,
0,0,268,258,258,259,0,244,234,234,234,234,234,234,234,234,234,234,234,234,245,265,0,0,0,0,0,0,0,0,0,0,0,0,0,0,268,258,258,258,258,258,258,258,269,0,0,0,0,0,
0,0,0,0,0,267,0,0,0,0,0,0,0,257,258,258,258,258,258,258,258,269,0,0,0,0,0,0,0,0,0,0,0,0,0,0,0,0,0,0,0,0,0,0,0,0,0,0,0,0,
0,0,0,0,0,268,258,258,258,258,269,258,258,269,0,0,0,0,0,0,0,0,0,0,0,0,0,0,0,0,0,0,0,0,0,0,0,0,0,0,0,0,0,0,0,0,0,0,0,0,
0,0,0,0,0,0,0,0,0,0,0,0,0,0,0,0,0,0,0,0,0,0,0,0,0,0,0,0,0,0,0,0,0,0,0,0,0,0,0,0,0,0,0,0,0,0,0,0,0,0,
0,0,0,0,0,0,0,0,0,0,0,0,0,0,0,0,0,0,0,0,0,0,0,0,0,0,0,0,0,0,0,0,0,0,0,0,0,0,0,0,0,0,0,0,0,0,0,0,0,0,
0,0,0,0,0,0,0,0,0,0,0,0,0,0,0,0,0,0,0,0,0,0,0,0,0,0,0,0,0,0,0,0,0,0,0,0,0,0,0,0,0,0,0,0,0,0,0,0,0,0,
0,0,0,0,0,0,0,0,0,0,0,0,0,0,0,0,0,0,0,0,0,0,0,0,0,0,0,0,0,0,0,0,0,0,0,0,0,0,0,0,0,0,0,0,0,0,0,0,0,0
</data>
 </layer>
 <layer id="13" name="water1" width="50" height="60">
  <data encoding="csv">
0,0,0,0,0,0,0,0,0,0,0,0,0,0,0,0,0,0,0,0,0,0,0,0,0,0,0,0,0,0,0,0,0,0,0,0,0,0,0,0,0,0,0,0,0,0,0,0,0,0,
0,0,0,0,0,0,0,0,0,0,0,0,0,0,0,0,0,0,0,0,0,0,0,0,0,0,0,0,0,0,0,0,0,0,0,0,0,0,0,0,0,0,0,0,0,0,0,0,0,0,
0,0,0,0,0,0,0,0,0,0,0,0,0,0,0,0,0,0,0,0,0,0,0,0,0,0,0,0,0,0,0,0,0,0,0,0,0,0,0,0,0,0,0,0,0,0,0,0,0,0,
0,0,0,0,0,0,0,0,0,0,0,0,0,0,0,0,0,0,0,0,0,0,0,0,0,0,0,0,0,0,0,0,0,0,0,0,0,0,0,0,0,0,0,0,0,0,0,0,0,0,
0,0,0,0,0,0,0,0,0,0,0,0,0,0,0,0,0,0,0,0,0,0,0,0,0,0,0,0,0,0,0,0,0,0,0,0,0,0,0,0,0,0,0,0,0,0,0,0,0,0,
0,0,0,0,0,0,0,0,0,0,0,0,0,0,0,0,0,0,0,0,0,0,0,0,0,0,0,0,0,0,0,0,0,0,0,0,0,0,0,0,0,0,0,0,0,0,0,0,0,0,
0,0,0,0,0,0,0,0,0,0,0,0,0,0,0,0,0,0,0,0,0,0,0,0,0,0,0,0,0,0,0,0,0,0,0,0,0,0,0,0,0,0,0,0,0,0,0,0,0,0,
0,0,0,0,0,0,0,0,0,0,0,0,0,0,0,0,0,0,0,0,0,0,0,0,0,0,0,0,0,0,0,0,0,0,0,0,0,0,0,0,0,0,0,0,0,0,0,0,0,0,
0,0,0,0,0,0,0,0,0,0,0,0,0,0,0,0,0,0,0,0,0,0,0,0,0,0,0,0,0,0,0,0,0,0,0,0,0,0,0,0,0,0,0,0,0,0,0,0,0,0,
0,0,0,0,0,0,0,0,0,0,0,0,0,0,0,0,0,0,0,0,0,0,0,0,0,0,0,0,0,0,0,0,0,0,0,0,0,0,0,0,0,0,0,0,0,0,0,0,0,0,
0,0,0,0,0,0,0,0,0,0,0,0,0,0,0,0,0,0,0,0,0,0,0,0,0,0,0,0,0,0,0,0,0,0,0,0,0,0,0,0,0,0,0,0,0,0,0,0,0,0,
0,0,0,0,0,0,0,0,0,0,0,0,0,0,0,0,0,0,0,0,0,0,0,0,0,0,0,0,0,0,0,0,0,0,0,0,0,0,0,0,0,0,0,0,0,0,0,0,0,0,
0,0,0,0,0,0,0,0,0,0,0,0,0,0,0,0,0,0,0,0,0,0,0,0,0,0,0,0,0,0,0,0,0,0,0,0,0,0,0,0,0,0,0,0,0,0,0,0,0,0,
0,0,0,0,0,0,0,0,0,0,0,0,0,0,0,0,0,0,0,0,0,0,0,0,0,0,0,0,0,0,0,0,0,0,0,0,0,0,0,0,0,0,0,0,0,0,0,0,0,0,
0,0,0,0,0,0,0,0,0,0,0,0,0,0,0,0,0,0,0,0,0,0,0,0,0,0,0,0,0,0,0,0,0,0,0,0,0,0,0,0,0,0,0,0,0,0,0,0,0,0,
0,0,0,0,0,0,0,0,0,0,0,0,0,0,0,0,0,0,0,0,0,0,0,0,0,0,0,0,0,0,0,0,0,0,0,0,0,0,0,0,0,0,0,0,0,0,0,0,0,0,
0,0,0,0,0,0,0,0,0,0,0,0,0,0,0,0,0,0,0,0,0,0,0,0,0,0,0,0,0,0,0,0,0,0,0,0,0,0,0,0,0,0,0,0,0,0,0,0,0,0,
0,0,0,0,0,0,0,0,0,0,0,0,0,0,0,0,0,0,0,0,0,0,0,0,0,0,0,0,0,0,0,0,0,0,0,0,0,0,0,0,0,0,0,0,0,0,0,0,0,0,
0,0,0,0,0,0,0,0,0,0,0,0,0,0,0,0,0,0,0,0,0,0,0,0,0,0,0,0,0,0,0,0,0,0,0,0,0,0,0,0,0,0,0,0,0,0,0,0,0,0,
0,0,0,0,0,0,0,0,0,0,0,0,0,0,0,0,0,0,0,0,0,0,0,0,0,0,0,0,0,0,0,0,0,0,0,0,0,0,0,0,0,0,0,0,0,0,0,0,0,0,
0,0,0,0,0,0,0,0,0,0,0,0,0,0,0,0,0,0,0,0,0,0,0,0,0,0,0,0,0,0,0,0,0,0,0,0,0,0,0,0,0,0,0,0,0,0,0,0,0,0,
0,0,0,0,0,0,0,0,0,0,0,0,0,0,0,0,0,0,0,0,0,0,0,0,0,0,0,0,0,0,0,0,0,0,0,0,0,0,0,0,0,0,0,0,0,0,0,0,0,0,
0,0,0,0,0,0,0,0,0,0,0,0,0,0,0,0,0,0,0,0,0,0,0,0,0,0,0,0,0,0,0,0,0,0,0,0,0,0,0,0,0,0,0,0,0,0,0,0,0,0,
0,0,0,0,0,0,0,0,0,0,0,0,0,0,0,0,0,0,0,0,0,0,0,0,0,0,0,0,0,0,0,0,0,0,0,0,0,0,0,0,0,0,0,0,0,0,0,0,0,0,
0,0,0,0,0,0,0,0,0,0,0,0,0,0,0,0,0,0,0,0,0,0,0,0,0,0,0,0,0,0,0,0,0,0,0,0,0,0,0,0,0,0,0,0,0,0,0,0,0,0,
0,0,0,0,0,0,0,0,0,0,0,0,0,0,0,0,0,0,0,0,0,0,0,0,0,0,0,0,0,0,0,0,0,0,0,0,0,0,0,0,0,0,0,0,0,0,0,0,0,0,
0,0,0,0,0,0,0,0,0,0,0,0,0,0,0,0,0,0,0,0,0,0,0,0,0,0,0,0,0,0,0,0,0,0,0,0,0,0,0,0,0,0,0,0,0,0,0,0,0,0,
0,0,0,0,0,0,0,0,0,0,0,0,0,0,0,0,0,0,0,0,0,0,0,0,0,0,0,0,0,0,0,0,0,0,0,0,0,0,0,0,0,0,0,0,0,0,0,0,0,0,
0,0,0,0,0,0,0,0,0,0,0,0,0,0,0,0,0,0,0,0,0,0,0,0,0,0,0,0,0,0,0,0,0,0,0,0,0,0,0,0,0,0,0,0,0,0,0,0,0,0,
0,0,0,0,0,0,0,0,0,0,0,0,0,0,0,0,0,0,0,0,0,0,0,0,0,0,0,0,0,0,0,0,0,0,0,0,0,0,0,0,0,0,0,0,0,0,0,0,0,0,
0,0,0,0,0,0,0,0,0,0,0,0,0,0,0,0,0,0,0,0,0,0,0,0,0,0,0,0,0,0,0,0,0,0,0,0,0,0,0,0,0,0,0,0,0,0,0,0,0,0,
0,0,0,0,0,0,0,0,0,0,0,0,0,0,0,0,0,0,0,0,0,0,0,0,0,0,0,0,0,0,0,0,0,0,0,0,0,0,0,0,0,0,0,0,0,0,0,0,0,0,
0,0,0,0,0,0,0,0,0,0,0,0,0,7142,7143,7143,7143,7143,7143,7143,7143,7143,7143,7143,7144,0,0,0,0,0,0,0,0,0,0,0,0,0,0,0,0,0,0,0,0,0,0,0,0,0,
0,0,0,0,0,0,0,0,0,0,0,0,0,7150,7151,7151,7151,7151,7151,7151,7151,7151,7151,7151,7152,0,0,0,0,0,0,0,0,0,0,0,0,0,0,0,0,0,0,0,0,0,0,0,0,0,
0,0,0,0,0,0,0,0,0,0,0,0,0,7158,7159,7159,7159,7159,7159,7159,7159,7159,7159,7159,7160,0,0,0,0,0,0,0,0,0,0,0,0,0,0,0,0,0,0,0,0,0,0,0,0,0,
0,0,0,0,0,0,0,0,0,0,0,0,0,0,0,0,0,0,0,0,0,0,0,0,0,0,0,0,0,0,0,0,0,0,0,0,0,0,0,0,0,0,0,0,0,0,0,0,0,0,
0,0,0,0,0,0,0,0,0,0,0,0,0,0,0,0,0,0,0,0,0,0,0,0,0,0,0,0,0,0,0,0,0,0,0,0,0,0,0,0,0,0,0,0,0,0,0,0,0,0,
0,0,0,0,0,0,0,0,0,0,0,0,0,0,0,0,0,0,0,0,0,0,0,0,0,0,0,0,0,0,0,0,0,0,0,0,0,0,0,0,0,0,0,0,0,0,0,0,0,0,
0,0,0,0,0,0,0,0,0,0,0,0,0,0,0,0,0,0,0,0,0,0,0,0,0,0,0,0,0,0,0,0,0,0,0,0,0,0,0,0,0,0,0,0,0,0,0,0,0,0,
0,0,0,0,0,0,0,0,0,0,0,0,0,0,0,0,0,0,0,0,0,0,0,0,0,0,0,0,0,0,0,0,0,0,0,0,0,0,0,0,0,0,0,0,0,0,0,0,0,0,
0,0,0,0,0,0,0,0,0,0,0,0,0,0,0,0,0,0,0,0,0,0,0,0,0,0,0,0,0,0,0,0,0,0,0,0,0,0,0,0,0,0,0,0,0,0,0,0,0,0,
0,0,0,0,0,0,0,0,0,0,0,0,0,0,0,0,0,0,0,0,0,0,0,0,0,0,0,0,0,0,0,0,0,0,0,0,0,0,0,0,0,0,0,0,0,0,0,0,0,0,
0,0,0,0,0,0,0,0,0,0,0,0,0,0,0,0,0,0,0,0,0,0,0,0,0,0,0,0,0,0,0,0,0,0,0,0,0,0,0,0,0,0,0,0,0,0,0,0,0,0,
0,0,0,0,0,0,0,0,0,0,0,0,0,0,0,0,0,0,0,0,0,0,0,0,0,0,0,0,0,0,0,0,0,0,0,0,0,0,0,0,0,0,0,0,0,0,0,0,0,0,
0,0,0,0,0,0,0,0,0,0,0,0,0,0,0,0,0,0,0,0,0,0,0,0,0,0,0,0,0,0,0,0,0,0,0,0,0,0,0,0,0,0,0,0,0,0,0,0,0,0,
0,0,0,0,0,0,0,0,0,0,0,0,0,0,0,0,0,0,0,0,0,0,0,0,0,0,0,0,0,0,0,0,0,0,0,0,0,0,0,0,0,0,0,0,0,0,0,0,0,0,
0,0,0,0,0,0,0,0,0,0,0,0,0,0,0,0,0,0,0,0,0,0,0,0,0,0,0,0,0,0,0,0,0,0,0,0,0,0,0,0,0,0,0,0,0,0,0,0,0,0,
0,0,0,0,0,0,0,0,0,0,0,0,0,0,0,0,0,0,0,0,0,0,0,0,0,0,0,0,0,0,0,0,0,0,0,0,0,0,0,0,0,0,0,0,0,0,0,0,0,0,
0,0,0,0,0,0,0,0,0,0,0,0,0,0,0,0,0,0,0,0,0,0,0,0,0,0,0,0,0,0,0,0,0,0,0,0,0,0,0,0,0,0,0,0,0,0,0,0,0,0,
0,0,0,0,0,0,0,0,0,0,0,0,0,0,0,0,0,0,0,0,0,0,0,0,0,0,0,0,0,0,0,0,0,0,0,0,0,0,0,0,0,0,0,0,0,0,0,0,0,0,
0,0,0,0,0,0,0,0,0,0,0,0,0,0,0,0,0,0,0,0,0,0,0,0,0,0,0,0,0,0,0,0,0,0,0,0,0,0,0,0,0,0,0,0,0,0,0,0,0,0,
0,0,0,0,0,0,0,0,0,0,0,0,0,0,0,0,0,0,0,0,0,0,0,0,0,0,0,0,0,0,0,0,0,0,0,0,0,0,0,0,0,0,0,0,0,0,0,0,0,0,
0,0,0,0,0,0,0,0,0,0,0,0,0,0,0,0,0,0,0,0,0,0,0,0,0,0,0,0,0,0,0,0,0,0,0,0,0,0,0,0,0,0,0,0,0,0,0,0,0,0,
0,0,0,0,0,0,0,0,0,0,0,0,0,0,0,0,0,0,0,0,0,0,0,0,0,0,0,0,0,0,0,0,0,0,0,0,0,0,0,0,0,0,0,0,0,0,0,0,0,0,
0,0,0,0,0,0,0,0,0,0,0,0,0,0,0,0,0,0,0,0,0,0,0,0,0,0,0,0,0,0,0,0,0,0,0,0,0,0,0,0,0,0,0,0,0,0,0,0,0,0,
0,0,0,0,0,0,0,0,0,0,0,0,0,0,0,0,0,0,0,0,0,0,0,0,0,0,0,0,0,0,0,0,0,0,0,0,0,0,0,0,0,0,0,0,0,0,0,0,0,0,
0,0,0,0,0,0,0,0,0,0,0,0,0,0,0,0,0,0,0,0,0,0,0,0,0,0,0,0,0,0,0,0,0,0,0,0,0,0,0,0,0,0,0,0,0,0,0,0,0,0,
0,0,0,0,0,0,0,0,0,0,0,0,0,0,0,0,0,0,0,0,0,0,0,0,0,0,0,0,0,0,0,0,0,0,0,0,0,0,0,0,0,0,0,0,0,0,0,0,0,0,
0,0,0,0,0,0,0,0,0,0,0,0,0,0,0,0,0,0,0,0,0,0,0,0,0,0,0,0,0,0,0,0,0,0,0,0,0,0,0,0,0,0,0,0,0,0,0,0,0,0,
0,0,0,0,0,0,0,0,0,0,0,0,0,0,0,0,0,0,0,0,0,0,0,0,0,0,0,0,0,0,0,0,0,0,0,0,0,0,0,0,0,0,0,0,0,0,0,0,0,0
</data>
 </layer>
 <layer id="3" name="decoration1" width="50" height="60">
  <data encoding="csv">
0,0,0,0,0,0,0,0,0,0,0,0,0,0,0,0,0,0,0,0,0,0,0,0,0,0,0,0,0,0,0,0,0,0,0,0,0,0,0,0,0,0,0,0,0,0,0,0,0,0,
0,0,0,0,0,0,0,0,0,0,0,0,0,0,0,0,0,0,0,0,0,0,0,0,0,0,0,0,0,0,0,0,0,0,0,0,0,0,0,0,0,0,0,0,0,0,0,0,0,0,
0,0,0,0,0,0,0,0,0,0,0,0,0,0,0,0,0,0,0,0,0,0,0,0,0,0,0,0,0,0,0,0,0,0,0,0,0,0,0,0,0,0,0,0,0,0,0,0,0,0,
0,0,0,0,0,0,0,0,0,0,0,0,0,0,0,0,0,0,0,0,0,0,0,0,0,0,0,0,0,0,0,0,0,0,0,0,0,0,0,0,0,0,0,0,0,0,0,0,0,0,
0,0,0,0,0,0,0,0,0,0,0,0,0,0,0,0,0,0,0,0,0,0,0,0,0,0,0,0,0,0,0,0,0,0,0,0,0,0,0,0,0,0,0,0,0,0,0,0,0,0,
0,0,0,0,0,0,0,0,0,0,0,0,0,0,0,0,0,0,0,0,0,0,0,0,0,0,0,0,0,0,0,0,0,0,0,0,0,0,0,0,0,0,0,0,0,0,0,0,0,0,
0,0,0,0,0,0,0,0,0,0,0,0,0,0,0,0,0,0,0,0,0,0,0,0,0,0,0,0,0,0,0,0,0,0,0,0,0,0,0,0,0,0,0,0,0,0,0,0,0,0,
0,0,0,0,0,0,0,0,0,0,0,0,0,0,0,0,0,0,0,0,0,0,0,0,0,0,0,0,0,0,0,0,0,0,0,0,0,0,0,0,0,0,0,0,0,0,0,0,0,0,
0,0,0,0,0,0,0,0,0,0,0,0,0,0,0,0,0,0,0,0,0,0,0,0,0,0,0,0,0,0,0,0,0,0,0,0,0,0,0,0,0,0,0,0,0,0,0,0,0,0,
0,0,0,0,0,0,0,0,0,0,0,0,0,0,0,0,0,0,0,0,0,0,0,0,0,0,0,0,0,0,0,0,0,0,0,0,0,0,0,0,0,0,0,0,0,0,0,0,0,0,
0,0,0,0,0,0,0,0,0,0,0,0,0,0,0,0,0,0,0,0,0,0,0,0,0,0,0,0,0,0,0,0,0,0,0,0,0,0,0,0,0,0,0,0,0,0,0,0,0,0,
0,0,0,0,0,0,0,0,0,0,0,0,0,0,0,0,0,0,0,0,0,0,0,0,0,0,0,0,0,0,0,0,0,0,0,0,0,0,0,0,0,0,0,0,0,0,0,0,0,0,
0,0,0,0,0,0,0,0,0,0,0,0,0,0,0,0,0,0,0,0,0,0,0,0,0,0,0,0,0,0,0,0,0,0,0,0,0,0,0,0,0,0,0,0,0,0,0,0,0,0,
0,0,0,0,0,0,0,0,0,0,0,0,0,0,0,0,0,0,0,0,0,0,0,0,0,0,0,0,0,0,0,0,0,0,0,0,0,0,0,0,0,0,0,0,0,0,0,0,0,0,
0,0,0,0,0,0,0,0,0,0,0,0,0,0,0,0,0,0,0,0,0,0,0,0,0,0,0,0,0,0,0,0,0,0,0,0,0,0,0,0,0,0,0,0,0,0,0,0,0,0,
0,0,0,0,0,0,0,0,0,0,0,0,0,0,0,0,0,0,0,0,0,0,0,0,0,0,0,0,0,0,0,0,0,0,0,0,0,0,0,0,0,0,0,0,0,0,0,0,0,0,
0,0,0,0,0,0,0,0,0,0,0,0,0,0,0,0,0,0,0,0,0,0,0,0,0,0,0,0,0,0,0,0,0,0,0,0,0,0,0,0,0,0,0,0,0,0,0,0,0,0,
0,0,0,0,0,0,0,0,0,0,0,0,0,0,0,0,0,0,0,0,0,0,0,0,0,0,0,0,0,0,0,0,0,0,0,0,0,0,0,0,0,0,0,0,0,0,0,0,0,0,
0,0,0,0,0,0,0,0,0,0,0,0,0,0,0,0,0,0,0,0,0,0,0,0,0,0,0,0,0,0,0,0,36,0,252,0,0,0,0,0,0,0,0,0,0,0,0,0,0,0,
0,0,0,0,0,0,0,0,0,0,0,0,0,0,0,0,0,0,0,0,0,0,0,0,0,0,0,0,0,0,0,0,0,0,0,0,0,0,0,0,0,0,0,0,0,0,0,0,0,0,
0,0,0,0,0,0,0,0,0,0,0,0,0,0,0,0,0,0,0,0,0,0,0,0,0,0,0,0,0,0,0,0,0,0,0,253,0,0,0,0,0,0,0,0,0,0,0,0,0,0,
0,0,0,0,0,0,0,0,0,0,0,0,0,0,0,0,0,0,0,0,0,0,0,0,0,0,0,0,0,0,0,0,0,0,0,0,0,0,0,0,0,0,0,0,0,0,0,0,0,0,
0,0,0,0,0,0,0,0,0,0,0,0,0,0,0,0,0,0,0,0,0,0,0,0,0,0,0,0,0,0,0,0,0,0,0,0,0,0,0,0,0,0,0,0,0,0,0,0,0,0,
0,0,0,0,0,0,0,0,0,0,0,0,0,0,0,0,0,0,0,0,0,0,0,0,0,0,0,0,0,0,0,0,0,0,0,0,0,0,0,0,0,0,0,0,0,0,0,0,0,0,
0,0,0,0,0,0,0,0,0,0,0,0,0,0,0,0,0,0,0,0,0,0,0,0,0,0,0,0,0,0,0,0,0,0,0,0,0,0,0,0,0,0,0,0,0,0,0,0,0,0,
0,0,0,0,0,0,0,0,0,0,0,0,0,0,0,0,0,0,0,0,0,0,0,0,0,0,0,0,0,0,0,0,0,0,0,0,0,0,0,0,0,0,0,0,0,0,0,0,0,0,
0,0,0,0,0,0,0,0,0,0,0,0,0,0,0,0,0,0,0,0,0,0,0,0,0,0,0,0,0,0,0,0,0,0,0,0,0,0,0,0,0,0,0,0,0,0,0,0,0,0,
0,0,0,0,0,0,0,0,0,0,0,0,0,0,0,0,0,0,0,0,0,0,0,0,0,0,0,0,0,0,0,0,0,0,0,0,0,0,0,0,0,0,0,0,0,0,0,0,0,0,
0,0,0,0,0,0,0,0,0,0,0,0,0,0,0,0,0,0,0,0,0,0,0,0,0,0,0,0,0,0,0,0,0,0,0,0,0,0,0,0,0,0,0,0,0,0,0,0,0,0,
0,0,0,0,0,0,0,0,0,0,0,0,0,0,0,0,0,0,0,0,0,0,0,0,0,0,0,0,0,0,0,0,0,0,0,0,0,253,0,0,0,0,0,0,0,0,0,0,0,0,
0,0,0,0,0,0,0,0,0,0,0,0,0,0,0,0,0,0,0,0,0,0,0,0,0,0,0,0,0,0,0,0,0,0,0,0,0,0,0,0,0,0,0,0,252,0,0,0,0,0,
0,0,0,0,0,0,0,0,0,0,0,0,0,0,0,0,0,0,0,0,0,0,0,0,0,0,0,0,0,0,0,0,0,36,0,0,0,0,0,0,0,0,0,0,0,0,0,0,0,0,
0,0,0,0,0,0,0,0,0,0,0,0,0,0,0,0,0,394,395,0,0,378,0,0,0,0,0,0,0,0,0,0,0,0,0,0,0,0,0,0,0,0,0,0,0,0,0,0,0,0,
0,0,0,0,0,0,0,0,0,0,0,0,0,0,0,0,0,0,0,0,0,386,387,0,0,0,0,0,0,0,0,0,0,0,0,0,0,0,0,0,0,252,0,0,0,0,0,0,0,0,
0,0,0,0,0,0,0,0,0,0,0,252,0,0,0,0,0,0,0,0,0,0,0,0,0,0,0,0,0,0,0,0,0,0,0,43,0,0,0,0,0,0,0,253,0,0,0,0,0,0,
0,0,0,0,0,0,0,0,0,0,0,0,0,0,0,0,0,0,0,0,0,0,0,0,0,0,0,0,0,0,0,0,0,0,0,0,0,0,0,0,0,0,0,0,0,0,0,0,0,0,
0,0,0,0,0,0,0,0,0,0,0,0,0,0,0,0,0,0,0,0,0,0,0,0,0,0,0,0,0,0,0,0,0,0,0,0,0,0,0,0,0,0,0,0,0,0,0,0,0,0,
0,0,0,0,0,0,0,0,0,0,0,0,0,0,0,0,0,0,0,0,0,0,0,0,0,0,0,0,0,0,0,0,0,0,0,0,0,0,0,0,0,0,0,0,0,0,0,0,0,0,
0,0,0,0,0,0,0,0,0,0,0,0,0,0,0,0,0,0,0,0,0,0,0,0,0,0,0,0,0,0,0,0,0,0,0,0,0,0,0,0,0,0,0,0,0,0,0,0,0,0,
0,0,0,0,0,0,0,0,0,0,0,0,0,0,0,0,0,0,0,0,0,0,0,0,0,0,0,0,0,0,0,0,0,0,0,0,0,0,0,0,0,0,0,0,0,0,0,0,0,0,
0,0,0,0,0,0,0,0,0,0,0,0,0,0,0,0,0,0,0,0,0,0,0,0,0,0,0,0,0,0,0,0,0,0,0,0,0,0,0,0,0,0,0,0,0,0,0,0,0,0,
0,0,0,0,0,0,0,0,0,0,0,0,0,0,0,0,0,0,0,0,0,0,0,0,0,0,0,0,0,0,0,0,0,0,0,0,0,0,0,0,0,0,0,252,0,0,0,0,0,0,
0,0,0,0,0,0,0,0,0,0,0,0,0,0,0,0,0,0,0,0,0,0,0,0,0,0,0,0,0,0,0,0,0,0,0,0,0,0,0,0,0,0,0,0,0,0,0,0,0,0,
0,0,0,0,0,0,0,0,252,0,0,0,0,0,0,0,0,0,0,0,0,0,0,0,0,0,0,0,0,0,0,0,0,35,0,0,0,0,0,0,0,0,0,0,0,36,0,0,0,0,
0,0,0,0,0,0,0,0,0,0,0,0,0,0,0,0,0,0,0,0,0,0,0,0,0,0,0,0,0,0,0,0,0,0,0,0,0,0,0,0,0,0,0,0,0,0,0,0,0,0,
0,0,0,0,0,0,0,0,0,0,0,0,0,0,0,0,0,0,0,0,0,0,0,0,0,0,0,0,0,0,0,0,0,0,0,0,0,0,0,0,0,0,0,0,0,0,0,0,0,0,
0,0,0,0,0,0,0,0,0,0,0,0,35,0,0,0,0,0,0,0,0,0,0,0,0,0,0,0,0,0,0,0,0,0,0,0,0,0,0,0,0,0,0,0,0,0,0,0,0,0,
0,0,0,0,0,0,0,0,0,0,0,0,0,0,0,0,0,0,0,0,0,0,0,0,0,0,0,0,0,0,0,0,0,0,0,0,0,0,0,0,0,0,0,0,0,0,0,0,0,0,
0,0,0,0,0,0,0,0,0,0,0,0,0,0,0,0,0,0,36,0,0,0,0,0,0,0,0,0,252,0,0,0,0,0,0,0,0,0,0,0,0,0,0,0,0,0,0,0,0,0,
0,0,0,0,0,0,0,0,0,0,0,0,0,0,0,0,0,0,0,0,0,0,252,0,0,0,0,0,0,0,0,0,0,0,0,0,0,0,0,0,0,0,0,0,0,0,0,0,0,0,
0,0,0,0,0,0,0,0,0,0,0,0,0,0,0,0,0,0,0,0,0,0,0,0,0,0,0,253,0,0,0,0,0,0,0,0,0,0,0,0,0,0,0,253,0,0,0,0,0,0,
0,0,253,0,0,0,0,0,0,0,0,0,0,0,0,0,0,0,29,0,0,0,0,0,0,0,0,0,0,0,0,0,0,0,0,0,0,0,252,0,0,0,0,0,0,0,0,0,0,0,
163,164,0,0,0,0,0,0,0,252,0,0,0,0,0,0,0,0,0,0,0,0,0,0,0,0,0,0,0,0,0,0,35,0,0,0,0,0,0,0,0,0,0,0,0,0,0,0,0,0,
0,0,0,0,0,0,0,0,0,0,0,0,0,0,0,0,0,0,0,0,0,0,0,0,0,0,0,0,0,0,0,0,0,0,0,0,0,0,0,36,0,0,0,0,43,0,0,0,0,0,
0,0,0,0,0,0,0,0,0,0,0,0,253,0,0,0,0,0,0,0,0,0,0,0,0,0,0,0,0,0,0,0,0,0,0,0,0,0,0,0,0,0,0,0,0,0,0,0,0,0,
0,0,81,82,0,0,0,0,0,0,0,0,0,0,171,172,81,82,0,0,0,0,0,0,0,0,0,0,0,0,0,0,0,0,0,0,0,0,0,0,0,0,0,0,0,0,0,0,0,0,
82,81,82,81,82,81,82,81,82,81,82,81,82,81,82,81,82,0,0,0,0,0,0,0,0,0,0,0,0,0,0,0,0,0,0,0,0,0,0,0,0,0,0,0,0,0,0,0,0,0,
0,0,0,0,0,0,0,0,0,0,0,0,0,0,0,0,0,0,0,0,0,0,0,0,0,0,0,0,0,0,0,0,0,0,0,0,0,0,0,0,0,0,0,0,0,0,0,0,0,0,
0,0,0,0,0,0,0,0,0,0,0,0,0,0,0,0,0,0,0,0,0,0,0,0,0,0,0,0,0,0,0,0,0,0,0,0,0,0,0,0,0,0,0,0,0,0,0,0,0,0,
0,0,0,0,0,0,0,0,0,0,0,0,0,0,0,0,0,0,0,0,0,0,0,0,0,0,0,0,0,0,0,0,0,0,0,0,0,0,0,0,0,0,0,0,0,0,0,0,0,0
</data>
 </layer>
 <group id="4" name="Layer1"/>
 <layer id="5" name="tree2" width="50" height="60">
  <data encoding="csv">
66,65,66,65,66,65,66,65,66,65,66,65,66,65,66,65,66,65,66,65,66,65,66,65,66,65,66,65,66,65,66,65,66,0,0,0,0,0,65,66,65,66,65,66,65,66,65,66,65,66,
65,66,65,66,65,66,65,66,65,66,65,66,65,66,65,66,65,66,65,66,65,66,65,66,65,66,65,66,65,66,65,66,65,66,0,0,0,65,66,65,66,65,66,65,66,65,66,65,66,65,
66,65,66,65,66,65,66,65,66,65,66,65,66,65,66,65,66,65,66,65,66,65,66,65,66,65,66,65,66,65,66,65,66,0,0,0,0,0,65,66,65,66,65,66,65,66,65,66,65,66,
65,66,65,66,65,66,65,66,65,66,65,66,65,66,65,66,65,66,65,66,65,66,65,66,65,66,65,66,65,66,65,66,65,66,0,0,0,65,66,65,66,65,66,65,66,65,66,65,66,65,
66,65,66,65,66,65,66,65,66,65,66,65,66,65,66,65,66,65,66,65,66,65,66,65,66,65,66,65,66,65,66,65,66,0,0,0,0,0,65,66,65,66,65,66,65,66,65,66,65,66,
65,66,65,66,65,66,65,66,65,66,65,66,65,66,65,66,65,66,65,66,65,66,65,66,65,66,65,66,65,66,65,66,65,66,0,0,0,65,66,65,66,65,66,65,66,65,66,65,66,65,
66,65,66,65,66,65,66,65,66,65,66,65,66,65,66,65,66,65,66,65,66,65,66,65,66,65,66,65,66,65,66,65,66,0,0,0,0,0,65,66,65,66,65,66,65,66,65,66,65,66,
65,66,65,66,65,66,65,66,65,66,65,66,65,66,65,66,65,66,65,66,65,66,65,66,65,66,65,66,65,66,65,66,65,66,0,0,0,65,66,65,66,65,66,65,66,65,66,65,66,65,
66,65,66,65,66,65,66,65,66,65,66,65,66,65,66,65,66,65,66,65,66,65,66,65,66,65,66,65,66,65,66,65,66,0,0,0,0,0,65,66,65,66,65,66,65,66,65,66,65,66,
66,65,66,65,66,65,66,65,66,65,66,65,66,65,66,65,66,65,66,65,66,65,66,0,0,0,65,66,65,66,65,66,65,66,0,0,0,65,66,65,66,65,66,65,66,65,66,65,66,65,
65,66,65,66,65,66,65,66,65,66,65,66,65,66,65,66,65,66,65,66,65,66,65,66,65,66,0,65,66,65,66,65,66,0,0,0,0,0,65,66,65,66,65,66,65,66,65,66,65,66,
66,65,66,65,66,65,66,65,66,65,66,65,66,65,66,65,66,65,66,65,66,65,66,65,66,65,66,0,65,66,65,66,65,66,0,0,0,65,66,65,66,65,66,65,66,65,66,65,66,65,
65,66,65,66,65,66,65,66,65,66,65,66,65,66,65,66,415,416,65,66,153,154,65,66,44,388,389,65,66,65,66,65,66,0,0,0,0,0,65,66,65,66,65,66,65,66,65,66,65,66,
66,65,66,65,66,65,66,65,66,65,66,65,66,65,66,65,66,65,66,65,66,65,66,0,0,0,0,0,0,0,65,66,65,66,0,0,0,65,66,65,66,65,66,65,66,65,66,65,66,65,
65,66,65,66,65,66,65,66,65,66,65,66,65,66,65,66,65,66,65,66,65,66,0,0,0,0,0,0,0,65,66,65,66,0,0,0,0,0,65,66,65,66,65,66,65,66,65,66,65,66,
66,65,66,65,66,65,66,65,66,65,66,65,66,65,66,153,154,65,66,65,66,65,66,0,0,0,0,0,0,0,65,66,0,0,0,0,0,0,0,65,66,65,66,65,66,65,66,65,66,65,
65,66,65,66,65,66,65,66,65,66,65,66,65,66,65,66,65,66,65,66,155,156,0,0,0,0,0,0,0,65,66,439,440,0,0,0,0,0,65,66,65,66,65,66,65,66,65,66,65,66,
66,65,66,65,66,65,66,65,66,65,66,65,66,65,66,65,66,65,66,65,66,412,413,0,0,0,0,0,0,0,65,66,0,0,0,0,0,0,0,65,66,65,66,65,66,65,66,65,66,65,
65,66,65,66,65,66,65,66,65,66,65,66,65,66,0,0,0,0,0,0,0,0,0,0,0,0,0,0,0,0,0,0,0,0,0,0,0,0,65,66,65,66,65,66,65,66,65,66,65,66,
66,65,66,65,66,65,66,65,66,65,66,65,66,65,66,0,0,0,0,0,0,0,0,0,0,0,0,0,0,0,0,0,0,0,0,0,0,0,0,65,66,65,66,65,66,65,66,65,66,65,
65,66,65,66,65,66,65,66,65,66,65,66,65,66,0,0,0,0,65,66,65,66,417,418,419,0,0,0,0,65,66,65,66,0,0,0,0,0,65,66,439,440,0,0,0,0,0,0,0,0,
66,65,66,65,66,65,66,65,66,65,66,65,66,65,66,0,0,0,0,65,66,65,66,65,66,0,0,0,65,66,65,66,0,0,0,0,0,0,0,153,154,0,65,66,65,66,65,66,65,66,
65,66,65,66,65,66,65,66,65,66,65,66,65,66,0,0,0,0,65,66,155,156,65,66,0,0,0,0,0,155,156,65,66,0,0,0,0,0,0,65,66,65,66,65,66,65,66,65,66,65,
66,65,66,65,66,65,66,65,66,65,66,65,66,65,66,0,0,0,0,65,66,65,66,65,66,0,0,0,65,66,65,66,0,0,0,0,0,415,416,0,65,66,65,66,0,0,65,66,65,66,
65,66,65,66,65,66,65,66,65,66,0,0,0,0,0,0,0,0,0,0,0,0,0,0,0,0,0,0,0,65,66,65,66,0,0,0,0,0,0,0,0,0,0,0,155,156,0,65,66,0,
66,65,66,65,66,65,66,65,66,65,66,0,0,0,0,0,0,0,449,450,451,65,66,444,445,446,0,0,0,0,65,66,0,0,0,0,0,0,449,450,451,153,154,0,0,0,0,0,65,66,
65,66,65,66,65,66,65,66,65,66,0,0,0,0,153,154,65,66,65,66,65,66,65,66,0,0,0,0,0,65,66,153,154,0,0,0,0,0,0,0,0,0,153,154,417,418,419,0,0,0,
66,65,66,65,66,65,66,65,66,65,66,0,0,65,66,65,66,439,440,0,0,65,66,0,0,0,0,0,0,0,65,66,0,0,0,0,0,0,0,0,36,65,66,65,66,65,66,65,66,65,
65,66,65,66,65,66,65,66,65,66,0,0,0,0,65,66,65,66,65,66,65,66,65,66,0,0,0,0,0,65,66,65,66,0,0,0,0,0,0,0,65,66,0,0,0,0,0,0,65,66,
66,65,66,65,66,65,66,65,66,65,66,0,0,65,66,153,154,0,0,0,0,0,0,0,0,0,0,0,0,0,0,0,65,66,0,0,0,0,0,0,0,0,0,0,0,0,0,65,66,65,
65,66,65,66,65,66,65,66,65,66,45,0,0,0,65,66,65,66,444,445,446,65,66,417,418,419,65,66,449,450,451,65,66,0,0,0,0,0,0,0,0,0,0,0,0,0,0,0,65,66,
66,65,66,65,66,65,66,65,66,65,66,0,0,0,0,0,0,0,0,0,0,0,0,0,0,412,413,0,0,0,0,0,0,0,0,0,0,0,0,0,0,0,0,0,0,0,0,65,66,65,
65,66,65,66,65,66,65,66,65,66,0,0,0,0,0,0,0,0,0,0,0,0,0,0,0,0,0,0,0,0,0,0,0,0,153,154,0,0,0,0,0,0,0,0,0,0,0,0,65,66,
66,65,66,65,66,65,66,153,154,0,0,0,0,0,0,0,0,0,0,0,0,0,0,0,0,0,0,0,0,0,0,0,0,0,0,0,0,65,66,0,0,0,0,0,0,0,0,65,66,65,
65,66,65,66,65,66,65,66,65,66,0,0,0,0,0,0,0,0,0,0,0,0,0,0,0,0,0,0,0,0,0,0,0,0,0,0,0,0,0,0,0,0,0,0,0,0,0,0,65,66,
66,65,66,65,66,65,66,65,66,0,0,0,0,153,154,439,440,65,66,65,66,65,66,65,66,0,65,66,65,66,415,416,0,0,0,0,0,0,0,153,154,65,66,0,0,0,0,65,66,65,
155,156,0,0,0,0,65,66,65,66,0,0,65,66,65,66,65,66,65,66,153,154,65,66,65,66,0,65,66,65,66,0,44,0,0,0,0,0,0,0,65,66,155,156,0,0,0,0,65,66,
66,65,66,444,445,446,0,0,0,0,0,0,0,65,66,65,66,65,66,65,66,65,66,65,66,44,65,66,65,66,65,66,0,0,0,0,0,0,0,153,154,65,66,0,0,0,0,65,66,65,
65,66,65,66,65,66,65,66,0,0,0,0,65,66,65,66,153,154,65,66,65,66,65,66,0,67,68,153,154,65,66,65,66,153,154,0,0,0,0,0,65,66,65,66,0,0,0,0,65,66,
66,415,416,65,66,65,66,0,0,0,65,66,0,0,0,0,0,65,66,0,0,0,0,65,66,0,0,0,0,0,65,66,65,66,0,0,0,0,0,65,66,0,0,0,0,0,0,65,66,65,
65,66,65,66,153,154,0,0,0,0,0,65,66,417,418,419,65,66,155,156,449,450,451,0,65,66,444,445,446,65,66,65,66,153,154,0,0,0,0,0,0,0,0,0,0,0,0,0,65,66,
66,65,66,65,66,65,66,0,0,0,65,66,67,68,0,0,0,65,66,65,66,65,66,153,154,65,66,0,65,66,65,66,65,66,0,0,0,0,0,153,154,0,0,0,0,0,0,65,66,65,
65,66,65,66,65,66,0,0,0,0,0,390,391,0,0,0,0,0,0,0,65,66,65,66,65,66,0,0,0,0,0,65,66,0,0,0,0,0,0,0,0,0,0,0,0,0,0,0,65,66,
66,65,66,439,440,65,66,0,0,0,65,66,65,66,0,0,0,0,0,65,66,67,68,65,66,155,156,0,0,0,0,0,0,0,0,0,0,0,0,0,0,0,0,0,0,0,0,65,66,65,
0,0,0,0,0,0,0,0,0,0,0,65,66,0,0,0,0,0,0,0,153,154,65,66,65,66,0,0,0,0,0,0,0,0,0,0,0,0,0,0,0,0,0,0,65,66,65,66,65,66,
0,0,0,0,0,0,0,0,0,0,65,66,0,0,0,0,0,0,0,65,66,65,66,439,440,65,66,0,0,0,0,0,0,0,0,0,0,0,0,0,0,0,0,0,44,65,66,65,66,65,
0,0,0,0,0,0,0,0,0,0,0,0,0,0,0,0,0,0,65,66,65,66,65,66,0,0,0,0,0,0,0,0,0,0,0,0,0,0,0,0,0,0,0,0,0,0,65,66,65,66,
0,0,0,0,0,0,0,0,0,0,0,0,0,0,0,0,0,0,0,0,0,0,0,0,0,0,0,0,0,0,0,65,66,65,66,65,66,65,66,158,0,0,0,0,0,65,66,65,66,65,
0,0,0,0,0,0,0,0,0,0,0,0,0,0,0,0,155,156,0,0,0,0,0,0,0,0,0,0,0,0,0,157,65,66,65,66,65,66,65,66,0,0,0,0,0,0,65,66,65,66,
0,0,0,0,0,0,0,0,0,0,0,0,0,65,66,65,66,67,68,0,0,0,0,0,0,0,0,0,0,0,0,0,0,0,0,0,0,0,0,0,0,0,0,0,0,65,66,65,66,65,
0,0,0,0,0,0,0,0,0,0,0,0,153,154,67,68,65,66,0,0,0,0,0,0,0,0,0,0,0,0,0,0,0,0,0,0,0,0,0,0,0,0,0,0,0,0,65,66,65,66,
155,156,0,0,0,0,0,0,0,0,0,0,0,0,0,0,0,0,0,0,0,0,0,65,66,65,66,0,0,0,0,0,0,0,0,0,0,0,0,0,0,0,0,0,0,65,66,65,66,65,
0,0,0,0,0,0,0,0,0,0,0,0,0,0,0,0,0,0,0,0,0,0,65,66,65,66,65,66,65,66,65,66,0,0,0,44,0,0,0,0,0,0,0,0,0,0,65,66,65,66,
65,66,417,418,419,0,0,0,0,0,0,0,0,0,0,0,0,0,0,0,0,0,0,65,66,65,66,65,66,65,66,65,66,65,66,0,0,0,0,0,0,0,0,0,0,65,66,65,66,65,
0,0,65,66,0,0,0,0,0,0,0,0,0,0,155,156,65,66,65,66,65,66,65,66,65,66,65,66,65,66,65,66,65,66,65,66,65,66,65,66,65,66,65,66,65,66,65,66,65,66,
66,65,66,65,66,65,66,65,66,65,66,65,66,65,66,65,66,0,0,65,66,65,66,65,66,65,66,65,66,65,66,65,66,65,66,65,66,65,66,65,66,65,66,65,66,65,66,65,66,65,
65,66,65,66,65,66,65,66,65,66,65,66,65,66,65,66,65,66,65,66,65,66,65,66,65,66,65,66,65,66,65,66,65,66,65,66,65,66,65,66,65,66,65,66,65,66,65,66,65,66,
66,65,66,65,66,65,66,65,66,65,66,65,66,65,66,65,66,65,66,65,66,65,66,65,66,65,66,65,66,65,66,65,66,65,66,65,66,65,66,65,66,65,66,65,66,65,66,65,66,65,
65,66,65,66,65,66,65,66,65,66,65,66,65,66,65,66,65,66,65,66,65,66,65,66,65,66,65,66,65,66,65,66,65,66,65,66,65,66,65,66,65,66,65,66,65,66,65,66,65,66,
66,65,66,65,66,65,66,65,66,65,66,65,66,65,66,65,66,65,66,65,66,65,66,65,66,65,66,65,66,65,66,65,66,65,66,65,66,65,66,65,66,65,66,65,66,65,66,65,66,65
</data>
 </layer>
 <layer id="6" name="decoration2" width="50" height="60">
  <data encoding="csv">
0,0,0,0,0,0,0,0,0,0,0,0,0,0,0,0,0,0,0,0,0,0,0,0,0,0,0,0,0,0,0,0,0,0,0,0,0,0,0,0,0,0,0,0,0,0,0,0,0,0,
0,0,0,0,0,0,0,0,0,0,0,0,0,0,0,0,0,0,0,0,0,0,0,0,0,0,0,0,0,0,0,0,0,0,0,0,0,0,0,0,0,0,0,0,0,0,0,0,0,0,
0,0,0,0,0,0,0,0,0,0,0,0,0,0,0,0,0,0,0,0,0,0,0,0,0,0,0,0,0,0,0,0,0,0,0,0,0,0,0,0,0,0,0,0,0,0,0,0,0,0,
0,0,0,0,0,0,0,0,0,0,0,0,0,0,0,0,0,0,0,0,0,0,0,0,0,0,0,0,0,0,0,0,0,0,0,0,0,0,0,0,0,0,0,0,0,0,0,0,0,0,
0,0,0,0,0,0,0,0,0,0,0,0,0,0,0,0,0,0,0,0,0,0,0,0,0,0,0,0,0,0,0,0,0,0,0,0,0,0,0,0,0,0,0,0,0,0,0,0,0,0,
0,0,0,0,0,0,0,0,0,0,0,0,0,0,0,0,0,0,0,0,0,0,0,0,0,0,0,0,0,0,0,0,0,0,0,0,0,0,0,0,0,0,0,0,0,0,0,0,0,0,
0,0,0,0,0,0,0,0,0,0,0,0,0,0,0,0,0,0,0,0,0,0,0,0,0,0,0,0,0,0,0,0,0,0,0,0,0,0,0,0,0,0,0,0,0,0,0,0,0,0,
0,0,0,0,0,0,0,0,0,0,0,0,0,0,0,0,0,0,0,0,0,0,0,0,0,0,0,0,0,0,0,0,0,0,0,0,0,0,0,0,0,0,0,0,0,0,0,0,0,0,
0,0,0,0,0,0,0,0,0,0,0,0,0,0,0,0,0,0,0,0,0,0,0,0,0,0,0,0,0,0,0,0,0,0,0,0,0,0,0,0,0,0,0,0,0,0,0,0,0,0,
0,0,0,0,0,0,0,0,0,0,0,0,0,0,0,0,0,0,0,0,0,0,0,0,0,0,0,0,0,0,0,0,0,0,0,0,0,0,0,0,0,0,0,0,0,0,0,0,0,0,
0,0,0,0,0,0,0,0,0,0,0,0,0,0,0,0,0,0,0,0,0,0,0,0,0,0,0,0,0,0,0,0,0,0,0,0,0,0,0,0,0,0,0,0,0,0,0,0,0,0,
0,0,0,0,0,0,0,0,0,0,0,0,0,0,0,0,0,0,0,0,0,0,0,0,0,0,0,0,0,0,0,0,0,0,0,0,0,0,0,0,0,0,0,0,0,0,0,0,0,0,
0,0,0,0,0,0,0,0,0,0,0,0,0,0,0,0,0,0,0,0,0,0,0,0,0,0,0,0,0,0,0,0,0,0,0,0,0,0,0,0,0,0,0,0,0,0,0,0,0,0,
0,0,0,0,0,0,0,0,0,0,0,0,0,0,0,0,0,0,0,0,0,0,0,0,0,0,0,0,0,0,0,0,0,0,0,0,0,0,0,0,0,0,0,0,0,0,0,0,0,0,
0,0,0,0,0,0,0,0,0,0,0,0,0,0,0,0,0,0,0,0,0,0,0,0,0,0,0,0,0,0,0,0,0,0,0,0,0,0,0,0,0,0,0,0,0,0,0,0,0,0,
0,0,0,0,0,0,0,0,0,0,0,0,0,0,0,0,0,0,0,0,0,0,0,0,0,0,0,0,0,0,0,0,0,0,0,0,0,0,0,0,0,0,0,0,0,0,0,0,0,0,
0,0,0,0,0,0,0,0,0,0,0,0,0,0,0,0,0,0,0,0,0,0,0,0,0,0,0,0,0,0,0,0,0,0,0,0,0,0,0,0,0,0,0,0,0,0,0,0,0,0,
0,0,0,0,0,0,0,0,0,0,0,0,0,0,0,0,0,0,0,0,0,0,0,0,0,0,0,0,0,0,0,0,0,0,0,0,0,0,0,0,0,0,0,0,0,0,0,0,0,0,
0,0,0,0,0,0,0,0,0,0,0,0,0,0,0,0,0,0,0,0,0,0,0,0,0,0,0,0,0,0,0,0,0,0,0,0,0,0,0,0,0,0,0,0,0,0,0,0,0,0,
0,0,0,0,0,0,0,0,0,0,0,0,0,0,0,0,0,0,0,0,0,0,0,0,0,0,0,0,0,0,0,0,0,0,0,0,0,0,0,0,0,0,0,0,0,0,0,0,0,0,
0,0,0,0,0,0,0,0,0,0,0,0,0,0,0,0,0,0,0,0,0,0,0,0,0,0,0,0,0,0,0,0,0,0,0,0,0,0,0,0,0,0,0,0,0,0,0,0,0,0,
0,0,0,0,0,0,0,0,0,0,0,0,0,0,0,0,0,0,0,0,0,0,0,0,0,0,0,0,0,0,0,0,0,0,0,0,0,0,0,0,0,0,0,0,0,0,0,0,0,0,
0,0,0,0,0,0,0,0,0,0,0,0,0,0,0,0,0,0,0,0,0,0,0,0,0,0,0,0,0,0,0,0,0,0,0,0,0,0,0,0,0,0,0,0,0,0,0,0,0,0,
0,0,0,0,0,0,0,0,0,0,0,0,0,0,0,0,0,0,0,0,0,0,0,0,0,0,0,0,0,0,0,0,0,0,0,0,0,0,0,0,0,0,0,0,0,0,0,0,0,0,
0,0,0,0,0,0,0,0,0,0,0,0,0,0,0,0,0,0,0,0,0,0,0,0,0,0,0,0,0,0,0,0,0,0,0,0,0,0,0,0,0,0,0,0,0,0,0,0,0,0,
0,0,0,0,0,0,0,0,0,0,0,0,0,0,0,0,0,0,0,0,0,0,0,0,3369,0,0,0,0,0,0,0,0,0,0,0,0,0,0,0,0,0,0,0,0,0,0,0,0,0,
0,0,0,0,0,0,0,0,0,0,0,0,0,0,0,0,0,0,0,0,0,0,0,0,3385,0,0,0,0,0,0,0,0,0,0,0,0,0,0,0,0,0,0,0,0,0,0,0,0,0,
0,0,0,0,0,0,0,0,0,0,0,0,0,0,0,0,0,0,0,0,0,0,0,0,0,0,0,0,0,0,0,0,0,0,0,0,0,0,0,0,0,0,0,0,0,0,0,0,0,0,
0,0,0,0,0,0,0,0,0,0,0,0,0,0,0,0,0,0,0,0,0,0,0,0,0,0,0,0,0,0,0,0,0,0,0,0,0,0,0,0,0,0,0,0,0,0,0,0,0,0,
0,0,0,0,0,0,0,0,0,0,0,0,0,0,0,0,0,0,0,0,0,0,0,0,0,0,0,0,0,0,0,0,0,0,0,0,0,0,0,0,0,0,0,0,0,0,0,0,0,0,
0,0,0,0,0,0,0,0,0,0,0,0,0,0,0,0,0,0,0,0,0,0,0,0,0,0,0,0,0,3369,0,0,0,0,0,0,0,0,0,0,0,0,0,0,0,0,0,0,0,0,
0,0,0,0,0,0,0,0,0,0,0,0,0,0,0,0,0,0,0,0,0,0,0,0,0,0,0,0,0,3385,0,0,0,0,0,0,0,0,0,0,0,0,0,0,0,0,0,0,0,0,
0,0,0,0,0,0,0,0,0,0,0,0,0,0,0,0,0,0,0,0,0,0,0,0,0,0,0,0,0,0,0,0,0,0,0,0,0,0,0,0,0,0,0,0,0,0,0,0,0,0,
0,0,0,0,0,0,0,0,0,0,0,0,0,0,0,0,0,0,0,0,0,0,0,0,0,0,0,0,0,0,0,0,0,0,0,0,0,0,0,0,0,0,0,0,0,0,0,0,0,0,
0,0,0,0,0,0,0,0,0,0,0,0,0,0,0,0,0,0,0,0,0,0,0,0,0,0,0,0,0,0,0,0,0,0,0,0,0,0,0,0,0,0,0,0,0,0,0,0,0,0,
0,0,0,0,0,0,0,0,0,0,0,0,0,0,0,0,0,0,0,0,0,0,0,0,0,0,155,156,0,0,0,0,0,0,0,0,0,0,0,0,0,0,0,0,0,0,0,0,0,0,
0,0,0,0,0,0,0,0,0,0,0,0,0,0,0,0,0,0,0,0,0,0,0,0,0,0,0,0,0,0,0,0,0,0,0,0,0,0,0,0,0,0,0,0,0,0,0,0,0,0,
0,0,0,0,0,0,0,0,0,0,0,0,0,0,0,0,0,0,0,0,0,0,0,0,0,0,0,0,0,0,0,0,0,0,0,0,0,0,0,0,0,0,0,0,0,0,0,0,0,0,
0,0,0,0,0,0,0,0,0,0,0,0,0,0,0,0,0,0,0,0,0,0,0,0,0,0,0,0,0,0,0,0,0,0,0,0,0,0,0,0,0,0,0,0,0,0,0,0,0,0,
0,0,0,0,0,0,0,0,0,0,0,0,0,0,0,0,0,0,0,0,0,0,0,0,0,0,0,0,0,0,155,156,0,0,0,0,0,0,0,0,0,0,0,0,0,0,0,0,0,0,
0,0,0,0,0,0,0,0,0,0,0,0,0,0,3369,0,0,0,0,0,0,0,0,0,0,0,0,3369,0,0,0,0,0,0,0,0,0,0,0,0,0,0,0,0,0,0,0,0,0,0,
0,0,0,0,0,0,0,0,0,0,0,0,0,0,3385,0,0,0,0,0,0,0,0,0,0,0,0,3385,0,0,0,0,0,0,0,0,0,0,0,0,0,0,0,0,0,0,0,0,0,0,
0,0,0,0,0,0,0,0,0,0,0,0,0,0,0,0,0,0,0,0,0,0,0,0,0,0,0,0,0,0,0,0,0,0,0,0,0,0,0,0,0,0,0,0,0,0,0,0,0,0,
0,0,0,0,0,0,0,0,0,0,0,0,0,0,0,0,0,0,0,0,0,0,0,0,0,0,0,0,0,0,0,0,0,0,0,0,0,0,0,0,0,0,0,0,0,0,0,0,0,0,
0,0,0,0,0,0,0,0,0,0,0,0,0,44,0,0,0,0,0,0,0,0,0,0,0,0,0,0,0,0,0,0,0,0,0,0,0,0,0,0,0,0,0,0,0,0,0,0,0,0,
0,0,0,0,0,0,0,0,0,0,0,0,0,0,0,0,0,0,0,0,0,0,0,0,0,0,0,0,0,0,0,0,0,0,0,0,0,0,0,0,0,0,0,0,0,0,0,0,0,0,
0,0,0,0,0,0,0,0,0,0,0,0,0,0,0,0,0,0,0,0,0,0,0,0,0,0,0,0,0,0,0,0,0,0,0,0,0,0,0,0,0,0,0,0,0,0,0,0,0,0,
0,0,0,0,0,0,0,0,0,0,0,0,0,0,0,0,0,0,0,0,0,0,0,0,0,0,0,0,0,0,0,0,0,0,0,0,0,0,0,0,0,0,0,0,0,0,0,0,0,0,
0,0,0,0,0,0,0,0,0,0,0,0,0,0,0,0,0,0,0,0,0,0,0,0,0,0,0,0,0,0,0,0,0,0,0,0,0,0,0,0,0,0,0,0,0,0,0,0,0,0,
0,0,0,0,0,0,0,0,0,0,0,0,0,0,0,0,0,0,0,0,0,0,0,0,0,0,0,0,0,0,0,0,0,0,0,0,0,0,0,0,0,0,0,0,0,0,0,0,0,0,
0,0,0,0,0,0,0,0,0,0,0,0,0,0,0,0,0,0,0,0,0,0,0,0,0,0,0,0,0,0,0,0,0,0,0,0,0,0,0,0,0,0,0,0,0,0,0,0,0,0,
0,0,0,0,0,0,0,0,0,0,0,0,0,0,0,0,0,0,0,0,0,0,0,0,0,0,0,0,0,0,0,0,0,0,0,0,0,0,0,0,0,0,0,0,0,0,0,0,0,0,
0,0,0,0,0,0,0,0,0,0,0,0,0,0,0,0,0,0,0,0,0,0,0,0,0,0,0,0,0,0,0,0,0,0,0,0,0,0,0,0,0,0,0,0,0,0,0,0,0,0,
0,0,0,0,0,0,0,0,0,0,0,0,0,0,0,0,0,0,0,0,0,0,0,0,0,0,0,0,0,0,0,0,0,0,0,0,0,0,0,0,0,0,0,0,0,0,0,0,0,0,
0,0,0,0,0,0,0,0,0,0,0,0,0,0,0,0,0,0,0,0,0,0,0,0,0,0,0,0,0,0,0,0,0,0,0,0,0,0,0,0,0,0,0,0,0,0,0,0,0,0,
0,0,0,0,0,0,0,0,0,0,0,0,0,0,0,0,0,0,0,0,0,0,0,0,0,0,0,0,0,0,0,0,0,0,0,0,0,0,0,0,0,0,0,0,0,0,0,0,0,0,
0,0,0,0,0,0,0,0,0,0,0,0,0,0,0,0,0,0,0,0,0,0,0,0,0,0,0,0,0,0,0,0,0,0,0,0,0,0,0,0,0,0,0,0,0,0,0,0,0,0,
0,0,0,0,0,0,0,0,0,0,0,0,0,0,0,0,0,0,0,0,0,0,0,0,0,0,0,0,0,0,0,0,0,0,0,0,0,0,0,0,0,0,0,0,0,0,0,0,0,0,
0,0,0,0,0,0,0,0,0,0,0,0,0,0,0,0,0,0,0,0,0,0,0,0,0,0,0,0,0,0,0,0,0,0,0,0,0,0,0,0,0,0,0,0,0,0,0,0,0,0,
0,0,0,0,0,0,0,0,0,0,0,0,0,0,0,0,0,0,0,0,0,0,0,0,0,0,0,0,0,0,0,0,0,0,0,0,0,0,0,0,0,0,0,0,0,0,0,0,0,0
</data>
 </layer>
 <group id="7" name="Layer2"/>
 <layer id="9" name="tree3" width="50" height="60">
  <data encoding="csv">
57,58,57,58,57,58,57,58,57,58,57,58,57,58,57,58,57,58,57,58,57,58,57,58,57,58,57,58,57,58,57,58,57,58,0,0,0,0,0,0,0,0,0,0,0,0,0,0,0,0,
58,57,58,57,58,57,58,57,58,57,58,57,58,57,58,57,58,57,58,57,58,57,58,57,58,57,58,57,58,57,58,57,58,0,0,0,0,0,0,0,0,0,0,0,0,0,0,0,0,0,
57,58,57,58,57,58,57,58,57,58,57,58,57,58,57,58,57,58,57,58,57,58,57,58,57,58,57,58,57,58,57,58,57,58,0,0,0,0,0,0,0,0,0,0,0,0,0,0,0,0,
58,57,58,57,58,57,58,57,58,57,58,57,58,57,58,57,58,57,58,57,58,57,58,57,58,57,58,57,58,57,58,57,58,0,0,0,0,0,0,0,0,0,0,0,0,0,0,0,0,0,
57,58,57,58,57,58,57,58,57,58,57,58,57,58,57,58,57,58,57,58,57,58,57,58,57,58,57,58,57,58,57,58,57,58,0,0,0,0,0,0,0,0,0,0,0,0,0,0,0,0,
58,57,58,57,58,57,58,57,58,57,58,57,58,57,58,57,58,57,58,57,58,57,58,57,58,57,58,57,58,57,58,57,58,0,0,0,0,0,0,0,0,0,0,0,0,0,0,0,0,0,
57,58,57,58,57,58,57,58,57,58,57,58,57,58,57,58,57,58,57,58,57,58,57,58,57,58,57,58,57,58,57,58,57,58,0,0,0,0,0,0,0,0,0,0,0,0,0,0,0,0,
58,57,58,57,58,57,58,57,58,57,58,57,58,57,58,57,58,57,58,57,58,57,58,57,58,57,58,57,58,57,58,57,58,0,0,0,0,0,0,0,0,0,0,0,0,0,0,0,0,0,
58,57,58,57,58,57,58,57,58,57,58,57,58,57,58,57,58,57,58,57,58,57,58,0,0,0,57,58,57,58,57,58,57,58,0,0,0,0,0,0,0,0,0,0,0,0,0,0,0,0,
57,58,57,58,57,58,57,58,57,58,57,58,57,58,57,58,57,58,57,58,57,58,57,58,57,58,0,57,58,57,58,57,58,0,0,0,0,0,0,0,0,0,0,0,0,0,0,0,0,0,
58,57,58,57,58,57,58,57,58,57,58,57,58,57,58,57,58,57,58,57,58,57,58,57,58,57,58,0,57,58,57,58,57,58,0,0,0,57,58,57,58,57,58,57,58,57,58,57,58,57,
57,58,57,58,57,58,57,58,57,58,57,58,57,58,57,58,407,408,57,58,145,146,57,58,0,380,381,57,58,57,58,57,58,0,0,0,0,0,57,58,57,58,57,58,57,58,57,58,57,58,
58,57,58,57,58,57,58,57,58,57,58,57,58,57,58,57,58,57,58,57,58,57,58,0,0,0,0,0,0,0,57,58,57,58,0,0,0,57,58,57,58,57,58,57,58,57,58,57,58,57,
57,58,57,58,57,58,57,58,57,58,57,58,57,58,57,58,57,58,57,58,57,58,0,0,0,0,0,0,0,57,58,57,58,0,0,0,0,0,57,58,57,58,57,58,57,58,57,58,57,58,
58,57,58,57,58,57,58,57,58,57,58,57,58,57,58,145,146,57,58,57,58,57,58,0,0,0,0,0,0,0,57,58,0,0,0,0,0,0,0,57,58,57,58,57,58,57,58,57,58,57,
57,58,57,58,57,58,57,58,57,58,57,58,57,58,57,58,57,58,57,58,147,148,0,0,0,0,0,0,0,57,58,431,432,0,0,0,0,0,57,58,57,58,57,58,57,58,57,58,57,58,
58,57,58,57,58,57,58,57,58,57,58,57,58,57,58,57,58,57,58,57,58,404,405,0,0,0,0,0,0,0,57,58,0,0,0,0,0,0,0,57,58,57,58,57,58,57,58,57,58,57,
57,58,57,58,57,58,57,58,57,58,57,58,57,58,0,0,0,0,0,0,0,0,0,0,0,0,0,0,0,0,0,0,0,0,0,0,0,0,57,58,57,58,57,58,57,58,57,58,57,58,
58,57,58,57,58,57,58,57,58,57,58,57,58,57,58,0,0,0,0,0,0,0,401,402,403,0,0,0,0,0,0,0,0,0,0,0,0,0,0,57,58,57,58,57,58,57,58,57,58,57,
57,58,57,58,57,58,57,58,57,58,57,58,57,58,0,0,0,0,57,58,57,58,409,410,411,0,0,0,0,57,58,57,58,0,0,0,0,0,57,58,431,432,0,0,0,0,0,0,0,0,
58,57,58,57,58,57,58,57,58,57,58,57,58,57,58,0,0,0,0,57,58,57,58,57,58,0,0,0,57,58,57,58,0,0,0,0,0,0,0,145,146,0,57,58,57,58,57,58,57,58,
57,58,57,58,57,58,57,58,57,58,57,58,57,58,0,0,0,0,57,58,147,148,57,58,0,0,0,0,0,147,148,57,58,0,0,0,0,0,0,57,58,57,58,57,58,57,58,57,58,57,
58,57,58,57,58,57,58,57,58,57,58,57,58,57,58,0,0,0,0,57,58,57,58,57,58,0,0,0,57,58,57,58,0,0,0,0,0,407,408,0,57,58,57,58,0,0,57,58,57,58,
57,58,57,58,57,58,57,58,57,58,0,0,0,0,0,0,0,0,433,434,435,0,0,428,429,430,0,0,0,57,58,57,58,0,0,0,0,0,433,434,435,0,0,0,147,148,0,57,58,0,
58,57,58,57,58,57,58,57,58,57,58,0,0,0,0,0,0,0,441,442,443,57,58,436,437,438,0,0,0,0,57,58,0,0,0,0,0,0,441,442,443,145,146,0,401,402,403,0,57,58,
57,58,57,58,57,58,57,58,57,58,0,0,0,0,145,146,57,58,57,58,57,58,57,58,0,0,0,0,0,57,58,145,146,0,0,0,0,0,0,0,0,0,145,146,409,410,411,0,0,0,
58,57,58,57,58,57,58,57,58,57,58,0,0,57,58,57,58,431,432,0,0,57,58,0,0,0,0,0,0,0,57,58,0,0,0,0,0,0,0,0,0,57,58,57,58,57,58,57,58,57,
57,58,57,58,57,58,57,58,57,58,0,0,0,0,57,58,57,58,57,58,57,58,57,58,0,0,0,0,0,57,58,57,58,0,0,0,0,0,0,0,57,58,0,0,0,0,0,0,57,58,
58,57,58,57,58,57,58,57,58,57,58,0,0,57,58,145,146,0,428,429,430,0,0,401,402,403,0,0,433,434,435,0,57,58,0,0,0,0,0,0,0,0,0,0,0,0,0,57,58,57,
57,58,57,58,57,58,57,58,57,58,37,0,0,0,57,58,57,58,436,437,438,57,58,409,410,411,57,58,441,442,443,57,58,0,0,0,0,0,0,0,0,0,0,0,0,0,0,0,57,58,
58,57,58,57,58,57,58,57,58,57,58,0,0,0,0,0,0,0,0,0,0,0,0,0,0,404,405,0,0,0,0,0,0,0,0,0,0,0,0,0,0,0,0,0,0,0,0,57,58,57,
57,58,57,58,57,58,57,58,57,58,0,0,0,0,0,0,0,0,0,0,0,0,0,0,0,0,0,0,0,0,0,0,0,0,145,146,0,0,0,0,0,0,0,0,0,0,0,0,57,58,
58,57,58,57,58,57,58,145,146,0,0,0,0,0,0,0,0,0,0,0,0,0,0,0,0,0,0,0,0,0,0,0,0,0,0,0,0,57,58,0,0,0,0,0,0,0,0,57,58,57,
57,58,57,58,57,58,57,58,57,58,0,0,0,0,0,0,0,0,0,0,0,0,0,0,0,0,0,0,0,0,0,0,0,0,0,0,0,0,0,0,0,0,0,0,0,0,0,0,57,58,
58,57,58,57,58,57,58,57,58,0,0,0,0,145,146,431,432,57,58,57,58,57,58,57,58,0,147,148,57,58,407,408,0,0,0,0,0,0,0,145,146,57,58,0,0,0,0,57,58,57,
147,148,0,428,429,430,57,58,57,58,0,0,57,58,57,58,57,58,57,58,145,146,57,58,57,58,0,57,58,57,58,0,0,0,0,0,0,0,0,0,57,58,147,148,0,0,0,0,57,58,
58,57,58,436,437,438,0,0,0,0,0,0,0,57,58,57,58,57,58,57,58,57,58,57,58,0,57,58,57,58,57,58,0,0,0,0,0,0,0,145,146,57,58,0,0,0,0,57,58,57,
57,58,57,58,57,58,57,58,0,0,0,0,57,58,57,58,145,146,57,58,57,58,57,58,0,59,60,145,146,57,58,57,58,145,146,0,0,0,0,0,57,58,57,58,0,0,0,0,57,58,
58,407,408,57,58,57,58,0,0,0,57,58,0,401,402,403,0,57,58,0,433,434,435,57,58,0,428,429,430,0,147,148,57,58,0,0,0,0,0,57,58,0,0,0,0,0,0,57,58,57,
57,58,57,58,145,146,0,0,0,0,0,57,58,409,410,411,57,58,147,148,441,442,443,0,57,58,436,437,438,57,58,57,58,145,146,0,0,0,0,0,0,0,0,0,0,0,0,0,57,58,
58,57,58,57,58,57,58,0,0,0,57,58,59,60,0,0,0,57,58,57,58,57,58,145,146,57,58,0,57,58,57,58,57,58,0,0,0,0,0,145,146,0,0,0,0,0,0,57,58,57,
57,58,57,58,57,58,0,0,0,0,0,382,383,0,0,0,0,0,0,0,57,58,57,58,57,58,0,0,0,0,0,57,58,0,0,0,0,0,0,0,0,0,0,0,0,0,0,0,57,58,
58,57,58,431,432,57,58,0,0,0,57,58,57,58,0,0,0,0,0,57,58,59,60,57,58,147,148,0,0,0,0,0,0,0,0,0,0,0,0,0,0,0,0,0,0,0,0,57,58,57,
0,0,0,0,0,0,0,0,0,0,0,57,58,0,0,0,0,0,0,0,145,146,57,58,57,58,0,0,0,0,0,0,0,0,0,0,0,0,0,0,0,0,0,0,57,58,57,58,57,58,
0,0,0,0,0,0,0,0,0,0,57,58,0,0,0,0,0,0,0,57,58,57,58,431,432,57,58,0,0,0,0,0,0,0,0,0,0,0,0,0,0,0,0,0,0,57,58,57,58,57,
0,0,0,0,0,0,0,0,0,0,0,0,0,0,0,0,0,0,57,58,57,58,57,58,0,0,0,0,0,0,0,0,0,0,0,0,0,0,0,0,0,0,0,0,0,0,57,58,57,58,
0,0,0,0,0,0,0,0,0,0,0,0,0,0,0,0,0,0,0,0,0,0,0,0,0,0,0,0,0,0,0,57,58,57,58,57,58,57,58,150,0,0,0,0,0,57,58,57,58,57,
0,0,0,0,0,0,0,0,0,0,0,0,0,0,0,0,147,148,0,0,0,0,0,0,0,0,0,0,0,0,0,149,57,58,57,58,57,58,57,58,0,0,0,0,0,0,57,58,57,58,
0,0,0,0,0,0,0,0,0,0,0,0,0,57,58,57,58,59,60,0,0,0,0,0,0,0,0,0,0,0,0,0,0,0,0,0,0,0,0,0,0,0,0,0,0,57,58,57,58,57,
0,0,0,0,0,0,0,0,0,0,0,0,145,146,59,60,57,58,0,0,0,0,0,0,0,0,0,0,0,0,0,0,0,0,0,0,0,0,0,0,0,0,0,0,0,0,57,58,57,58,
147,148,0,0,0,0,0,0,0,0,0,0,0,0,0,0,0,0,0,0,0,0,0,57,58,57,58,0,0,0,0,0,0,0,0,0,0,0,0,0,0,0,0,0,0,57,58,57,58,57,
0,0,401,402,403,0,0,0,0,0,0,0,0,0,0,0,0,0,0,0,0,0,57,58,57,58,57,58,57,58,57,58,0,0,0,0,0,0,0,0,0,0,0,0,0,0,57,58,57,58,
57,58,409,410,411,0,0,0,0,0,0,0,0,0,0,0,0,0,0,0,0,0,0,57,58,57,58,57,58,57,58,57,58,57,58,0,0,0,0,0,0,0,0,0,0,57,58,57,58,57,
0,0,57,58,0,0,0,0,0,0,0,0,0,0,147,148,57,58,57,58,57,58,57,58,57,58,57,58,57,58,57,58,57,58,57,58,57,58,57,58,57,58,57,58,57,58,57,58,57,58,
58,57,58,57,58,57,58,57,58,57,58,57,58,57,58,57,58,0,0,57,58,57,58,57,58,57,58,57,58,57,58,57,58,57,58,57,58,57,58,57,58,57,58,57,58,57,58,57,58,57,
57,58,57,58,57,58,57,58,57,58,57,58,57,58,57,58,57,58,57,58,57,58,57,58,57,58,57,58,57,58,57,58,57,58,57,58,57,58,57,58,57,58,57,58,57,58,57,58,57,58,
58,57,58,57,58,57,58,57,58,57,58,57,58,57,58,57,58,57,58,57,58,57,58,57,58,57,58,57,58,57,58,57,58,57,58,57,58,57,58,57,58,57,58,57,58,57,58,57,58,57,
57,58,57,58,57,58,57,58,57,58,57,58,57,58,57,58,57,58,57,58,57,58,57,58,57,58,57,58,57,58,57,58,57,58,57,58,57,58,57,58,57,58,57,58,57,58,57,58,57,58,
58,57,58,57,58,57,58,57,58,57,58,57,58,57,58,57,58,57,58,57,58,57,58,57,58,57,58,57,58,57,58,57,58,57,58,57,58,57,58,57,58,57,58,57,58,57,58,57,58,57,
57,58,57,58,57,58,57,58,57,58,57,58,57,58,57,58,57,58,57,58,57,58,57,58,57,58,57,58,57,58,57,58,57,58,57,58,57,58,57,58,57,58,57,58,57,58,57,58,57,58
</data>
 </layer>
 <group id="8" name="Layer3"/>
 <layer id="12" name="systemtags" width="50" height="60" visible="0">
  <data encoding="csv">
0,0,0,0,0,0,0,0,0,0,0,0,0,0,0,0,0,0,0,0,0,0,0,0,0,0,0,0,0,0,0,0,0,0,0,0,0,0,0,0,0,0,0,0,0,0,0,0,0,0,
0,0,0,0,0,0,0,0,0,0,0,0,0,0,0,0,0,0,0,0,0,0,0,0,0,0,0,0,0,0,0,0,0,0,0,0,0,0,0,0,0,0,0,0,0,0,0,0,0,0,
0,0,0,0,0,0,0,0,0,0,0,0,0,0,0,0,0,0,0,0,0,0,0,0,0,0,0,0,0,0,0,0,0,0,0,0,0,0,0,0,0,0,0,0,0,0,0,0,0,0,
0,0,0,0,0,0,0,0,0,0,0,0,0,0,0,0,0,0,0,0,0,0,0,0,0,0,0,0,0,0,0,0,0,0,0,0,0,0,0,0,0,0,0,0,0,0,0,0,0,0,
0,0,0,0,0,0,0,0,0,0,0,0,0,0,0,0,0,0,0,0,0,0,0,0,0,0,0,0,0,0,0,0,0,0,0,0,0,0,0,0,0,0,0,0,0,0,0,0,0,0,
0,0,0,0,0,0,0,0,0,0,0,0,0,0,0,0,0,0,0,0,0,0,0,0,0,0,0,0,0,0,0,0,0,0,0,0,0,0,0,0,0,0,0,0,0,0,0,0,0,0,
0,0,0,0,0,0,0,0,0,0,0,0,0,0,0,0,0,0,0,0,0,0,0,0,0,0,0,0,0,0,0,0,0,0,0,0,0,0,0,0,0,0,0,0,0,0,0,0,0,0,
0,0,0,0,0,0,0,0,0,0,0,0,0,0,0,0,0,0,0,0,0,0,0,0,0,0,0,0,0,0,0,0,0,0,0,0,0,0,0,0,0,0,0,0,0,0,0,0,0,0,
0,0,0,0,0,0,0,0,0,0,0,0,0,0,0,0,0,0,0,0,0,0,0,0,0,0,0,0,0,0,0,0,0,0,0,0,0,0,0,0,0,0,0,0,0,0,0,0,0,0,
0,0,0,0,0,0,0,0,0,0,0,0,0,0,0,0,0,0,0,0,0,0,0,0,0,0,0,0,0,0,0,0,0,0,0,0,0,0,0,0,0,0,0,0,0,0,0,0,0,0,
0,0,0,0,0,0,0,0,0,0,0,0,0,0,0,0,0,0,0,0,0,0,0,0,0,0,0,0,0,0,0,0,0,0,0,0,0,0,0,0,0,0,0,0,0,0,0,0,0,0,
0,0,0,0,0,0,0,0,0,0,0,0,0,0,0,0,0,0,0,0,0,0,0,0,0,0,0,0,0,0,0,0,0,0,0,0,0,0,0,0,0,0,0,0,0,0,0,0,0,0,
0,0,0,0,0,0,0,0,0,0,0,0,0,0,0,0,0,0,0,0,0,0,0,0,0,0,0,0,0,0,0,0,0,0,0,0,0,0,0,0,0,0,0,0,0,0,0,0,0,0,
0,0,0,0,0,0,0,0,0,0,0,0,0,0,0,0,0,0,0,0,0,0,0,0,0,0,0,0,0,0,0,0,0,0,0,0,0,0,0,0,0,0,0,0,0,0,0,0,0,0,
0,0,0,0,0,0,0,0,0,0,0,0,0,0,0,0,0,0,0,0,0,0,0,0,0,0,0,0,0,0,0,0,0,0,0,0,0,0,0,0,0,0,0,0,0,0,0,0,0,0,
0,0,0,0,0,0,0,0,0,0,0,0,0,0,0,0,0,0,0,0,0,0,0,0,0,0,0,0,0,0,0,0,0,0,0,0,0,0,0,0,0,0,0,0,0,0,0,0,0,0,
0,0,0,0,0,0,0,0,0,0,0,0,0,0,0,0,0,0,0,0,0,0,0,0,0,0,0,0,0,0,0,0,0,0,0,0,0,0,0,0,0,0,0,0,0,0,0,0,0,0,
0,0,0,0,0,0,0,0,0,0,0,0,0,0,0,0,0,0,0,0,0,0,0,0,0,0,0,0,0,0,0,0,0,0,0,0,0,0,0,0,0,0,0,0,0,0,0,0,0,0,
0,0,0,0,0,0,0,0,0,0,0,0,0,0,0,0,0,0,0,0,0,0,0,0,0,0,0,0,0,0,0,0,0,0,0,0,0,0,0,0,0,0,0,0,0,0,0,0,0,0,
0,0,0,0,0,0,0,0,0,0,0,0,0,0,0,0,0,0,0,0,0,0,0,0,0,0,0,0,0,0,0,0,0,0,0,0,0,0,0,0,0,0,0,0,0,0,0,0,0,0,
0,0,0,0,0,0,0,0,0,0,0,0,0,0,0,0,0,0,0,0,0,0,0,0,0,0,0,0,0,0,0,0,0,0,0,0,0,0,0,0,0,0,0,0,0,0,0,0,0,0,
0,0,0,0,0,0,0,0,0,0,0,0,0,0,0,0,0,0,0,0,0,0,0,0,0,0,0,0,0,0,0,0,0,0,0,0,0,0,0,0,0,0,0,0,0,0,0,0,0,0,
0,0,0,0,0,0,0,0,0,0,0,0,0,0,0,0,0,0,0,0,0,0,0,0,0,0,0,0,0,0,0,0,0,0,0,0,0,0,0,0,0,0,0,0,0,0,0,0,0,0,
0,0,0,0,0,0,0,0,0,0,0,0,0,0,0,0,0,0,0,0,0,0,0,0,0,0,0,0,0,0,0,0,0,0,0,0,0,0,0,0,0,0,0,0,0,0,0,0,0,0,
0,0,0,0,0,0,0,0,0,0,0,0,0,0,0,0,0,0,0,0,0,0,0,0,0,0,0,0,0,0,0,0,0,0,0,0,0,0,0,0,0,0,0,0,0,0,0,0,0,0,
0,0,0,0,0,0,0,0,0,0,0,0,0,0,0,0,0,0,0,0,0,0,0,0,0,0,0,0,0,0,0,0,0,0,0,0,0,0,0,0,0,0,0,0,0,0,0,0,0,0,
0,0,0,0,0,0,0,0,0,0,0,0,0,0,0,0,0,0,0,0,0,0,0,0,0,0,0,0,0,0,0,0,0,0,0,0,0,0,0,0,0,0,0,0,0,0,0,0,0,0,
0,0,0,0,0,0,0,0,0,0,0,0,0,0,0,0,0,0,0,0,0,0,0,0,0,0,0,0,0,0,0,0,0,0,0,0,0,0,0,0,0,0,0,0,0,0,0,0,0,0,
0,0,0,0,0,0,0,0,0,0,0,0,0,0,0,0,0,0,0,0,0,0,0,0,0,0,0,0,0,0,0,0,0,0,0,0,0,0,0,0,0,0,0,0,0,0,0,0,0,0,
0,0,0,0,0,0,0,0,0,0,0,0,0,0,0,0,0,0,0,0,0,0,0,0,0,0,0,0,0,0,0,0,0,0,0,0,0,0,0,0,0,0,0,0,0,0,0,0,0,0,
0,0,0,0,0,0,0,0,0,0,0,0,0,0,0,0,0,0,0,0,0,0,0,0,0,0,0,0,0,0,0,0,0,0,0,0,0,0,0,0,0,0,0,0,0,0,0,0,0,0,
0,0,0,0,0,0,0,0,0,0,0,0,0,0,0,0,0,0,0,0,0,0,0,0,0,0,0,0,0,0,0,0,0,0,0,0,0,0,0,0,0,0,0,0,0,0,0,0,0,0,
0,0,0,0,0,0,0,0,0,0,0,0,0,0,0,0,0,0,0,0,0,0,0,0,0,0,0,0,0,0,0,0,0,0,0,0,0,0,0,0,0,0,0,0,0,0,0,0,0,0,
0,0,0,0,0,0,0,0,0,0,0,0,0,0,0,0,0,0,0,0,0,0,0,0,0,0,0,0,0,0,0,0,0,0,0,0,0,0,0,0,0,0,0,0,0,0,0,0,0,0,
0,0,0,0,0,0,0,0,0,0,0,0,0,0,0,0,0,0,0,0,0,0,0,0,0,0,0,0,0,0,0,0,0,0,0,0,0,0,0,0,0,0,0,0,0,0,0,0,0,0,
0,0,0,0,0,0,0,0,0,0,0,0,0,0,0,0,0,0,0,0,0,0,0,0,0,0,0,0,0,0,0,0,0,0,0,0,0,0,0,0,0,0,0,0,0,0,0,0,0,0,
0,0,0,0,0,0,0,0,0,0,0,0,0,0,0,0,0,0,0,0,0,0,0,0,0,0,0,0,0,0,0,0,0,0,0,0,0,0,0,0,0,0,0,0,0,0,0,0,0,0,
0,0,0,0,0,0,0,0,0,0,0,0,0,0,0,0,0,0,0,0,0,0,0,0,0,0,0,0,0,0,0,0,0,0,0,0,0,0,0,0,0,0,0,0,0,0,0,0,0,0,
0,0,0,0,0,0,0,0,0,0,0,0,0,0,0,0,0,0,0,0,0,0,0,0,0,0,0,0,0,0,0,0,0,0,0,0,0,0,0,0,0,0,0,0,0,0,0,0,0,0,
0,0,0,0,0,0,0,0,0,0,0,0,0,0,0,0,0,0,0,0,0,0,0,0,0,0,0,0,0,0,0,0,0,0,0,0,0,0,0,0,0,0,0,0,0,0,0,0,0,0,
0,0,0,0,0,0,0,0,0,0,0,0,0,0,4212,0,0,0,0,0,0,0,0,0,0,0,0,4212,0,0,0,0,0,0,0,0,0,0,0,0,0,0,0,0,0,0,0,0,0,0,
0,0,0,0,0,0,0,0,0,0,0,0,0,0,4212,0,0,0,0,0,0,0,0,0,0,0,0,4212,0,0,0,0,0,0,0,0,0,0,0,0,0,0,0,0,0,0,0,0,0,0,
0,0,0,0,0,0,0,0,0,0,0,0,0,0,0,0,0,0,0,0,0,0,0,0,0,0,0,0,0,0,0,0,0,0,4182,4182,0,0,0,0,0,0,0,0,0,0,0,0,0,0,
0,0,0,0,0,0,0,0,0,0,0,0,0,0,0,0,0,0,0,0,0,0,0,0,0,0,0,0,0,0,0,0,0,0,4182,4182,4182,4182,0,0,0,0,0,0,0,0,0,0,0,0,
0,0,0,0,0,0,0,0,0,0,0,0,0,0,0,0,0,0,0,0,0,0,0,0,0,0,0,0,0,0,0,4182,4182,4182,4182,4182,4182,4182,4182,0,0,0,0,0,0,0,0,0,0,0,
0,0,0,0,0,0,0,0,0,0,0,0,0,0,0,0,0,0,0,0,0,0,0,0,0,0,0,0,0,0,0,4182,4182,4182,4182,4182,4182,4182,4182,0,0,0,0,0,0,0,0,0,0,0,
0,0,0,0,0,0,0,0,0,0,0,0,0,0,0,0,0,0,0,0,0,0,0,0,0,0,0,0,0,0,0,4182,4182,4182,4182,4182,4182,4182,4182,0,0,0,0,0,0,0,0,0,0,0,
0,0,0,0,0,0,0,0,0,0,0,0,0,0,0,0,0,0,0,0,0,0,0,0,0,0,0,0,0,0,0,0,0,0,0,0,0,0,0,0,0,0,0,0,0,0,0,0,0,0,
0,0,0,0,0,0,0,0,0,0,0,0,0,0,0,0,0,0,0,0,0,0,0,0,0,0,0,0,0,0,0,0,0,0,0,0,0,0,0,0,0,0,0,0,0,0,0,0,0,0,
0,0,0,0,0,0,0,0,0,0,0,0,0,0,0,0,0,0,0,0,0,0,0,0,0,0,0,0,0,0,0,0,0,0,0,0,0,0,0,0,0,0,0,0,0,0,0,0,0,0,
0,0,0,0,0,0,0,0,0,0,0,0,0,0,0,0,0,0,0,0,0,0,0,0,0,0,0,0,0,0,0,0,0,0,0,0,0,0,0,0,0,0,0,0,0,0,0,0,0,0,
0,0,0,0,0,0,0,0,0,0,0,0,0,0,0,0,0,0,0,0,0,0,0,0,0,0,0,0,0,0,0,0,0,0,0,0,0,0,0,0,0,0,0,0,0,0,0,0,0,0,
0,0,0,0,0,0,0,0,0,0,0,0,0,0,0,0,0,0,0,0,0,0,0,0,0,0,0,0,0,0,0,0,0,0,0,0,0,0,0,0,0,0,0,0,0,0,0,0,0,0,
0,0,0,0,0,0,0,0,0,0,0,0,0,0,0,0,0,0,0,0,0,0,0,0,0,0,0,0,0,0,0,0,0,0,0,0,0,0,0,0,0,0,0,0,0,0,0,0,0,0,
0,0,0,0,0,0,0,0,0,0,0,0,0,0,0,0,0,0,0,0,0,0,0,0,0,0,0,0,0,0,0,0,0,0,0,0,0,0,0,0,0,0,0,0,0,0,0,0,0,0,
0,0,0,0,0,0,0,0,0,0,0,0,0,0,0,0,0,0,0,0,0,0,0,0,0,0,0,0,0,0,0,0,0,0,0,0,0,0,0,0,0,0,0,0,0,0,0,0,0,0,
0,0,0,0,0,0,0,0,0,0,0,0,0,0,0,0,0,0,0,0,0,0,0,0,0,0,0,0,0,0,0,0,0,0,0,0,0,0,0,0,0,0,0,0,0,0,0,0,0,0,
0,0,0,0,0,0,0,0,0,0,0,0,0,0,0,0,0,0,0,0,0,0,0,0,0,0,0,0,0,0,0,0,0,0,0,0,0,0,0,0,0,0,0,0,0,0,0,0,0,0,
0,0,0,0,0,0,0,0,0,0,0,0,0,0,0,0,0,0,0,0,0,0,0,0,0,0,0,0,0,0,0,0,0,0,0,0,0,0,0,0,0,0,0,0,0,0,0,0,0,0,
0,0,0,0,0,0,0,0,0,0,0,0,0,0,0,0,0,0,0,0,0,0,0,0,0,0,0,0,0,0,0,0,0,0,0,0,0,0,0,0,0,0,0,0,0,0,0,0,0,0
</data>
 </layer>
 <layer id="11" name="passages" width="50" height="60">
  <data encoding="csv">
0,0,0,0,0,0,0,0,0,0,0,0,0,0,0,0,0,0,0,0,0,0,0,0,0,0,0,0,0,0,0,0,0,0,0,0,0,0,0,0,0,0,0,0,0,0,0,0,0,0,
0,0,0,0,0,0,0,0,0,0,0,0,0,0,0,0,0,0,0,0,0,0,0,0,0,0,0,0,0,0,0,0,0,0,0,0,0,0,0,0,0,0,0,0,0,0,0,0,0,0,
0,0,0,0,0,0,0,0,0,0,0,0,0,0,0,0,0,0,0,0,0,0,0,0,0,0,0,0,0,0,0,0,0,0,0,0,0,0,0,0,0,0,0,0,0,0,0,0,0,0,
0,0,0,0,0,0,0,0,0,0,0,0,0,0,0,0,0,0,0,0,0,0,0,0,0,0,0,0,0,0,0,0,0,0,0,0,0,0,0,0,0,0,0,0,0,0,0,0,0,0,
0,0,0,0,0,0,0,0,0,0,0,0,0,0,0,0,0,0,0,0,0,0,0,0,0,0,0,0,0,0,0,0,0,0,0,0,0,0,0,0,0,0,0,0,0,0,0,0,0,0,
0,0,0,0,0,0,0,0,0,0,0,0,0,0,0,0,0,0,0,0,0,0,0,0,0,0,0,0,0,0,0,0,0,0,0,0,0,0,0,0,0,0,0,0,0,0,0,0,0,0,
0,0,0,0,0,0,0,0,0,0,0,0,0,0,0,0,0,0,0,0,0,0,0,0,0,0,0,0,0,0,0,0,0,0,0,0,0,0,0,0,0,0,0,0,0,0,0,0,0,0,
0,0,0,0,0,0,0,0,0,0,0,0,0,0,0,0,0,0,0,0,0,0,0,0,0,0,0,0,0,0,0,0,0,0,0,0,0,0,0,0,0,0,0,0,0,0,0,0,0,0,
0,0,0,0,0,0,0,0,0,0,0,0,0,0,0,0,0,0,0,0,0,0,0,0,0,0,0,0,0,0,0,0,0,0,0,0,0,0,0,0,0,0,0,0,0,0,0,0,0,0,
0,0,0,0,0,0,0,0,0,0,0,0,0,0,0,0,0,0,0,0,0,0,0,0,0,0,0,0,0,0,0,0,0,0,0,0,0,0,0,0,0,0,0,0,0,0,0,0,0,0,
0,0,0,0,0,0,0,0,0,0,0,0,0,0,0,0,0,0,0,0,0,0,0,0,0,0,0,0,0,0,0,0,0,0,0,0,0,0,0,0,0,0,0,0,0,0,0,0,0,0,
0,0,0,0,0,0,0,0,0,0,0,0,0,0,0,0,0,0,0,0,0,0,0,0,0,0,0,0,0,0,0,0,0,0,0,0,0,0,0,0,0,0,0,0,0,0,0,0,0,0,
0,0,0,0,0,0,0,0,0,0,0,0,0,0,0,0,0,0,0,0,0,0,0,0,0,0,0,0,0,0,0,0,0,0,0,0,0,0,0,0,0,0,0,0,0,0,0,0,0,0,
0,0,0,0,0,0,0,0,0,0,0,0,0,0,0,0,0,0,0,0,0,0,0,4048,4048,4048,4048,4048,4048,0,0,0,0,0,0,0,0,0,0,0,0,0,0,0,0,0,0,0,0,0,
0,0,0,0,0,0,0,0,0,0,0,0,0,0,0,0,0,0,0,0,0,0,4048,0,0,0,0,0,0,4048,0,0,0,0,0,0,0,0,0,0,0,0,0,0,0,0,0,0,0,0,
0,0,0,0,0,0,0,0,0,0,0,0,0,0,0,0,0,0,0,0,0,0,4048,0,0,0,0,0,0,4048,0,0,0,0,0,0,0,0,0,0,0,0,0,0,0,0,0,0,0,0,
0,0,0,0,0,0,0,0,0,0,0,0,0,0,0,0,0,0,0,0,0,0,4048,0,0,0,0,0,0,4048,0,0,0,0,0,0,0,0,0,0,0,0,0,0,0,0,0,0,0,0,
0,0,0,0,0,0,0,0,0,0,0,0,0,0,0,0,0,0,0,0,0,4048,0,0,0,0,0,0,0,4048,0,0,0,0,0,0,0,0,0,0,0,0,0,0,0,0,0,0,0,0,
0,0,0,0,0,0,0,0,0,0,0,0,0,0,0,0,0,0,0,0,0,4048,4048,0,0,0,0,0,0,0,4048,0,0,0,0,0,0,0,0,0,0,0,0,0,0,0,0,0,0,0,
0,0,0,0,0,0,0,0,0,0,0,0,0,0,0,0,0,0,0,0,0,0,0,4048,4048,0,0,0,4048,4048,0,0,0,0,0,0,0,0,0,0,0,0,0,0,0,0,0,0,0,0,
0,0,0,0,0,0,0,0,0,0,0,0,0,0,0,0,0,0,0,0,0,0,0,0,4048,0,0,0,4048,0,0,0,0,0,0,0,0,0,0,0,0,0,0,0,0,0,0,0,0,0,
0,0,0,0,0,0,0,0,0,0,0,0,0,0,0,0,0,0,0,0,0,0,0,0,4048,0,0,0,4048,0,0,0,0,0,0,0,0,0,0,0,0,0,0,0,0,0,0,0,0,0,
0,0,0,0,0,0,0,0,0,0,0,0,0,0,0,0,0,0,0,0,0,0,0,0,4048,0,0,0,4048,0,0,0,0,0,0,0,0,0,0,0,0,0,0,0,0,0,0,0,0,0,
0,0,0,0,0,0,0,0,0,0,0,0,0,0,0,0,0,0,4048,4048,4048,0,0,4048,4048,0,0,0,4048,0,0,0,0,0,0,0,0,0,0,0,0,0,0,0,0,0,0,0,0,0,
0,0,0,0,0,0,0,0,0,0,0,0,0,0,0,0,0,4048,0,0,0,4048,4048,0,0,4045,0,0,4048,0,0,0,0,0,0,0,0,0,0,0,0,0,0,0,0,0,0,0,0,0,
0,0,0,0,0,0,0,0,0,0,0,0,0,0,0,0,0,0,4048,4048,4048,0,0,4048,0,4048,0,0,0,4048,0,0,0,0,0,0,0,0,0,0,0,0,0,0,0,0,0,0,0,0,
0,0,0,0,0,0,0,0,0,0,0,0,0,0,0,0,0,0,0,0,0,0,0,4048,0,4048,0,0,0,4048,0,0,0,0,0,0,0,0,0,0,0,0,0,0,0,0,0,0,0,0,
0,0,0,0,0,0,0,0,0,0,0,0,0,0,0,0,0,0,0,0,0,0,0,4048,0,0,0,0,0,4048,0,0,0,0,0,0,0,0,0,0,0,0,0,0,0,0,0,0,0,0,
0,0,0,0,0,0,0,0,0,0,0,0,0,0,0,0,0,0,4048,4048,4048,0,0,4048,0,0,0,0,0,4048,4048,0,0,0,0,0,0,0,0,0,0,0,0,0,0,0,0,0,0,0,
0,0,0,0,0,0,0,0,0,0,0,0,0,0,0,0,0,4048,0,0,0,4048,4048,0,4041,4045,4048,4048,4043,0,0,4048,0,0,0,0,0,0,0,0,0,0,0,0,0,0,0,0,0,0,
0,0,0,0,0,0,0,0,0,0,0,0,0,0,0,0,0,0,4048,4048,4048,0,0,4048,4048,4048,0,0,4048,0,4048,0,0,4048,0,0,0,0,0,0,0,0,0,0,0,0,0,0,0,0,
0,0,0,0,0,0,0,0,0,0,0,0,0,0,0,0,0,0,0,0,0,0,0,0,0,0,0,4048,4048,0,4048,4048,4048,0,4048,0,0,0,0,0,0,0,0,0,0,0,0,0,0,0,
0,0,0,0,0,0,0,0,0,0,0,0,0,0,0,0,0,0,0,0,0,0,0,0,0,4048,4048,0,0,0,0,0,0,0,4048,0,0,0,0,0,0,0,0,0,0,0,0,0,0,0,
0,0,0,0,0,0,0,0,0,0,0,0,0,0,0,0,0,0,0,0,0,0,0,0,4048,0,0,0,0,0,0,0,0,0,4048,4048,4048,0,0,0,0,0,0,0,0,0,0,0,0,0,
0,0,0,0,0,0,0,0,0,0,0,0,0,0,0,0,0,0,0,0,0,0,0,0,4048,0,0,0,0,0,0,0,0,0,0,4048,0,4048,4048,0,0,0,0,0,0,0,0,0,0,0,
0,0,0,0,0,0,0,0,0,0,0,0,0,0,0,0,0,0,0,0,0,0,0,0,4048,0,0,0,0,0,0,0,0,0,0,0,0,0,0,4048,0,0,0,0,0,0,0,0,0,0,
0,0,0,0,0,0,0,0,0,0,0,0,0,0,0,0,0,0,0,0,0,0,0,0,0,4048,4048,4048,4048,4048,0,0,0,0,0,0,0,0,0,4048,0,0,0,0,0,0,0,0,0,0,
0,0,0,0,0,0,0,0,0,0,0,0,0,0,0,0,0,0,0,0,0,0,0,0,0,0,0,0,0,0,4048,0,0,0,0,0,0,0,0,4048,0,0,0,0,0,0,0,0,0,0,
0,0,0,0,0,0,0,0,0,0,0,0,0,4048,4048,4048,0,0,0,0,4048,4048,4048,0,0,0,4048,4048,4048,0,0,4048,4048,0,0,0,0,0,0,4048,0,0,0,0,0,0,0,0,0,0,
0,0,0,0,0,0,0,0,0,0,0,0,4048,0,0,0,4048,0,0,4048,0,0,0,4048,0,4048,0,0,0,4048,0,0,0,4048,4048,0,0,0,0,4048,0,0,0,0,0,0,0,0,0,0,
0,0,0,0,0,0,0,0,0,0,0,0,0,4048,0,4048,0,0,0,0,4048,4048,4048,0,0,0,4048,0,4048,0,0,0,0,0,4048,0,0,0,0,4048,0,0,0,0,0,0,0,0,0,0,
0,0,0,0,0,0,0,0,0,0,0,0,0,4048,0,4048,4048,0,0,0,0,0,0,0,0,0,4048,0,4048,0,0,0,0,0,4048,0,0,0,0,4048,0,0,0,0,0,0,0,0,0,0,
0,0,0,0,0,0,0,0,0,0,0,0,0,4048,0,0,0,4048,4048,0,0,0,0,0,0,0,4048,0,4048,4048,4048,0,0,4048,0,0,0,0,0,4048,4048,0,0,0,0,0,0,0,0,0,
0,0,0,0,0,0,0,0,0,0,0,0,0,4048,0,0,0,0,0,4048,0,0,0,0,0,0,4048,0,0,0,0,4048,4048,4048,0,0,0,0,0,0,0,4048,0,0,0,0,0,0,0,0,
0,0,0,0,0,0,0,0,0,0,0,0,0,4048,0,0,0,0,0,4048,0,0,0,0,0,0,4048,0,0,0,0,0,0,0,0,0,0,0,0,0,4048,0,0,0,0,0,0,0,0,0,
0,0,0,0,0,0,0,0,0,0,0,0,0,4048,0,0,0,0,0,4048,0,0,0,0,0,0,4048,0,0,0,0,0,0,0,0,0,0,0,0,0,4048,0,0,0,0,0,0,0,0,0,
4048,4048,4048,4048,4048,4048,4048,4048,4048,4048,4048,4048,4048,0,0,0,0,0,4048,0,0,0,0,0,0,0,4048,0,0,0,0,0,0,0,0,0,0,0,0,0,4048,0,0,0,0,0,0,0,0,0,
0,0,0,0,0,0,0,0,0,0,0,0,0,0,0,0,0,0,4048,0,0,0,0,0,0,0,0,4048,4048,4048,4048,0,0,0,0,0,0,0,0,0,4048,0,0,0,0,0,0,0,0,0,
0,0,0,0,0,0,0,0,0,0,0,0,0,0,0,0,0,0,4048,0,0,0,0,0,0,0,0,0,0,0,0,4048,4048,4048,4048,4048,4048,4048,4048,4048,0,0,0,0,0,0,0,0,0,0,
0,0,0,0,0,0,0,0,0,0,0,0,0,0,0,0,4048,4048,0,0,0,0,0,0,0,0,0,0,0,0,0,0,0,0,0,0,0,0,0,0,0,0,0,0,0,0,0,0,0,0,
4048,4048,4048,4048,4048,4048,4048,4048,4048,4048,4048,4048,0,4048,4048,4048,0,0,0,0,0,0,0,0,0,0,0,0,0,0,0,0,0,0,0,0,0,0,0,0,0,0,0,0,0,0,0,0,0,0,
0,0,0,0,0,0,0,0,0,0,0,0,4048,0,0,0,0,0,0,0,0,0,0,0,0,0,0,0,0,0,0,0,0,0,0,0,0,0,0,0,0,0,0,0,0,0,0,0,0,0,
0,0,0,0,0,0,0,0,0,0,0,0,0,0,0,0,0,0,0,0,0,0,0,0,0,0,0,0,0,0,0,0,0,0,0,0,0,0,0,0,0,0,0,0,0,0,0,0,0,0,
0,0,0,0,0,0,0,0,0,0,0,0,0,0,0,0,0,0,0,0,0,0,0,0,0,0,0,0,0,0,0,0,0,0,0,0,0,0,0,0,0,0,0,0,0,0,0,0,0,0,
0,0,0,0,0,0,0,0,0,0,0,0,0,0,0,0,0,0,0,0,0,0,0,0,0,0,0,0,0,0,0,0,0,0,0,0,0,0,0,0,0,0,0,0,0,0,0,0,0,0,
0,0,0,0,0,0,0,0,0,0,0,0,0,0,0,0,0,0,0,0,0,0,0,0,0,0,0,0,0,0,0,0,0,0,0,0,0,0,0,0,0,0,0,0,0,0,0,0,0,0,
0,0,0,0,0,0,0,0,0,0,0,0,0,0,0,0,0,0,0,0,0,0,0,0,0,0,0,0,0,0,0,0,0,0,0,0,0,0,0,0,0,0,0,0,0,0,0,0,0,0,
0,0,0,0,0,0,0,0,0,0,0,0,0,0,0,0,0,0,0,0,0,0,0,0,0,0,0,0,0,0,0,0,0,0,0,0,0,0,0,0,0,0,0,0,0,0,0,0,0,0,
0,0,0,0,0,0,0,0,0,0,0,0,0,0,0,0,0,0,0,0,0,0,0,0,0,0,0,0,0,0,0,0,0,0,0,0,0,0,0,0,0,0,0,0,0,0,0,0,0,0,
0,0,0,0,0,0,0,0,0,0,0,0,0,0,0,0,0,0,0,0,0,0,0,0,0,0,0,0,0,0,0,0,0,0,0,0,0,0,0,0,0,0,0,0,0,0,0,0,0,0
</data>
 </layer>
 <group id="10" name="Infos"/>
</map>
