<?xml version="1.0" encoding="UTF-8"?>
<map version="1.10" tiledversion="1.11.0" orientation="orthogonal" renderorder="right-down" width="13" height="13" tilewidth="32" tileheight="32" infinite="0" nextlayerid="10" nextobjectid="1">
 <tileset firstgid="1" source="../Tilesets/sandy_indoor.tsx"/>
 <tileset firstgid="6849" source="../Tilesets/passages.tsx"/>
 <tileset firstgid="6993" source="../Tilesets/systemtags.tsx"/>
 <tileset firstgid="7122" source="../Tilesets/!TilesetInsideMain.tsx"/>
 <layer id="1" name="floor1" width="13" height="13">
  <data encoding="csv">
521,521,521,521,521,521,521,521,521,521,521,521,521,
521,10428,10428,10428,10428,10428,10428,10428,10428,10428,521,521,521,
521,10436,10436,10436,10436,10436,10436,10436,10436,10436,521,521,521,
521,9381,9382,9382,9382,9382,9382,9382,9382,9393,521,521,521,
521,9389,9373,9373,9373,9373,9373,9373,9373,9391,9382,9383,521,
521,9389,9373,9373,9373,9373,9373,9373,9373,9391,9373,9391,521,
521,9389,9373,9373,9373,9373,9373,9373,9373,9384,9382,9393,521,
521,9389,9373,9373,9373,9373,9373,9373,9373,9373,9373,9391,521,
521,9389,9373,9373,9373,9373,9373,9373,9373,9373,9373,9391,521,
521,9389,9373,9373,9373,9373,9373,9373,9373,9373,9373,9391,521,
521,9397,9398,9398,9398,9398,9398,9398,9398,9398,9398,9399,521,
521,521,521,521,521,521,521,521,521,521,521,521,521,
521,521,521,521,521,521,521,521,521,521,521,521,521
</data>
 </layer>
 <layer id="4" name="decoration1" width="13" height="13">
  <data encoding="csv">
0,0,0,0,0,0,0,0,0,0,0,0,0,
10430,0,0,0,9147,9148,9149,0,0,0,10426,0,0,
10438,7374,0,9154,9155,9156,9157,9158,0,7374,10434,0,0,
10438,7382,0,0,0,0,0,0,0,7382,10434,0,0,
10438,0,7386,7387,7388,0,7386,7387,7388,0,10442,10428,10431,
10438,0,9231,9232,9233,0,9231,9232,9233,0,10450,10436,10434,
10438,0,0,0,0,0,0,0,0,0,10457,7382,10434,
10438,9791,9792,9793,0,0,0,0,0,9214,7388,0,10434,
10438,9799,9800,9801,0,0,0,0,0,9222,7396,0,10434,
10438,9807,9808,9809,0,0,0,0,0,9230,7404,0,10434,
10438,7374,0,0,622,623,624,0,0,0,0,7374,10434,
0,0,0,0,630,631,632,0,0,0,0,0,0,
0,0,0,0,0,0,0,0,0,0,0,0,0
</data>
 </layer>
 <group id="2" name="Layer1"/>
 <layer id="5" name="decoration2" width="13" height="13">
  <data encoding="csv">
0,0,0,0,0,0,0,0,0,0,0,0,0,
0,0,10480,10481,0,0,0,0,0,0,0,0,0,
0,0,10488,10489,10191,10192,10193,10496,10497,0,0,0,0,
0,0,0,0,10199,10200,10201,10504,10505,0,0,0,0,
0,0,9239,9240,9241,0,9239,9240,9241,0,0,0,0,
0,0,0,0,0,0,0,0,0,0,0,7374,0,
0,0,0,0,0,0,0,0,0,0,0,0,0,
0,0,9742,0,0,0,0,0,0,0,0,10457,0,
0,0,9750,0,0,0,0,0,0,0,0,0,0,
0,0,0,0,0,0,0,0,0,0,0,0,0,
0,0,0,0,0,0,0,0,0,0,0,0,0,
0,0,0,0,0,0,0,0,0,0,0,0,0,
0,0,0,0,0,0,0,0,0,0,0,0,0
</data>
 </layer>
 <group id="9" name="Layer2"/>
 <layer id="7" name="systemtags" width="13" height="13" visible="0">
  <data encoding="csv">
6993,6993,6993,6993,6993,6993,6993,6993,6993,6993,6993,6993,6993,
6993,6993,6993,6993,6993,6993,6993,6993,6993,6993,6993,6993,6993,
6993,6993,6993,6993,6993,6993,6993,6993,6993,6993,6993,6993,6993,
6993,6993,6993,6993,6993,6993,6993,6993,6993,6993,6993,6993,6993,
6993,6993,6993,6993,6993,6993,6993,6993,6993,6993,6993,6993,6993,
6993,6993,6993,6993,6993,6993,6993,6993,6993,6993,6993,6993,6993,
6993,6993,6993,6993,6993,6993,6993,6993,6993,6993,6993,6993,6993,
6993,6993,6993,6993,6993,6993,6993,6993,6993,6993,6993,6993,6993,
6993,6993,6993,6993,6993,6993,6993,6993,6993,6993,6993,6993,6993,
6993,6993,6993,6993,6993,6993,6993,6993,6993,6993,6993,6993,6993,
6993,6993,6993,6993,6993,6993,6993,6993,6993,6993,6993,6993,6993,
6993,6993,6993,6993,6993,6993,6993,6993,6993,6993,6993,6993,6993,
6993,6993,6993,6993,6993,6993,6993,6993,6993,6993,6993,6993,6993
</data>
 </layer>
 <layer id="6" name="passages" width="13" height="13" visible="0">
  <data encoding="csv">
0,0,0,0,0,0,0,0,0,0,0,0,0,
0,0,0,0,0,0,0,0,0,0,0,0,0,
0,0,6864,6864,0,0,0,0,0,0,0,0,0,
0,6864,0,0,6864,6864,6864,6864,6864,6864,0,0,0,
6864,0,0,0,0,0,0,0,0,0,6864,0,0,
6864,0,6864,6864,6864,0,6864,6864,6864,0,6864,0,0,
6864,0,0,0,0,0,0,0,0,0,6864,0,0,
0,6864,6864,6864,0,0,0,0,0,6864,0,6864,0,
0,0,0,6864,0,0,0,0,0,6864,0,0,6864,
0,0,6864,6864,0,0,0,0,0,6864,0,0,6864,
0,6864,0,0,0,0,0,0,0,0,0,6864,0,
0,0,6864,6864,6864,6864,6864,6864,6864,6864,6864,0,0,
0,0,0,0,0,0,0,0,0,0,0,0,0
</data>
 </layer>
 <group id="3" name="Infos"/>
</map>
