<?xml version="1.0" encoding="UTF-8"?>
<map version="1.10" tiledversion="1.11.0" orientation="orthogonal" renderorder="right-down" width="31" height="29" tilewidth="32" tileheight="32" infinite="0" nextlayerid="9" nextobjectid="1">
 <tileset firstgid="1" source="../Tilesets/systemtags.tsx"/>
 <tileset firstgid="129" source="../Tilesets/!TilesetInsideMain.tsx"/>
 <tileset firstgid="3593" source="../Tilesets/passages.tsx"/>
 <tileset firstgid="3738" source="../Tilesets/!TilesetInsideMain.tsx"/>
 <layer id="1" name="floor1" width="31" height="29">
  <data encoding="csv">
3738,3738,3738,3738,3738,3738,3738,3738,3738,3738,3738,3738,3738,3738,3738,3738,3738,3738,3738,3738,3738,3738,3738,3738,3738,3738,3738,3738,3738,3738,3738,
3738,1882,1883,1883,1883,1883,1883,1883,1883,1884,3738,3738,3738,3738,3738,3738,3738,3738,3738,3738,3738,3434,3435,3435,3435,3435,3435,3435,3435,3436,3738,
3738,1890,1891,1891,1891,1891,1891,1891,1891,1892,3738,3738,3738,3738,3738,3738,3738,3738,3738,3738,3738,3442,3443,3443,3443,3443,3443,3443,3443,3444,3738,
3738,1579,1579,1580,1579,1579,1579,1579,1579,1580,3738,3738,3738,3738,3738,3738,3738,3738,3738,3738,3738,1580,1580,1580,1580,1580,1580,1580,1580,1580,3738,
3738,1579,1578,1578,1578,417,418,418,418,419,3738,3738,3738,3738,3738,3738,3738,3738,3738,3738,3738,670,670,670,670,671,1578,1578,1578,1578,3738,
3738,1579,1578,1578,1578,425,426,426,426,427,3738,3738,3738,3738,3738,3738,3738,3738,3738,3738,3738,678,678,678,678,679,1578,1578,1578,1578,3738,
3738,1579,1578,1578,1578,425,426,426,426,427,3738,3738,3738,3738,3738,3738,3738,3738,3738,3738,3738,678,678,678,678,679,1578,1578,1578,1578,3738,
3738,1579,1578,1578,1578,433,434,434,434,435,3738,3738,3738,3738,3738,3738,3738,3738,3738,3738,3738,686,686,686,686,687,1578,1578,1578,1578,3738,
3738,1579,1578,1578,1578,1578,1578,1578,1578,1578,3738,3738,3738,3738,3738,3738,3738,3738,3738,3738,3738,1578,1578,1578,1578,1578,1578,1578,1578,1578,3738,
3738,1579,1578,1578,1578,1578,1578,1578,1578,1578,3738,3738,3738,3738,3738,3738,3738,3738,3738,3738,3738,1578,1578,1578,1578,1578,1578,1578,1578,1578,3738,
3738,3738,3738,3738,3738,3738,3738,3738,3738,3738,3738,3738,3738,3738,3738,3738,3738,3738,3738,3738,3738,3738,3738,3738,3738,3738,3738,3738,3738,3738,3738,
3738,3738,3738,3738,3738,3738,3738,3738,3738,3738,3738,3738,3738,3738,3738,3738,3738,3738,3738,3738,3738,3738,3738,3738,3738,3738,3738,3738,3738,3738,3738,
3738,3738,3738,3738,3738,3738,3738,3738,3738,3738,3738,3738,3738,3738,3738,3738,3738,3738,3738,3738,3738,3738,3738,3738,3738,3738,3738,3738,3738,3738,3738,
3738,3738,3738,3738,3738,3738,3738,3738,3738,3738,3738,3738,3738,3738,3738,3738,3738,3738,3738,3738,3738,3738,3738,3738,3738,3738,3738,3738,3738,3738,3738,
3738,3738,3738,3738,3738,3738,3738,3738,3738,3738,3738,3738,3738,3738,3738,3738,3738,3738,3738,3738,3738,3738,3738,3738,3738,3738,3738,3738,3738,3738,3738,
3738,3738,3738,3738,3738,3738,3738,3738,3738,3738,3738,3738,3738,3738,3738,3738,3738,3738,3738,3738,3738,3738,3738,3738,3738,3738,3738,3738,3738,3738,3738,
3738,3738,3738,3738,3738,3738,3738,3738,3738,3738,3738,3738,3738,3738,3738,3738,3738,3738,3738,3738,3738,3738,3738,3738,3738,3738,3738,3738,3738,3738,3738,
3738,3738,3738,3738,3738,3738,3738,3738,3738,3738,3738,3738,3738,3738,3738,3738,3738,3738,3738,3738,3738,3738,3738,3738,3738,3738,3738,3738,3738,3738,3738,
3738,1882,1883,1883,1883,1883,1883,1883,1883,1884,3738,3738,3738,3738,3738,3738,3738,3738,3738,3738,3738,3434,3435,3435,3435,3435,3435,3435,3435,3436,3738,
3738,1890,1891,1891,1891,1891,1891,1891,1891,1892,3738,3738,3738,3738,3738,3738,3738,3738,3738,3738,3738,3442,3443,3443,3443,3443,3443,3443,3443,3444,3738,
3738,1579,1579,1580,1580,1580,1580,1580,1580,1580,3738,3738,3738,3738,3738,3738,3738,3738,3738,3738,3738,1579,1580,1580,1580,1580,1580,1580,1580,1580,3738,
3738,2543,2543,2543,2543,2544,1578,1578,1578,1578,3738,3738,3738,3738,3738,3738,3738,3738,3738,3738,3738,1579,1578,1578,1578,2729,2730,2730,2730,2730,3738,
3738,2551,2551,2551,2551,2552,1578,1578,1578,1578,3738,3738,3738,3738,3738,3738,3738,3738,3738,3738,3738,1579,1578,1578,1578,2737,2738,2738,2738,2738,3738,
3738,2551,2551,2551,2551,2552,1578,1578,1578,1578,3738,3738,3738,3738,3738,3738,3738,3738,3738,3738,3738,1579,1578,1578,1578,2737,2738,2738,2738,2738,3738,
3738,2559,2559,2559,2559,2560,1578,1578,1578,1578,3738,3738,3738,3738,3738,3738,3738,3738,3738,3738,3738,1579,1578,1578,1578,2745,2746,2746,2746,2746,3738,
3738,1579,1578,1578,1578,1578,1578,1578,1578,1578,3738,3738,3738,3738,3738,3738,3738,3738,3738,3738,3738,1579,1578,1578,1578,1578,1578,1578,1578,1578,3738,
3738,1579,1578,1578,1578,1578,1578,1578,1578,1578,3738,3738,3738,3738,3738,3738,3738,3738,3738,3738,3738,1579,1578,1578,1578,1578,1578,1578,1578,1578,3738,
3738,3738,3738,3738,3738,3738,3738,3738,3738,3738,3738,3738,3738,3738,3738,3738,3738,3738,3738,3738,3738,3738,3738,3738,3738,3738,3738,3738,3738,3738,3738,
3738,3738,3738,3738,3738,3738,3738,3738,3738,3738,3738,3738,3738,3738,3738,3738,3738,3738,3738,3738,3738,3738,3738,3738,3738,3738,3738,3738,3738,3738,3738
</data>
 </layer>
 <layer id="2" name="decorations1" width="31" height="29">
  <data encoding="csv">
0,0,0,0,0,0,0,0,0,0,0,0,0,0,0,0,0,0,0,0,0,0,0,0,0,0,0,0,0,0,0,
0,0,0,0,1562,0,380,0,0,0,0,0,0,0,0,0,0,0,0,0,0,0,1624,0,0,0,0,380,0,0,0,
0,0,0,1569,1570,0,388,0,1367,0,0,0,0,0,0,0,0,0,0,0,0,0,1632,415,416,383,3204,388,1988,0,0,
0,1907,0,0,0,0,0,0,1375,1899,0,0,0,0,0,0,0,0,0,0,0,3446,0,423,424,391,3212,0,1996,3445,0,
0,3337,3338,3339,0,0,0,0,0,1899,0,0,0,0,0,0,0,0,0,0,0,3446,0,0,0,0,0,3337,3338,3339,0,
0,3345,3346,3347,0,0,431,3468,3470,1899,0,0,0,0,0,0,0,0,0,0,0,3446,665,666,432,0,0,3345,3346,3347,0,
0,3353,3354,3355,0,0,432,3476,3478,1899,0,0,0,0,0,0,0,0,0,0,0,3446,673,674,431,0,0,3353,3354,3355,0,
0,1907,0,0,0,0,0,432,431,1899,0,0,0,0,0,0,0,0,0,0,0,3446,431,432,0,0,0,0,0,3445,0,
0,1907,0,0,0,0,0,0,0,1899,0,0,0,0,0,0,0,0,0,0,0,3446,0,0,0,0,0,0,0,3445,0,
0,1907,0,381,1461,1462,1463,381,0,1899,0,0,0,0,0,0,0,0,0,0,0,3446,0,382,1461,1462,1463,382,0,3445,0,
0,0,0,0,1469,1470,1471,0,0,0,0,0,0,0,0,0,0,0,0,0,0,0,0,0,1469,1470,1471,0,0,0,0,
0,0,0,0,0,0,0,0,0,0,0,0,0,0,0,0,0,0,0,0,0,0,0,0,0,0,0,0,0,0,0,
0,0,0,0,0,0,0,0,0,0,0,0,0,0,0,0,0,0,0,0,0,0,0,0,0,0,0,0,0,0,0,
0,0,0,0,0,0,0,0,0,0,0,0,0,0,0,0,0,0,0,0,0,0,0,0,0,0,0,0,0,0,0,
0,0,0,0,0,0,0,0,0,0,0,0,0,0,0,0,0,0,0,0,0,0,0,0,0,0,0,0,0,0,0,
0,0,0,0,0,0,0,0,0,0,0,0,0,0,0,0,0,0,0,0,0,0,0,0,0,0,0,0,0,0,0,
0,0,0,0,0,0,0,0,0,0,0,0,0,0,0,0,0,0,0,0,0,0,0,0,0,0,0,0,0,0,0,
0,0,0,0,0,0,0,0,0,0,0,0,0,0,0,0,0,0,0,0,0,0,0,0,0,0,0,0,0,0,0,
0,0,0,2877,2878,0,1941,1942,1943,0,0,0,0,0,0,0,0,0,0,0,0,0,1917,1919,0,0,0,0,0,0,0,
0,0,1964,1965,1966,3204,1949,1950,1951,0,0,0,0,0,0,0,0,0,0,0,0,0,1925,1927,3204,3497,3498,3499,0,0,0,
0,1907,1972,1973,1974,3212,1957,1958,1959,1899,0,0,0,0,0,0,0,0,0,0,0,3446,1933,1935,3212,3505,3506,3507,3456,3445,0,
0,1907,0,0,0,0,0,3337,3338,3339,0,0,0,0,0,0,0,0,0,0,0,3337,3338,3339,0,0,0,0,0,3445,0,
0,1907,3484,3486,431,0,0,3345,3346,3347,0,0,0,0,0,0,0,0,0,0,0,3345,3346,3347,0,0,432,1929,1931,3445,0,
0,1907,3492,3494,432,0,0,3353,3354,3355,0,0,0,0,0,0,0,0,0,0,0,3353,3354,3355,0,0,431,1945,1947,3445,0,
0,1907,432,431,0,0,0,0,0,1899,0,0,0,0,0,0,0,0,0,0,0,3446,0,0,0,0,0,431,432,3445,0,
0,1907,0,0,0,0,0,0,0,1899,0,0,0,0,0,0,0,0,0,0,0,3446,0,0,0,0,0,0,0,3445,0,
0,1907,0,384,1461,1462,1463,384,0,1899,0,0,0,0,0,0,0,0,0,0,0,3446,0,383,1461,1462,1463,383,0,3445,0,
0,0,0,0,1469,1470,1471,0,0,0,0,0,0,0,0,0,0,0,0,0,0,0,0,0,1469,1470,1471,0,0,0,0,
0,0,0,0,0,0,0,0,0,0,0,0,0,0,0,0,0,0,0,0,0,0,0,0,0,0,0,0,0,0,0
</data>
 </layer>
 <group id="7" name="Layer1"/>
 <layer id="3" name="decorations2" width="31" height="29">
  <data encoding="csv">
0,0,0,0,0,0,0,0,0,0,0,0,0,0,0,0,0,0,0,0,0,0,0,0,0,0,0,0,0,0,0,
0,0,0,1561,1562,0,0,0,0,0,0,0,0,0,0,0,0,0,0,0,0,0,0,380,0,0,0,0,0,0,0,
0,0,3204,1569,2120,3204,399,400,0,0,0,0,0,0,0,0,0,0,0,0,0,0,0,388,0,0,0,0,0,0,0,
0,0,3212,0,2128,3212,407,408,0,0,0,0,0,0,0,0,0,0,0,0,0,0,0,0,0,0,0,0,0,0,0,
0,1907,0,0,0,0,0,0,0,0,0,0,0,0,0,0,0,0,0,0,0,0,0,0,0,0,0,0,0,3445,0,
0,1907,0,0,0,0,0,3456,3432,0,0,0,0,0,0,0,0,0,0,0,0,0,0,0,0,0,0,0,0,3445,0,
0,1907,0,0,0,0,0,0,3440,0,0,0,0,0,0,0,0,0,0,0,0,0,0,0,0,0,0,0,0,3445,0,
0,0,0,0,0,0,0,0,0,0,0,0,0,0,0,0,0,0,0,0,0,0,0,0,0,0,0,0,0,0,0,
0,0,0,0,0,0,0,0,0,0,0,0,0,0,0,0,0,0,0,0,0,0,0,0,0,0,0,0,0,0,0,
0,0,0,0,0,0,0,0,0,0,0,0,0,0,0,0,0,0,0,0,0,0,0,0,0,0,0,0,0,0,0,
0,0,0,0,0,0,0,0,0,0,0,0,0,0,0,0,0,0,0,0,0,0,0,0,0,0,0,0,0,0,0,
0,0,0,0,0,0,0,0,0,0,0,0,0,0,0,0,0,0,0,0,0,0,0,0,0,0,0,0,0,0,0,
0,0,0,0,0,0,0,0,0,0,0,0,0,0,0,0,0,0,0,0,0,0,0,0,0,0,0,0,0,0,0,
0,0,0,0,0,0,0,0,0,0,0,0,0,0,0,0,0,0,0,0,0,0,0,0,0,0,0,0,0,0,0,
0,0,0,0,0,0,0,0,0,0,0,0,0,0,0,0,0,0,0,0,0,0,0,0,0,0,0,0,0,0,0,
0,0,0,0,0,0,0,0,0,0,0,0,0,0,0,0,0,0,0,0,0,0,0,0,0,0,0,0,0,0,0,
0,0,0,0,0,0,0,0,0,0,0,0,0,0,0,0,0,0,0,0,0,0,0,0,0,0,0,0,0,0,0,
0,0,0,0,0,0,0,0,0,0,0,0,0,0,0,0,0,0,0,0,0,0,0,0,0,0,0,0,0,0,0,
0,0,0,2877,2878,0,0,0,0,0,0,0,0,0,0,0,0,0,0,0,0,0,0,0,0,0,0,0,0,0,0,
0,0,0,2885,2886,0,0,0,0,0,0,0,0,0,0,0,0,0,0,0,0,0,0,0,0,0,0,0,0,0,0,
0,0,0,0,0,0,0,0,0,0,0,0,0,0,0,0,0,0,0,0,0,0,0,0,0,0,0,0,0,0,0,
0,0,0,0,0,0,0,0,0,1899,0,0,0,0,0,0,0,0,0,0,0,3446,0,0,0,0,0,0,0,0,0,
0,0,0,0,0,0,0,0,0,1899,0,0,0,0,0,0,0,0,0,0,0,3446,0,0,0,0,0,0,0,0,0,
0,0,0,0,0,0,0,0,0,1899,0,0,0,0,0,0,0,0,0,0,0,3446,0,0,0,0,0,0,0,0,0,
0,0,0,0,0,0,0,0,0,0,0,0,0,0,0,0,0,0,0,0,0,3446,0,0,0,0,0,0,0,0,0,
0,0,0,0,0,0,0,0,0,0,0,0,0,0,0,0,0,0,0,0,0,0,0,0,0,0,0,0,0,0,0,
0,0,0,0,0,0,0,0,0,0,0,0,0,0,0,0,0,0,0,0,0,0,0,0,0,0,0,0,0,0,0,
0,0,0,0,0,0,0,0,0,0,0,0,0,0,0,0,0,0,0,0,0,0,0,0,0,0,0,0,0,0,0,
0,0,0,0,0,0,0,0,0,0,0,0,0,0,0,0,0,0,0,0,0,0,0,0,0,0,0,0,0,0,0
</data>
 </layer>
 <group id="8" name="Layer2"/>
 <layer id="4" name="passages" width="31" height="29" visible="0">
  <data encoding="csv">
0,0,0,0,0,0,0,0,0,0,0,0,0,0,0,0,0,0,0,0,0,0,0,0,0,0,0,0,0,0,0,
0,0,0,0,0,0,0,0,0,0,0,0,0,0,0,0,0,0,0,0,0,0,0,0,0,0,0,0,0,0,0,
0,0,0,0,0,0,0,0,0,0,0,0,0,0,0,0,0,0,0,0,0,3608,3608,0,0,0,3608,3608,3608,0,0,
0,0,0,0,3608,3608,3608,3608,3608,0,0,0,0,0,0,0,0,0,0,0,0,3608,0,3608,3608,3608,0,0,0,3608,0,
0,0,0,3608,0,0,0,0,0,3608,0,0,0,0,0,0,0,0,0,0,0,3608,0,0,0,0,0,3608,3608,3608,0,
0,0,0,3608,0,0,0,3608,3608,0,0,0,0,0,0,0,0,0,0,0,0,0,3608,3608,0,0,0,3608,0,0,0,
0,0,3608,3608,0,0,0,3608,3608,0,0,0,0,0,0,0,0,0,0,0,0,0,3608,3608,0,0,0,3608,3608,0,0,
0,3608,0,0,0,0,0,0,0,3608,0,0,0,0,0,0,0,0,0,0,0,3608,0,0,0,0,0,0,0,3608,0,
0,3608,0,0,0,0,0,0,0,3608,0,0,0,0,0,0,0,0,0,0,0,3608,0,0,0,0,0,0,0,3608,0,
0,3608,0,3608,0,0,0,3608,0,3608,0,0,0,0,0,0,0,0,0,0,0,3608,0,3608,0,0,0,3608,0,3608,0,
0,0,3608,0,3608,3608,3608,0,3608,0,0,0,0,0,0,0,0,0,0,0,0,0,3608,0,3608,3608,3608,0,3608,0,0,
0,0,0,0,0,0,0,0,0,0,0,0,0,0,0,0,0,0,0,0,0,0,0,0,0,0,0,0,0,0,0,
0,0,0,0,0,0,0,0,0,0,0,0,0,0,0,0,0,0,0,0,0,0,0,0,0,0,0,0,0,0,0,
0,0,0,0,0,0,0,0,0,0,0,0,0,0,0,0,0,0,0,0,0,0,0,0,0,0,0,0,0,0,0,
0,0,0,0,0,0,0,0,0,0,0,0,0,0,0,0,0,0,0,0,0,0,0,0,0,0,0,0,0,0,0,
0,0,0,0,0,0,0,0,0,0,0,0,0,0,0,0,0,0,0,0,0,0,0,0,0,0,0,0,0,0,0,
0,0,0,0,0,0,0,0,0,0,0,0,0,0,0,0,0,0,0,0,0,0,0,0,0,0,0,0,0,0,0,
0,0,0,0,0,0,0,0,0,0,0,0,0,0,0,0,0,0,0,0,0,0,0,0,0,0,0,0,0,0,0,
0,0,0,0,0,0,0,0,0,0,0,0,0,0,0,0,0,0,0,0,0,0,0,0,0,0,0,0,0,0,0,
0,0,0,0,0,0,0,0,0,0,0,0,0,0,0,0,0,0,0,0,0,0,0,0,0,0,0,0,0,0,0,
0,0,3608,3608,3608,3608,3608,0,0,0,0,0,0,0,0,0,0,0,0,0,0,0,0,0,3608,3608,3608,3608,3608,0,0,
0,3608,0,0,0,0,0,3608,0,0,0,0,0,0,0,0,0,0,0,0,0,0,0,3608,0,0,0,0,0,3608,0,
0,0,3608,3608,0,0,0,3608,0,0,0,0,0,0,0,0,0,0,0,0,0,0,0,3608,0,0,0,3608,3608,0,0,
0,0,3608,3608,0,0,0,3608,3608,0,0,0,0,0,0,0,0,0,0,0,0,0,3608,3608,0,0,0,3608,3608,0,0,
0,3608,0,0,0,0,0,0,0,3608,0,0,0,0,0,0,0,0,0,0,0,3608,0,0,0,0,0,0,0,3608,0,
0,3608,0,0,0,0,0,0,0,3608,0,0,0,0,0,0,0,0,0,0,0,3608,0,0,0,0,0,0,0,3608,0,
0,3608,0,3608,0,0,0,3608,0,3608,0,0,0,0,0,0,0,0,0,0,0,3608,0,3608,0,0,0,3608,0,3608,0,
0,0,3608,0,3608,3608,3608,0,3608,0,0,0,0,0,0,0,0,0,0,0,0,0,3608,0,3608,3608,3608,0,3608,0,0,
0,0,0,0,0,0,0,0,0,0,0,0,0,0,0,0,0,0,0,0,0,0,0,0,0,0,0,0,0,0,0
</data>
 </layer>
 <layer id="5" name="systemtags" width="31" height="29" visible="0">
  <data encoding="csv">
1,1,1,1,1,1,1,1,1,1,1,1,1,1,1,1,1,1,1,1,1,1,1,1,1,1,1,1,1,1,1,
1,1,1,1,1,1,1,1,1,1,1,1,1,1,1,1,1,1,1,1,1,1,1,1,1,1,1,1,1,1,1,
1,1,1,1,1,1,1,1,1,1,1,1,1,1,1,1,1,1,1,1,1,1,1,1,1,1,1,1,1,1,1,
1,1,1,1,1,1,1,1,1,1,1,1,1,1,1,1,1,1,1,1,1,1,1,1,1,1,1,1,1,1,1,
1,1,1,1,1,1,1,1,1,1,1,1,1,1,1,1,1,1,1,1,1,1,1,1,1,1,1,1,1,1,1,
1,1,1,1,1,1,1,1,1,1,1,1,1,1,1,1,1,1,1,1,1,1,1,1,1,1,1,1,1,1,1,
1,1,1,1,1,1,1,1,1,1,1,1,1,1,1,1,1,1,1,1,1,1,1,1,1,1,1,1,1,1,1,
1,1,1,1,1,1,1,1,1,1,1,1,1,1,1,1,1,1,1,1,1,1,1,1,1,1,1,1,1,1,1,
1,1,1,1,1,1,1,1,1,1,1,1,1,1,1,1,1,1,1,1,1,1,1,1,1,1,1,1,1,1,1,
1,1,1,1,1,1,1,1,1,1,1,1,1,1,1,1,1,1,1,1,1,1,1,1,1,1,1,1,1,1,1,
1,1,1,1,1,1,1,1,1,1,1,1,1,1,1,1,1,1,1,1,1,1,1,1,1,1,1,1,1,1,1,
1,1,1,1,1,1,1,1,1,1,1,1,1,1,1,1,1,1,1,1,1,1,1,1,1,1,1,1,1,1,1,
1,1,1,1,1,1,1,1,1,1,1,1,1,1,1,1,1,1,1,1,1,1,1,1,1,1,1,1,1,1,1,
1,1,1,1,1,1,1,1,1,1,1,1,1,1,1,1,1,1,1,1,1,1,1,1,1,1,1,1,1,1,1,
1,1,1,1,1,1,1,1,1,1,1,1,1,1,1,1,1,1,1,1,1,1,1,1,1,1,1,1,1,1,1,
1,1,1,1,1,1,1,1,1,1,1,1,1,1,1,1,1,1,1,1,1,1,1,1,1,1,1,1,1,1,1,
1,1,1,1,1,1,1,1,1,1,1,1,1,1,1,1,1,1,1,1,1,1,1,1,1,1,1,1,1,1,1,
1,1,1,1,1,1,1,1,1,1,1,1,1,1,1,1,1,1,1,1,1,1,1,1,1,1,1,1,1,1,1,
1,1,1,1,1,1,1,1,1,1,1,1,1,1,1,1,1,1,1,1,1,1,1,1,1,1,1,1,1,1,1,
1,1,1,1,1,1,1,1,1,1,1,1,1,1,1,1,1,1,1,1,1,1,1,1,1,1,1,1,1,1,1,
1,1,1,1,1,1,1,1,1,1,1,1,1,1,1,1,1,1,1,1,1,1,1,1,1,1,1,1,1,1,1,
1,1,1,1,1,1,1,1,1,1,1,1,1,1,1,1,1,1,1,1,1,1,1,1,1,1,1,1,1,1,1,
1,1,1,1,1,1,1,1,1,1,1,1,1,1,1,1,1,1,1,1,1,1,1,1,1,1,1,1,1,1,1,
1,1,1,1,1,1,1,1,1,1,1,1,1,1,1,1,1,1,1,1,1,1,1,1,1,1,1,1,1,1,1,
1,1,1,1,1,1,1,1,1,1,1,1,1,1,1,1,1,1,1,1,1,1,1,1,1,1,1,1,1,1,1,
1,1,1,1,1,1,1,1,1,1,1,1,1,1,1,1,1,1,1,1,1,1,1,1,1,1,1,1,1,1,1,
1,1,1,1,1,1,1,1,1,1,1,1,1,1,1,1,1,1,1,1,1,1,1,1,1,1,1,1,1,1,1,
1,1,1,1,1,1,1,1,1,1,1,1,1,1,1,1,1,1,1,1,1,1,1,1,1,1,1,1,1,1,1,
1,1,1,1,1,1,1,1,1,1,1,1,1,1,1,1,1,1,1,1,1,1,1,1,1,1,1,1,1,1,1
</data>
 </layer>
 <group id="6" name="Infos"/>
</map>
